(Exported by FreeCAD)
(Post Processor: grbl_post)
(Output Time:2023-07-13 21:03:06.332849)
(Begin preamble)
G17 G90
G21
(Begin operation: G54)
(Path: G54)
G54
G0 Z5.000
(Finish operation: G54)
(Begin operation: custom_1.3mm_dremel001)
(Path: custom_1.3mm_dremel001)
(custom_1.3mm_dremel001)
(Begin toolchange)
( M6 T2 )
M3 S1
(Finish operation: custom_1.3mm_dremel001)
(Begin operation: Helix)
(Path: Helix)
(Helix)
(helix cut operation)
G0 Z5.000
G0 Z5.000
G0 X15.000 Y15.000 Z5.000
G0 X15.000 Y15.000 Z-2.000
G0 X15.650 Y15.000
G1 Z-2.000 F400.000
G2 X14.350 Y15.000 Z-2.300 I-0.650 J0.000 F1800.000
G2 X15.650 Y15.000 Z-2.600 I0.650 J0.000 F1800.000
G2 X14.350 Y15.000 Z-2.900 I-0.650 J0.000 F1800.000
G2 X15.650 Y15.000 Z-3.200 I0.650 J0.000 F1800.000
G2 X14.350 Y15.000 Z-3.500 I-0.650 J0.000 F1800.000
G2 X15.650 Y15.000 Z-3.800 I0.650 J0.000 F1800.000
G2 X14.350 Y15.000 Z-4.100 I-0.650 J0.000 F1800.000
G2 X15.650 Y15.000 Z-4.400 I0.650 J0.000 F1800.000
G2 X14.350 Y15.000 Z-4.700 I-0.650 J0.000 F1800.000
G2 X15.650 Y15.000 Z-5.000 I0.650 J0.000 F1800.000
G2 X14.350 Y15.000 Z-5.000 I-0.650 J0.000 F1800.000
G2 X15.650 Y15.000 Z-5.000 I0.650 J0.000 F1800.000
G0 X15.000 Y15.000 Z-5.000
G0 Z-2.000
G0 X16.600 Y15.000
G1 Z-2.000 F400.000
G2 X13.400 Y15.000 Z-2.300 I-1.600 J0.000 F1800.000
G2 X16.600 Y15.000 Z-2.600 I1.600 J0.000 F1800.000
G2 X13.400 Y15.000 Z-2.900 I-1.600 J0.000 F1800.000
G2 X16.600 Y15.000 Z-3.200 I1.600 J0.000 F1800.000
G2 X13.400 Y15.000 Z-3.500 I-1.600 J0.000 F1800.000
G2 X16.600 Y15.000 Z-3.800 I1.600 J0.000 F1800.000
G2 X13.400 Y15.000 Z-4.100 I-1.600 J0.000 F1800.000
G2 X16.600 Y15.000 Z-4.400 I1.600 J0.000 F1800.000
G2 X13.400 Y15.000 Z-4.700 I-1.600 J0.000 F1800.000
G2 X16.600 Y15.000 Z-5.000 I1.600 J0.000 F1800.000
G2 X13.400 Y15.000 Z-5.000 I-1.600 J0.000 F1800.000
G2 X16.600 Y15.000 Z-5.000 I1.600 J0.000 F1800.000
G0 X15.000 Y15.000 Z-5.000
G0 Z-2.000
G0 Z5.000
G0 X15.000 Y70.000 Z5.000
G0 X15.000 Y70.000 Z-2.000
G0 X15.650 Y70.000
G1 Z-2.000 F400.000
G2 X14.350 Y70.000 Z-2.300 I-0.650 J0.000 F1800.000
G2 X15.650 Y70.000 Z-2.600 I0.650 J0.000 F1800.000
G2 X14.350 Y70.000 Z-2.900 I-0.650 J0.000 F1800.000
G2 X15.650 Y70.000 Z-3.200 I0.650 J0.000 F1800.000
G2 X14.350 Y70.000 Z-3.500 I-0.650 J0.000 F1800.000
G2 X15.650 Y70.000 Z-3.800 I0.650 J0.000 F1800.000
G2 X14.350 Y70.000 Z-4.100 I-0.650 J0.000 F1800.000
G2 X15.650 Y70.000 Z-4.400 I0.650 J0.000 F1800.000
G2 X14.350 Y70.000 Z-4.700 I-0.650 J0.000 F1800.000
G2 X15.650 Y70.000 Z-5.000 I0.650 J0.000 F1800.000
G2 X14.350 Y70.000 Z-5.000 I-0.650 J0.000 F1800.000
G2 X15.650 Y70.000 Z-5.000 I0.650 J0.000 F1800.000
G0 X15.000 Y70.000 Z-5.000
G0 Z-2.000
G0 X16.600 Y70.000
G1 Z-2.000 F400.000
G2 X13.400 Y70.000 Z-2.300 I-1.600 J0.000 F1800.000
G2 X16.600 Y70.000 Z-2.600 I1.600 J0.000 F1800.000
G2 X13.400 Y70.000 Z-2.900 I-1.600 J0.000 F1800.000
G2 X16.600 Y70.000 Z-3.200 I1.600 J0.000 F1800.000
G2 X13.400 Y70.000 Z-3.500 I-1.600 J0.000 F1800.000
G2 X16.600 Y70.000 Z-3.800 I1.600 J0.000 F1800.000
G2 X13.400 Y70.000 Z-4.100 I-1.600 J0.000 F1800.000
G2 X16.600 Y70.000 Z-4.400 I1.600 J0.000 F1800.000
G2 X13.400 Y70.000 Z-4.700 I-1.600 J0.000 F1800.000
G2 X16.600 Y70.000 Z-5.000 I1.600 J0.000 F1800.000
G2 X13.400 Y70.000 Z-5.000 I-1.600 J0.000 F1800.000
G2 X16.600 Y70.000 Z-5.000 I1.600 J0.000 F1800.000
G0 X15.000 Y70.000 Z-5.000
G0 Z-2.000
G0 Z5.000
G0 X15.000 Y125.000 Z5.000
G0 X15.000 Y125.000 Z-2.000
G0 X15.650 Y125.000
G1 Z-2.000 F400.000
G2 X14.350 Y125.000 Z-2.300 I-0.650 J0.000 F1800.000
G2 X15.650 Y125.000 Z-2.600 I0.650 J0.000 F1800.000
G2 X14.350 Y125.000 Z-2.900 I-0.650 J0.000 F1800.000
G2 X15.650 Y125.000 Z-3.200 I0.650 J0.000 F1800.000
G2 X14.350 Y125.000 Z-3.500 I-0.650 J0.000 F1800.000
G2 X15.650 Y125.000 Z-3.800 I0.650 J0.000 F1800.000
G2 X14.350 Y125.000 Z-4.100 I-0.650 J0.000 F1800.000
G2 X15.650 Y125.000 Z-4.400 I0.650 J0.000 F1800.000
G2 X14.350 Y125.000 Z-4.700 I-0.650 J0.000 F1800.000
G2 X15.650 Y125.000 Z-5.000 I0.650 J0.000 F1800.000
G2 X14.350 Y125.000 Z-5.000 I-0.650 J0.000 F1800.000
G2 X15.650 Y125.000 Z-5.000 I0.650 J0.000 F1800.000
G0 X15.000 Y125.000 Z-5.000
G0 Z-2.000
G0 X16.600 Y125.000
G1 Z-2.000 F400.000
G2 X13.400 Y125.000 Z-2.300 I-1.600 J0.000 F1800.000
G2 X16.600 Y125.000 Z-2.600 I1.600 J0.000 F1800.000
G2 X13.400 Y125.000 Z-2.900 I-1.600 J0.000 F1800.000
G2 X16.600 Y125.000 Z-3.200 I1.600 J0.000 F1800.000
G2 X13.400 Y125.000 Z-3.500 I-1.600 J0.000 F1800.000
G2 X16.600 Y125.000 Z-3.800 I1.600 J0.000 F1800.000
G2 X13.400 Y125.000 Z-4.100 I-1.600 J0.000 F1800.000
G2 X16.600 Y125.000 Z-4.400 I1.600 J0.000 F1800.000
G2 X13.400 Y125.000 Z-4.700 I-1.600 J0.000 F1800.000
G2 X16.600 Y125.000 Z-5.000 I1.600 J0.000 F1800.000
G2 X13.400 Y125.000 Z-5.000 I-1.600 J0.000 F1800.000
G2 X16.600 Y125.000 Z-5.000 I1.600 J0.000 F1800.000
G0 X15.000 Y125.000 Z-5.000
G0 Z-2.000
G0 Z5.000
G0 X15.000 Y180.000 Z5.000
G0 X15.000 Y180.000 Z-2.000
G0 X15.650 Y180.000
G1 Z-2.000 F400.000
G2 X14.350 Y180.000 Z-2.300 I-0.650 J0.000 F1800.000
G2 X15.650 Y180.000 Z-2.600 I0.650 J0.000 F1800.000
G2 X14.350 Y180.000 Z-2.900 I-0.650 J0.000 F1800.000
G2 X15.650 Y180.000 Z-3.200 I0.650 J0.000 F1800.000
G2 X14.350 Y180.000 Z-3.500 I-0.650 J0.000 F1800.000
G2 X15.650 Y180.000 Z-3.800 I0.650 J0.000 F1800.000
G2 X14.350 Y180.000 Z-4.100 I-0.650 J0.000 F1800.000
G2 X15.650 Y180.000 Z-4.400 I0.650 J0.000 F1800.000
G2 X14.350 Y180.000 Z-4.700 I-0.650 J0.000 F1800.000
G2 X15.650 Y180.000 Z-5.000 I0.650 J0.000 F1800.000
G2 X14.350 Y180.000 Z-5.000 I-0.650 J0.000 F1800.000
G2 X15.650 Y180.000 Z-5.000 I0.650 J0.000 F1800.000
G0 X15.000 Y180.000 Z-5.000
G0 Z-2.000
G0 X16.600 Y180.000
G1 Z-2.000 F400.000
G2 X13.400 Y180.000 Z-2.300 I-1.600 J0.000 F1800.000
G2 X16.600 Y180.000 Z-2.600 I1.600 J0.000 F1800.000
G2 X13.400 Y180.000 Z-2.900 I-1.600 J0.000 F1800.000
G2 X16.600 Y180.000 Z-3.200 I1.600 J0.000 F1800.000
G2 X13.400 Y180.000 Z-3.500 I-1.600 J0.000 F1800.000
G2 X16.600 Y180.000 Z-3.800 I1.600 J0.000 F1800.000
G2 X13.400 Y180.000 Z-4.100 I-1.600 J0.000 F1800.000
G2 X16.600 Y180.000 Z-4.400 I1.600 J0.000 F1800.000
G2 X13.400 Y180.000 Z-4.700 I-1.600 J0.000 F1800.000
G2 X16.600 Y180.000 Z-5.000 I1.600 J0.000 F1800.000
G2 X13.400 Y180.000 Z-5.000 I-1.600 J0.000 F1800.000
G2 X16.600 Y180.000 Z-5.000 I1.600 J0.000 F1800.000
G0 X15.000 Y180.000 Z-5.000
G0 Z-2.000
G0 Z5.000
G0 X15.000 Y235.000 Z5.000
G0 X15.000 Y235.000 Z-2.000
G0 X15.650 Y235.000
G1 Z-2.000 F400.000
G2 X14.350 Y235.000 Z-2.300 I-0.650 J0.000 F1800.000
G2 X15.650 Y235.000 Z-2.600 I0.650 J0.000 F1800.000
G2 X14.350 Y235.000 Z-2.900 I-0.650 J0.000 F1800.000
G2 X15.650 Y235.000 Z-3.200 I0.650 J0.000 F1800.000
G2 X14.350 Y235.000 Z-3.500 I-0.650 J0.000 F1800.000
G2 X15.650 Y235.000 Z-3.800 I0.650 J0.000 F1800.000
G2 X14.350 Y235.000 Z-4.100 I-0.650 J0.000 F1800.000
G2 X15.650 Y235.000 Z-4.400 I0.650 J0.000 F1800.000
G2 X14.350 Y235.000 Z-4.700 I-0.650 J0.000 F1800.000
G2 X15.650 Y235.000 Z-5.000 I0.650 J0.000 F1800.000
G2 X14.350 Y235.000 Z-5.000 I-0.650 J0.000 F1800.000
G2 X15.650 Y235.000 Z-5.000 I0.650 J0.000 F1800.000
G0 X15.000 Y235.000 Z-5.000
G0 Z-2.000
G0 X16.600 Y235.000
G1 Z-2.000 F400.000
G2 X13.400 Y235.000 Z-2.300 I-1.600 J0.000 F1800.000
G2 X16.600 Y235.000 Z-2.600 I1.600 J0.000 F1800.000
G2 X13.400 Y235.000 Z-2.900 I-1.600 J0.000 F1800.000
G2 X16.600 Y235.000 Z-3.200 I1.600 J0.000 F1800.000
G2 X13.400 Y235.000 Z-3.500 I-1.600 J0.000 F1800.000
G2 X16.600 Y235.000 Z-3.800 I1.600 J0.000 F1800.000
G2 X13.400 Y235.000 Z-4.100 I-1.600 J0.000 F1800.000
G2 X16.600 Y235.000 Z-4.400 I1.600 J0.000 F1800.000
G2 X13.400 Y235.000 Z-4.700 I-1.600 J0.000 F1800.000
G2 X16.600 Y235.000 Z-5.000 I1.600 J0.000 F1800.000
G2 X13.400 Y235.000 Z-5.000 I-1.600 J0.000 F1800.000
G2 X16.600 Y235.000 Z-5.000 I1.600 J0.000 F1800.000
G0 X15.000 Y235.000 Z-5.000
G0 Z-2.000
G0 Z5.000
G0 X69.667 Y235.000 Z5.000
G0 X69.667 Y235.000 Z-2.000
G0 X70.317 Y235.000
G1 Z-2.000 F400.000
G2 X69.017 Y235.000 Z-2.300 I-0.650 J0.000 F1800.000
G2 X70.317 Y235.000 Z-2.600 I0.650 J0.000 F1800.000
G2 X69.017 Y235.000 Z-2.900 I-0.650 J0.000 F1800.000
G2 X70.317 Y235.000 Z-3.200 I0.650 J0.000 F1800.000
G2 X69.017 Y235.000 Z-3.500 I-0.650 J0.000 F1800.000
G2 X70.317 Y235.000 Z-3.800 I0.650 J0.000 F1800.000
G2 X69.017 Y235.000 Z-4.100 I-0.650 J0.000 F1800.000
G2 X70.317 Y235.000 Z-4.400 I0.650 J0.000 F1800.000
G2 X69.017 Y235.000 Z-4.700 I-0.650 J0.000 F1800.000
G2 X70.317 Y235.000 Z-5.000 I0.650 J0.000 F1800.000
G2 X69.017 Y235.000 Z-5.000 I-0.650 J0.000 F1800.000
G2 X70.317 Y235.000 Z-5.000 I0.650 J0.000 F1800.000
G0 X69.667 Y235.000 Z-5.000
G0 Z-2.000
G0 X71.267 Y235.000
G1 Z-2.000 F400.000
G2 X68.067 Y235.000 Z-2.300 I-1.600 J0.000 F1800.000
G2 X71.267 Y235.000 Z-2.600 I1.600 J0.000 F1800.000
G2 X68.067 Y235.000 Z-2.900 I-1.600 J0.000 F1800.000
G2 X71.267 Y235.000 Z-3.200 I1.600 J0.000 F1800.000
G2 X68.067 Y235.000 Z-3.500 I-1.600 J0.000 F1800.000
G2 X71.267 Y235.000 Z-3.800 I1.600 J0.000 F1800.000
G2 X68.067 Y235.000 Z-4.100 I-1.600 J0.000 F1800.000
G2 X71.267 Y235.000 Z-4.400 I1.600 J0.000 F1800.000
G2 X68.067 Y235.000 Z-4.700 I-1.600 J0.000 F1800.000
G2 X71.267 Y235.000 Z-5.000 I1.600 J0.000 F1800.000
G2 X68.067 Y235.000 Z-5.000 I-1.600 J0.000 F1800.000
G2 X71.267 Y235.000 Z-5.000 I1.600 J0.000 F1800.000
G0 X69.667 Y235.000 Z-5.000
G0 Z-2.000
G0 Z5.000
G0 X69.667 Y180.000 Z5.000
G0 X69.667 Y180.000 Z-2.000
G0 X70.317 Y180.000
G1 Z-2.000 F400.000
G2 X69.017 Y180.000 Z-2.300 I-0.650 J0.000 F1800.000
G2 X70.317 Y180.000 Z-2.600 I0.650 J0.000 F1800.000
G2 X69.017 Y180.000 Z-2.900 I-0.650 J0.000 F1800.000
G2 X70.317 Y180.000 Z-3.200 I0.650 J0.000 F1800.000
G2 X69.017 Y180.000 Z-3.500 I-0.650 J0.000 F1800.000
G2 X70.317 Y180.000 Z-3.800 I0.650 J0.000 F1800.000
G2 X69.017 Y180.000 Z-4.100 I-0.650 J0.000 F1800.000
G2 X70.317 Y180.000 Z-4.400 I0.650 J0.000 F1800.000
G2 X69.017 Y180.000 Z-4.700 I-0.650 J0.000 F1800.000
G2 X70.317 Y180.000 Z-5.000 I0.650 J0.000 F1800.000
G2 X69.017 Y180.000 Z-5.000 I-0.650 J0.000 F1800.000
G2 X70.317 Y180.000 Z-5.000 I0.650 J0.000 F1800.000
G0 X69.667 Y180.000 Z-5.000
G0 Z-2.000
G0 X71.267 Y180.000
G1 Z-2.000 F400.000
G2 X68.067 Y180.000 Z-2.300 I-1.600 J0.000 F1800.000
G2 X71.267 Y180.000 Z-2.600 I1.600 J0.000 F1800.000
G2 X68.067 Y180.000 Z-2.900 I-1.600 J0.000 F1800.000
G2 X71.267 Y180.000 Z-3.200 I1.600 J0.000 F1800.000
G2 X68.067 Y180.000 Z-3.500 I-1.600 J0.000 F1800.000
G2 X71.267 Y180.000 Z-3.800 I1.600 J0.000 F1800.000
G2 X68.067 Y180.000 Z-4.100 I-1.600 J0.000 F1800.000
G2 X71.267 Y180.000 Z-4.400 I1.600 J0.000 F1800.000
G2 X68.067 Y180.000 Z-4.700 I-1.600 J0.000 F1800.000
G2 X71.267 Y180.000 Z-5.000 I1.600 J0.000 F1800.000
G2 X68.067 Y180.000 Z-5.000 I-1.600 J0.000 F1800.000
G2 X71.267 Y180.000 Z-5.000 I1.600 J0.000 F1800.000
G0 X69.667 Y180.000 Z-5.000
G0 Z-2.000
G0 Z5.000
G0 X69.667 Y125.000 Z5.000
G0 X69.667 Y125.000 Z-2.000
G0 X70.317 Y125.000
G1 Z-2.000 F400.000
G2 X69.017 Y125.000 Z-2.300 I-0.650 J0.000 F1800.000
G2 X70.317 Y125.000 Z-2.600 I0.650 J0.000 F1800.000
G2 X69.017 Y125.000 Z-2.900 I-0.650 J0.000 F1800.000
G2 X70.317 Y125.000 Z-3.200 I0.650 J0.000 F1800.000
G2 X69.017 Y125.000 Z-3.500 I-0.650 J0.000 F1800.000
G2 X70.317 Y125.000 Z-3.800 I0.650 J0.000 F1800.000
G2 X69.017 Y125.000 Z-4.100 I-0.650 J0.000 F1800.000
G2 X70.317 Y125.000 Z-4.400 I0.650 J0.000 F1800.000
G2 X69.017 Y125.000 Z-4.700 I-0.650 J0.000 F1800.000
G2 X70.317 Y125.000 Z-5.000 I0.650 J0.000 F1800.000
G2 X69.017 Y125.000 Z-5.000 I-0.650 J0.000 F1800.000
G2 X70.317 Y125.000 Z-5.000 I0.650 J0.000 F1800.000
G0 X69.667 Y125.000 Z-5.000
G0 Z-2.000
G0 X71.267 Y125.000
G1 Z-2.000 F400.000
G2 X68.067 Y125.000 Z-2.300 I-1.600 J0.000 F1800.000
G2 X71.267 Y125.000 Z-2.600 I1.600 J0.000 F1800.000
G2 X68.067 Y125.000 Z-2.900 I-1.600 J0.000 F1800.000
G2 X71.267 Y125.000 Z-3.200 I1.600 J0.000 F1800.000
G2 X68.067 Y125.000 Z-3.500 I-1.600 J0.000 F1800.000
G2 X71.267 Y125.000 Z-3.800 I1.600 J0.000 F1800.000
G2 X68.067 Y125.000 Z-4.100 I-1.600 J0.000 F1800.000
G2 X71.267 Y125.000 Z-4.400 I1.600 J0.000 F1800.000
G2 X68.067 Y125.000 Z-4.700 I-1.600 J0.000 F1800.000
G2 X71.267 Y125.000 Z-5.000 I1.600 J0.000 F1800.000
G2 X68.067 Y125.000 Z-5.000 I-1.600 J0.000 F1800.000
G2 X71.267 Y125.000 Z-5.000 I1.600 J0.000 F1800.000
G0 X69.667 Y125.000 Z-5.000
G0 Z-2.000
G0 Z5.000
G0 X69.667 Y70.000 Z5.000
G0 X69.667 Y70.000 Z-2.000
G0 X70.317 Y70.000
G1 Z-2.000 F400.000
G2 X69.017 Y70.000 Z-2.300 I-0.650 J0.000 F1800.000
G2 X70.317 Y70.000 Z-2.600 I0.650 J0.000 F1800.000
G2 X69.017 Y70.000 Z-2.900 I-0.650 J0.000 F1800.000
G2 X70.317 Y70.000 Z-3.200 I0.650 J0.000 F1800.000
G2 X69.017 Y70.000 Z-3.500 I-0.650 J0.000 F1800.000
G2 X70.317 Y70.000 Z-3.800 I0.650 J0.000 F1800.000
G2 X69.017 Y70.000 Z-4.100 I-0.650 J0.000 F1800.000
G2 X70.317 Y70.000 Z-4.400 I0.650 J0.000 F1800.000
G2 X69.017 Y70.000 Z-4.700 I-0.650 J0.000 F1800.000
G2 X70.317 Y70.000 Z-5.000 I0.650 J0.000 F1800.000
G2 X69.017 Y70.000 Z-5.000 I-0.650 J0.000 F1800.000
G2 X70.317 Y70.000 Z-5.000 I0.650 J0.000 F1800.000
G0 X69.667 Y70.000 Z-5.000
G0 Z-2.000
G0 X71.267 Y70.000
G1 Z-2.000 F400.000
G2 X68.067 Y70.000 Z-2.300 I-1.600 J0.000 F1800.000
G2 X71.267 Y70.000 Z-2.600 I1.600 J0.000 F1800.000
G2 X68.067 Y70.000 Z-2.900 I-1.600 J0.000 F1800.000
G2 X71.267 Y70.000 Z-3.200 I1.600 J0.000 F1800.000
G2 X68.067 Y70.000 Z-3.500 I-1.600 J0.000 F1800.000
G2 X71.267 Y70.000 Z-3.800 I1.600 J0.000 F1800.000
G2 X68.067 Y70.000 Z-4.100 I-1.600 J0.000 F1800.000
G2 X71.267 Y70.000 Z-4.400 I1.600 J0.000 F1800.000
G2 X68.067 Y70.000 Z-4.700 I-1.600 J0.000 F1800.000
G2 X71.267 Y70.000 Z-5.000 I1.600 J0.000 F1800.000
G2 X68.067 Y70.000 Z-5.000 I-1.600 J0.000 F1800.000
G2 X71.267 Y70.000 Z-5.000 I1.600 J0.000 F1800.000
G0 X69.667 Y70.000 Z-5.000
G0 Z-2.000
G0 Z5.000
G0 X69.667 Y15.000 Z5.000
G0 X69.667 Y15.000 Z-2.000
G0 X70.317 Y15.000
G1 Z-2.000 F400.000
G2 X69.017 Y15.000 Z-2.300 I-0.650 J0.000 F1800.000
G2 X70.317 Y15.000 Z-2.600 I0.650 J0.000 F1800.000
G2 X69.017 Y15.000 Z-2.900 I-0.650 J0.000 F1800.000
G2 X70.317 Y15.000 Z-3.200 I0.650 J0.000 F1800.000
G2 X69.017 Y15.000 Z-3.500 I-0.650 J0.000 F1800.000
G2 X70.317 Y15.000 Z-3.800 I0.650 J0.000 F1800.000
G2 X69.017 Y15.000 Z-4.100 I-0.650 J0.000 F1800.000
G2 X70.317 Y15.000 Z-4.400 I0.650 J0.000 F1800.000
G2 X69.017 Y15.000 Z-4.700 I-0.650 J0.000 F1800.000
G2 X70.317 Y15.000 Z-5.000 I0.650 J0.000 F1800.000
G2 X69.017 Y15.000 Z-5.000 I-0.650 J0.000 F1800.000
G2 X70.317 Y15.000 Z-5.000 I0.650 J0.000 F1800.000
G0 X69.667 Y15.000 Z-5.000
G0 Z-2.000
G0 X71.267 Y15.000
G1 Z-2.000 F400.000
G2 X68.067 Y15.000 Z-2.300 I-1.600 J0.000 F1800.000
G2 X71.267 Y15.000 Z-2.600 I1.600 J0.000 F1800.000
G2 X68.067 Y15.000 Z-2.900 I-1.600 J0.000 F1800.000
G2 X71.267 Y15.000 Z-3.200 I1.600 J0.000 F1800.000
G2 X68.067 Y15.000 Z-3.500 I-1.600 J0.000 F1800.000
G2 X71.267 Y15.000 Z-3.800 I1.600 J0.000 F1800.000
G2 X68.067 Y15.000 Z-4.100 I-1.600 J0.000 F1800.000
G2 X71.267 Y15.000 Z-4.400 I1.600 J0.000 F1800.000
G2 X68.067 Y15.000 Z-4.700 I-1.600 J0.000 F1800.000
G2 X71.267 Y15.000 Z-5.000 I1.600 J0.000 F1800.000
G2 X68.067 Y15.000 Z-5.000 I-1.600 J0.000 F1800.000
G2 X71.267 Y15.000 Z-5.000 I1.600 J0.000 F1800.000
G0 X69.667 Y15.000 Z-5.000
G0 Z-2.000
G0 Z5.000
G0 X124.333 Y15.000 Z5.000
G0 X124.333 Y15.000 Z-2.000
G0 X124.983 Y15.000
G1 Z-2.000 F400.000
G2 X123.683 Y15.000 Z-2.300 I-0.650 J0.000 F1800.000
G2 X124.983 Y15.000 Z-2.600 I0.650 J0.000 F1800.000
G2 X123.683 Y15.000 Z-2.900 I-0.650 J0.000 F1800.000
G2 X124.983 Y15.000 Z-3.200 I0.650 J0.000 F1800.000
G2 X123.683 Y15.000 Z-3.500 I-0.650 J0.000 F1800.000
G2 X124.983 Y15.000 Z-3.800 I0.650 J0.000 F1800.000
G2 X123.683 Y15.000 Z-4.100 I-0.650 J0.000 F1800.000
G2 X124.983 Y15.000 Z-4.400 I0.650 J0.000 F1800.000
G2 X123.683 Y15.000 Z-4.700 I-0.650 J0.000 F1800.000
G2 X124.983 Y15.000 Z-5.000 I0.650 J0.000 F1800.000
G2 X123.683 Y15.000 Z-5.000 I-0.650 J0.000 F1800.000
G2 X124.983 Y15.000 Z-5.000 I0.650 J0.000 F1800.000
G0 X124.333 Y15.000 Z-5.000
G0 Z-2.000
G0 X125.933 Y15.000
G1 Z-2.000 F400.000
G2 X122.733 Y15.000 Z-2.300 I-1.600 J0.000 F1800.000
G2 X125.933 Y15.000 Z-2.600 I1.600 J0.000 F1800.000
G2 X122.733 Y15.000 Z-2.900 I-1.600 J0.000 F1800.000
G2 X125.933 Y15.000 Z-3.200 I1.600 J0.000 F1800.000
G2 X122.733 Y15.000 Z-3.500 I-1.600 J0.000 F1800.000
G2 X125.933 Y15.000 Z-3.800 I1.600 J0.000 F1800.000
G2 X122.733 Y15.000 Z-4.100 I-1.600 J0.000 F1800.000
G2 X125.933 Y15.000 Z-4.400 I1.600 J0.000 F1800.000
G2 X122.733 Y15.000 Z-4.700 I-1.600 J0.000 F1800.000
G2 X125.933 Y15.000 Z-5.000 I1.600 J0.000 F1800.000
G2 X122.733 Y15.000 Z-5.000 I-1.600 J0.000 F1800.000
G2 X125.933 Y15.000 Z-5.000 I1.600 J0.000 F1800.000
G0 X124.333 Y15.000 Z-5.000
G0 Z-2.000
G0 Z5.000
G0 X124.333 Y70.000 Z5.000
G0 X124.333 Y70.000 Z-2.000
G0 X124.983 Y70.000
G1 Z-2.000 F400.000
G2 X123.683 Y70.000 Z-2.300 I-0.650 J0.000 F1800.000
G2 X124.983 Y70.000 Z-2.600 I0.650 J0.000 F1800.000
G2 X123.683 Y70.000 Z-2.900 I-0.650 J0.000 F1800.000
G2 X124.983 Y70.000 Z-3.200 I0.650 J0.000 F1800.000
G2 X123.683 Y70.000 Z-3.500 I-0.650 J0.000 F1800.000
G2 X124.983 Y70.000 Z-3.800 I0.650 J0.000 F1800.000
G2 X123.683 Y70.000 Z-4.100 I-0.650 J0.000 F1800.000
G2 X124.983 Y70.000 Z-4.400 I0.650 J0.000 F1800.000
G2 X123.683 Y70.000 Z-4.700 I-0.650 J0.000 F1800.000
G2 X124.983 Y70.000 Z-5.000 I0.650 J0.000 F1800.000
G2 X123.683 Y70.000 Z-5.000 I-0.650 J0.000 F1800.000
G2 X124.983 Y70.000 Z-5.000 I0.650 J0.000 F1800.000
G0 X124.333 Y70.000 Z-5.000
G0 Z-2.000
G0 X125.933 Y70.000
G1 Z-2.000 F400.000
G2 X122.733 Y70.000 Z-2.300 I-1.600 J0.000 F1800.000
G2 X125.933 Y70.000 Z-2.600 I1.600 J0.000 F1800.000
G2 X122.733 Y70.000 Z-2.900 I-1.600 J0.000 F1800.000
G2 X125.933 Y70.000 Z-3.200 I1.600 J0.000 F1800.000
G2 X122.733 Y70.000 Z-3.500 I-1.600 J0.000 F1800.000
G2 X125.933 Y70.000 Z-3.800 I1.600 J0.000 F1800.000
G2 X122.733 Y70.000 Z-4.100 I-1.600 J0.000 F1800.000
G2 X125.933 Y70.000 Z-4.400 I1.600 J0.000 F1800.000
G2 X122.733 Y70.000 Z-4.700 I-1.600 J0.000 F1800.000
G2 X125.933 Y70.000 Z-5.000 I1.600 J0.000 F1800.000
G2 X122.733 Y70.000 Z-5.000 I-1.600 J0.000 F1800.000
G2 X125.933 Y70.000 Z-5.000 I1.600 J0.000 F1800.000
G0 X124.333 Y70.000 Z-5.000
G0 Z-2.000
G0 Z5.000
G0 X124.333 Y125.000 Z5.000
G0 X124.333 Y125.000 Z-2.000
G0 X124.983 Y125.000
G1 Z-2.000 F400.000
G2 X123.683 Y125.000 Z-2.300 I-0.650 J0.000 F1800.000
G2 X124.983 Y125.000 Z-2.600 I0.650 J0.000 F1800.000
G2 X123.683 Y125.000 Z-2.900 I-0.650 J0.000 F1800.000
G2 X124.983 Y125.000 Z-3.200 I0.650 J0.000 F1800.000
G2 X123.683 Y125.000 Z-3.500 I-0.650 J0.000 F1800.000
G2 X124.983 Y125.000 Z-3.800 I0.650 J0.000 F1800.000
G2 X123.683 Y125.000 Z-4.100 I-0.650 J0.000 F1800.000
G2 X124.983 Y125.000 Z-4.400 I0.650 J0.000 F1800.000
G2 X123.683 Y125.000 Z-4.700 I-0.650 J0.000 F1800.000
G2 X124.983 Y125.000 Z-5.000 I0.650 J0.000 F1800.000
G2 X123.683 Y125.000 Z-5.000 I-0.650 J0.000 F1800.000
G2 X124.983 Y125.000 Z-5.000 I0.650 J0.000 F1800.000
G0 X124.333 Y125.000 Z-5.000
G0 Z-2.000
G0 X125.933 Y125.000
G1 Z-2.000 F400.000
G2 X122.733 Y125.000 Z-2.300 I-1.600 J0.000 F1800.000
G2 X125.933 Y125.000 Z-2.600 I1.600 J0.000 F1800.000
G2 X122.733 Y125.000 Z-2.900 I-1.600 J0.000 F1800.000
G2 X125.933 Y125.000 Z-3.200 I1.600 J0.000 F1800.000
G2 X122.733 Y125.000 Z-3.500 I-1.600 J0.000 F1800.000
G2 X125.933 Y125.000 Z-3.800 I1.600 J0.000 F1800.000
G2 X122.733 Y125.000 Z-4.100 I-1.600 J0.000 F1800.000
G2 X125.933 Y125.000 Z-4.400 I1.600 J0.000 F1800.000
G2 X122.733 Y125.000 Z-4.700 I-1.600 J0.000 F1800.000
G2 X125.933 Y125.000 Z-5.000 I1.600 J0.000 F1800.000
G2 X122.733 Y125.000 Z-5.000 I-1.600 J0.000 F1800.000
G2 X125.933 Y125.000 Z-5.000 I1.600 J0.000 F1800.000
G0 X124.333 Y125.000 Z-5.000
G0 Z-2.000
G0 Z5.000
G0 X124.333 Y180.000 Z5.000
G0 X124.333 Y180.000 Z-2.000
G0 X124.983 Y180.000
G1 Z-2.000 F400.000
G2 X123.683 Y180.000 Z-2.300 I-0.650 J0.000 F1800.000
G2 X124.983 Y180.000 Z-2.600 I0.650 J0.000 F1800.000
G2 X123.683 Y180.000 Z-2.900 I-0.650 J0.000 F1800.000
G2 X124.983 Y180.000 Z-3.200 I0.650 J0.000 F1800.000
G2 X123.683 Y180.000 Z-3.500 I-0.650 J0.000 F1800.000
G2 X124.983 Y180.000 Z-3.800 I0.650 J0.000 F1800.000
G2 X123.683 Y180.000 Z-4.100 I-0.650 J0.000 F1800.000
G2 X124.983 Y180.000 Z-4.400 I0.650 J0.000 F1800.000
G2 X123.683 Y180.000 Z-4.700 I-0.650 J0.000 F1800.000
G2 X124.983 Y180.000 Z-5.000 I0.650 J0.000 F1800.000
G2 X123.683 Y180.000 Z-5.000 I-0.650 J0.000 F1800.000
G2 X124.983 Y180.000 Z-5.000 I0.650 J0.000 F1800.000
G0 X124.333 Y180.000 Z-5.000
G0 Z-2.000
G0 X125.933 Y180.000
G1 Z-2.000 F400.000
G2 X122.733 Y180.000 Z-2.300 I-1.600 J0.000 F1800.000
G2 X125.933 Y180.000 Z-2.600 I1.600 J0.000 F1800.000
G2 X122.733 Y180.000 Z-2.900 I-1.600 J0.000 F1800.000
G2 X125.933 Y180.000 Z-3.200 I1.600 J0.000 F1800.000
G2 X122.733 Y180.000 Z-3.500 I-1.600 J0.000 F1800.000
G2 X125.933 Y180.000 Z-3.800 I1.600 J0.000 F1800.000
G2 X122.733 Y180.000 Z-4.100 I-1.600 J0.000 F1800.000
G2 X125.933 Y180.000 Z-4.400 I1.600 J0.000 F1800.000
G2 X122.733 Y180.000 Z-4.700 I-1.600 J0.000 F1800.000
G2 X125.933 Y180.000 Z-5.000 I1.600 J0.000 F1800.000
G2 X122.733 Y180.000 Z-5.000 I-1.600 J0.000 F1800.000
G2 X125.933 Y180.000 Z-5.000 I1.600 J0.000 F1800.000
G0 X124.333 Y180.000 Z-5.000
G0 Z-2.000
G0 Z5.000
G0 X124.333 Y235.000 Z5.000
G0 X124.333 Y235.000 Z-2.000
G0 X124.983 Y235.000
G1 Z-2.000 F400.000
G2 X123.683 Y235.000 Z-2.300 I-0.650 J0.000 F1800.000
G2 X124.983 Y235.000 Z-2.600 I0.650 J0.000 F1800.000
G2 X123.683 Y235.000 Z-2.900 I-0.650 J0.000 F1800.000
G2 X124.983 Y235.000 Z-3.200 I0.650 J0.000 F1800.000
G2 X123.683 Y235.000 Z-3.500 I-0.650 J0.000 F1800.000
G2 X124.983 Y235.000 Z-3.800 I0.650 J0.000 F1800.000
G2 X123.683 Y235.000 Z-4.100 I-0.650 J0.000 F1800.000
G2 X124.983 Y235.000 Z-4.400 I0.650 J0.000 F1800.000
G2 X123.683 Y235.000 Z-4.700 I-0.650 J0.000 F1800.000
G2 X124.983 Y235.000 Z-5.000 I0.650 J0.000 F1800.000
G2 X123.683 Y235.000 Z-5.000 I-0.650 J0.000 F1800.000
G2 X124.983 Y235.000 Z-5.000 I0.650 J0.000 F1800.000
G0 X124.333 Y235.000 Z-5.000
G0 Z-2.000
G0 X125.933 Y235.000
G1 Z-2.000 F400.000
G2 X122.733 Y235.000 Z-2.300 I-1.600 J0.000 F1800.000
G2 X125.933 Y235.000 Z-2.600 I1.600 J0.000 F1800.000
G2 X122.733 Y235.000 Z-2.900 I-1.600 J0.000 F1800.000
G2 X125.933 Y235.000 Z-3.200 I1.600 J0.000 F1800.000
G2 X122.733 Y235.000 Z-3.500 I-1.600 J0.000 F1800.000
G2 X125.933 Y235.000 Z-3.800 I1.600 J0.000 F1800.000
G2 X122.733 Y235.000 Z-4.100 I-1.600 J0.000 F1800.000
G2 X125.933 Y235.000 Z-4.400 I1.600 J0.000 F1800.000
G2 X122.733 Y235.000 Z-4.700 I-1.600 J0.000 F1800.000
G2 X125.933 Y235.000 Z-5.000 I1.600 J0.000 F1800.000
G2 X122.733 Y235.000 Z-5.000 I-1.600 J0.000 F1800.000
G2 X125.933 Y235.000 Z-5.000 I1.600 J0.000 F1800.000
G0 X124.333 Y235.000 Z-5.000
G0 Z-2.000
G0 Z5.000
G0 X179.000 Y235.000 Z5.000
G0 X179.000 Y235.000 Z-2.000
G0 X179.650 Y235.000
G1 Z-2.000 F400.000
G2 X178.350 Y235.000 Z-2.300 I-0.650 J0.000 F1800.000
G2 X179.650 Y235.000 Z-2.600 I0.650 J0.000 F1800.000
G2 X178.350 Y235.000 Z-2.900 I-0.650 J0.000 F1800.000
G2 X179.650 Y235.000 Z-3.200 I0.650 J0.000 F1800.000
G2 X178.350 Y235.000 Z-3.500 I-0.650 J0.000 F1800.000
G2 X179.650 Y235.000 Z-3.800 I0.650 J0.000 F1800.000
G2 X178.350 Y235.000 Z-4.100 I-0.650 J0.000 F1800.000
G2 X179.650 Y235.000 Z-4.400 I0.650 J0.000 F1800.000
G2 X178.350 Y235.000 Z-4.700 I-0.650 J0.000 F1800.000
G2 X179.650 Y235.000 Z-5.000 I0.650 J0.000 F1800.000
G2 X178.350 Y235.000 Z-5.000 I-0.650 J0.000 F1800.000
G2 X179.650 Y235.000 Z-5.000 I0.650 J0.000 F1800.000
G0 X179.000 Y235.000 Z-5.000
G0 Z-2.000
G0 X180.600 Y235.000
G1 Z-2.000 F400.000
G2 X177.400 Y235.000 Z-2.300 I-1.600 J0.000 F1800.000
G2 X180.600 Y235.000 Z-2.600 I1.600 J0.000 F1800.000
G2 X177.400 Y235.000 Z-2.900 I-1.600 J0.000 F1800.000
G2 X180.600 Y235.000 Z-3.200 I1.600 J0.000 F1800.000
G2 X177.400 Y235.000 Z-3.500 I-1.600 J0.000 F1800.000
G2 X180.600 Y235.000 Z-3.800 I1.600 J0.000 F1800.000
G2 X177.400 Y235.000 Z-4.100 I-1.600 J0.000 F1800.000
G2 X180.600 Y235.000 Z-4.400 I1.600 J0.000 F1800.000
G2 X177.400 Y235.000 Z-4.700 I-1.600 J0.000 F1800.000
G2 X180.600 Y235.000 Z-5.000 I1.600 J0.000 F1800.000
G2 X177.400 Y235.000 Z-5.000 I-1.600 J0.000 F1800.000
G2 X180.600 Y235.000 Z-5.000 I1.600 J0.000 F1800.000
G0 X179.000 Y235.000 Z-5.000
G0 Z-2.000
G0 Z5.000
G0 X179.000 Y180.000 Z5.000
G0 X179.000 Y180.000 Z-2.000
G0 X179.650 Y180.000
G1 Z-2.000 F400.000
G2 X178.350 Y180.000 Z-2.300 I-0.650 J0.000 F1800.000
G2 X179.650 Y180.000 Z-2.600 I0.650 J0.000 F1800.000
G2 X178.350 Y180.000 Z-2.900 I-0.650 J0.000 F1800.000
G2 X179.650 Y180.000 Z-3.200 I0.650 J0.000 F1800.000
G2 X178.350 Y180.000 Z-3.500 I-0.650 J0.000 F1800.000
G2 X179.650 Y180.000 Z-3.800 I0.650 J0.000 F1800.000
G2 X178.350 Y180.000 Z-4.100 I-0.650 J0.000 F1800.000
G2 X179.650 Y180.000 Z-4.400 I0.650 J0.000 F1800.000
G2 X178.350 Y180.000 Z-4.700 I-0.650 J0.000 F1800.000
G2 X179.650 Y180.000 Z-5.000 I0.650 J0.000 F1800.000
G2 X178.350 Y180.000 Z-5.000 I-0.650 J0.000 F1800.000
G2 X179.650 Y180.000 Z-5.000 I0.650 J0.000 F1800.000
G0 X179.000 Y180.000 Z-5.000
G0 Z-2.000
G0 X180.600 Y180.000
G1 Z-2.000 F400.000
G2 X177.400 Y180.000 Z-2.300 I-1.600 J0.000 F1800.000
G2 X180.600 Y180.000 Z-2.600 I1.600 J0.000 F1800.000
G2 X177.400 Y180.000 Z-2.900 I-1.600 J0.000 F1800.000
G2 X180.600 Y180.000 Z-3.200 I1.600 J0.000 F1800.000
G2 X177.400 Y180.000 Z-3.500 I-1.600 J0.000 F1800.000
G2 X180.600 Y180.000 Z-3.800 I1.600 J0.000 F1800.000
G2 X177.400 Y180.000 Z-4.100 I-1.600 J0.000 F1800.000
G2 X180.600 Y180.000 Z-4.400 I1.600 J0.000 F1800.000
G2 X177.400 Y180.000 Z-4.700 I-1.600 J0.000 F1800.000
G2 X180.600 Y180.000 Z-5.000 I1.600 J0.000 F1800.000
G2 X177.400 Y180.000 Z-5.000 I-1.600 J0.000 F1800.000
G2 X180.600 Y180.000 Z-5.000 I1.600 J0.000 F1800.000
G0 X179.000 Y180.000 Z-5.000
G0 Z-2.000
G0 Z5.000
G0 X179.000 Y125.000 Z5.000
G0 X179.000 Y125.000 Z-2.000
G0 X179.650 Y125.000
G1 Z-2.000 F400.000
G2 X178.350 Y125.000 Z-2.300 I-0.650 J0.000 F1800.000
G2 X179.650 Y125.000 Z-2.600 I0.650 J0.000 F1800.000
G2 X178.350 Y125.000 Z-2.900 I-0.650 J0.000 F1800.000
G2 X179.650 Y125.000 Z-3.200 I0.650 J0.000 F1800.000
G2 X178.350 Y125.000 Z-3.500 I-0.650 J0.000 F1800.000
G2 X179.650 Y125.000 Z-3.800 I0.650 J0.000 F1800.000
G2 X178.350 Y125.000 Z-4.100 I-0.650 J0.000 F1800.000
G2 X179.650 Y125.000 Z-4.400 I0.650 J0.000 F1800.000
G2 X178.350 Y125.000 Z-4.700 I-0.650 J0.000 F1800.000
G2 X179.650 Y125.000 Z-5.000 I0.650 J0.000 F1800.000
G2 X178.350 Y125.000 Z-5.000 I-0.650 J0.000 F1800.000
G2 X179.650 Y125.000 Z-5.000 I0.650 J0.000 F1800.000
G0 X179.000 Y125.000 Z-5.000
G0 Z-2.000
G0 X180.600 Y125.000
G1 Z-2.000 F400.000
G2 X177.400 Y125.000 Z-2.300 I-1.600 J0.000 F1800.000
G2 X180.600 Y125.000 Z-2.600 I1.600 J0.000 F1800.000
G2 X177.400 Y125.000 Z-2.900 I-1.600 J0.000 F1800.000
G2 X180.600 Y125.000 Z-3.200 I1.600 J0.000 F1800.000
G2 X177.400 Y125.000 Z-3.500 I-1.600 J0.000 F1800.000
G2 X180.600 Y125.000 Z-3.800 I1.600 J0.000 F1800.000
G2 X177.400 Y125.000 Z-4.100 I-1.600 J0.000 F1800.000
G2 X180.600 Y125.000 Z-4.400 I1.600 J0.000 F1800.000
G2 X177.400 Y125.000 Z-4.700 I-1.600 J0.000 F1800.000
G2 X180.600 Y125.000 Z-5.000 I1.600 J0.000 F1800.000
G2 X177.400 Y125.000 Z-5.000 I-1.600 J0.000 F1800.000
G2 X180.600 Y125.000 Z-5.000 I1.600 J0.000 F1800.000
G0 X179.000 Y125.000 Z-5.000
G0 Z-2.000
G0 Z5.000
G0 X179.000 Y70.000 Z5.000
G0 X179.000 Y70.000 Z-2.000
G0 X179.650 Y70.000
G1 Z-2.000 F400.000
G2 X178.350 Y70.000 Z-2.300 I-0.650 J0.000 F1800.000
G2 X179.650 Y70.000 Z-2.600 I0.650 J0.000 F1800.000
G2 X178.350 Y70.000 Z-2.900 I-0.650 J0.000 F1800.000
G2 X179.650 Y70.000 Z-3.200 I0.650 J0.000 F1800.000
G2 X178.350 Y70.000 Z-3.500 I-0.650 J0.000 F1800.000
G2 X179.650 Y70.000 Z-3.800 I0.650 J0.000 F1800.000
G2 X178.350 Y70.000 Z-4.100 I-0.650 J0.000 F1800.000
G2 X179.650 Y70.000 Z-4.400 I0.650 J0.000 F1800.000
G2 X178.350 Y70.000 Z-4.700 I-0.650 J0.000 F1800.000
G2 X179.650 Y70.000 Z-5.000 I0.650 J0.000 F1800.000
G2 X178.350 Y70.000 Z-5.000 I-0.650 J0.000 F1800.000
G2 X179.650 Y70.000 Z-5.000 I0.650 J0.000 F1800.000
G0 X179.000 Y70.000 Z-5.000
G0 Z-2.000
G0 X180.600 Y70.000
G1 Z-2.000 F400.000
G2 X177.400 Y70.000 Z-2.300 I-1.600 J0.000 F1800.000
G2 X180.600 Y70.000 Z-2.600 I1.600 J0.000 F1800.000
G2 X177.400 Y70.000 Z-2.900 I-1.600 J0.000 F1800.000
G2 X180.600 Y70.000 Z-3.200 I1.600 J0.000 F1800.000
G2 X177.400 Y70.000 Z-3.500 I-1.600 J0.000 F1800.000
G2 X180.600 Y70.000 Z-3.800 I1.600 J0.000 F1800.000
G2 X177.400 Y70.000 Z-4.100 I-1.600 J0.000 F1800.000
G2 X180.600 Y70.000 Z-4.400 I1.600 J0.000 F1800.000
G2 X177.400 Y70.000 Z-4.700 I-1.600 J0.000 F1800.000
G2 X180.600 Y70.000 Z-5.000 I1.600 J0.000 F1800.000
G2 X177.400 Y70.000 Z-5.000 I-1.600 J0.000 F1800.000
G2 X180.600 Y70.000 Z-5.000 I1.600 J0.000 F1800.000
G0 X179.000 Y70.000 Z-5.000
G0 Z-2.000
G0 Z5.000
G0 X179.000 Y15.000 Z5.000
G0 X179.000 Y15.000 Z-2.000
G0 X179.650 Y15.000
G1 Z-2.000 F400.000
G2 X178.350 Y15.000 Z-2.300 I-0.650 J0.000 F1800.000
G2 X179.650 Y15.000 Z-2.600 I0.650 J0.000 F1800.000
G2 X178.350 Y15.000 Z-2.900 I-0.650 J0.000 F1800.000
G2 X179.650 Y15.000 Z-3.200 I0.650 J0.000 F1800.000
G2 X178.350 Y15.000 Z-3.500 I-0.650 J0.000 F1800.000
G2 X179.650 Y15.000 Z-3.800 I0.650 J0.000 F1800.000
G2 X178.350 Y15.000 Z-4.100 I-0.650 J0.000 F1800.000
G2 X179.650 Y15.000 Z-4.400 I0.650 J0.000 F1800.000
G2 X178.350 Y15.000 Z-4.700 I-0.650 J0.000 F1800.000
G2 X179.650 Y15.000 Z-5.000 I0.650 J0.000 F1800.000
G2 X178.350 Y15.000 Z-5.000 I-0.650 J0.000 F1800.000
G2 X179.650 Y15.000 Z-5.000 I0.650 J0.000 F1800.000
G0 X179.000 Y15.000 Z-5.000
G0 Z-2.000
G0 X180.600 Y15.000
G1 Z-2.000 F400.000
G2 X177.400 Y15.000 Z-2.300 I-1.600 J0.000 F1800.000
G2 X180.600 Y15.000 Z-2.600 I1.600 J0.000 F1800.000
G2 X177.400 Y15.000 Z-2.900 I-1.600 J0.000 F1800.000
G2 X180.600 Y15.000 Z-3.200 I1.600 J0.000 F1800.000
G2 X177.400 Y15.000 Z-3.500 I-1.600 J0.000 F1800.000
G2 X180.600 Y15.000 Z-3.800 I1.600 J0.000 F1800.000
G2 X177.400 Y15.000 Z-4.100 I-1.600 J0.000 F1800.000
G2 X180.600 Y15.000 Z-4.400 I1.600 J0.000 F1800.000
G2 X177.400 Y15.000 Z-4.700 I-1.600 J0.000 F1800.000
G2 X180.600 Y15.000 Z-5.000 I1.600 J0.000 F1800.000
G2 X177.400 Y15.000 Z-5.000 I-1.600 J0.000 F1800.000
G2 X180.600 Y15.000 Z-5.000 I1.600 J0.000 F1800.000
G0 X179.000 Y15.000 Z-5.000
G0 Z-2.000
G0 Z5.000
(Finish operation: Helix)
(Begin postamble)
M5
G17 G90
M2
