(Exported by FreeCAD)
(Post Processor: grbl_post)
(Output Time:2023-07-13 19:59:40.297046)
(Begin preamble)
G17 G90
G21
(Begin operation: G54)
(Path: G54)
G54
G0 Z5.000
(Finish operation: G54)
(Begin operation: custom_1.3mm_dremel001)
(Path: custom_1.3mm_dremel001)
(custom_1.3mm_dremel001)
(Begin toolchange)
( M6 T2 )
M3 S1
(Finish operation: custom_1.3mm_dremel001)
(Begin operation: Pocket_Shape)
(Path: Pocket_Shape)
(Pocket_Shape)
G0 Z5.000
G0 X17.900 Y13.326
G0 Z3.000
G1 X17.900 Y13.326 Z-0.600 F100.000
G1 X17.900 Y14.796 Z-0.600 F799.980
G1 X14.845 Y11.741 Z-0.600 F799.980
G1 X13.912 Y12.279 Z-0.600 F799.980
G1 X17.900 Y16.267 Z-0.600 F799.980
G1 X17.900 Y16.674 Z-0.600 F799.980
G1 X17.226 Y17.064 Z-0.600 F799.980
G1 X12.980 Y12.818 Z-0.600 F799.980
G1 X12.100 Y13.326 Z-0.600 F799.980
G1 X12.100 Y13.409 Z-0.600 F799.980
G1 X16.293 Y17.602 Z-0.600 F799.980
G1 X15.361 Y18.140 Z-0.600 F799.980
G1 X12.100 Y14.880 Z-0.600 F799.980
G1 X12.100 Y16.350 Z-0.600 F799.980
G1 X12.866 Y17.117 Z-0.600 F799.980
G1 X12.100 Y16.674 Z-0.600 F799.980
G1 X12.100 Y16.350 Z-0.600 F799.980
G1 X12.100 Y16.350 Z-1.200 F100.000
G1 X12.100 Y16.674 Z-1.200 F799.980
G1 X12.866 Y17.117 Z-1.200 F799.980
G1 X12.100 Y16.350 Z-1.200 F799.980
G1 X12.100 Y14.880 Z-1.200 F799.980
G1 X15.361 Y18.140 Z-1.200 F799.980
G1 X16.293 Y17.602 Z-1.200 F799.980
G1 X12.100 Y13.409 Z-1.200 F799.980
G1 X12.100 Y13.326 Z-1.200 F799.980
G1 X12.980 Y12.818 Z-1.200 F799.980
G1 X17.226 Y17.064 Z-1.200 F799.980
G1 X17.900 Y16.674 Z-1.200 F799.980
G1 X17.900 Y16.267 Z-1.200 F799.980
G1 X13.912 Y12.279 Z-1.200 F799.980
G1 X14.845 Y11.741 Z-1.200 F799.980
G1 X17.900 Y14.796 Z-1.200 F799.980
G1 X17.900 Y13.326 Z-1.200 F799.980
G1 X17.900 Y13.326 Z-1.800 F100.000
G1 X17.900 Y14.796 Z-1.800 F799.980
G1 X14.845 Y11.741 Z-1.800 F799.980
G1 X13.912 Y12.279 Z-1.800 F799.980
G1 X17.900 Y16.267 Z-1.800 F799.980
G1 X17.900 Y16.674 Z-1.800 F799.980
G1 X17.226 Y17.064 Z-1.800 F799.980
G1 X12.980 Y12.818 Z-1.800 F799.980
G1 X12.100 Y13.326 Z-1.800 F799.980
G1 X12.100 Y13.409 Z-1.800 F799.980
G1 X16.293 Y17.602 Z-1.800 F799.980
G1 X15.361 Y18.140 Z-1.800 F799.980
G1 X12.100 Y14.880 Z-1.800 F799.980
G1 X12.100 Y16.350 Z-1.800 F799.980
G1 X12.866 Y17.117 Z-1.800 F799.980
G1 X12.100 Y16.674 Z-1.800 F799.980
G1 X12.100 Y16.350 Z-1.800 F799.980
G1 X12.100 Y16.350 Z-2.400 F100.000
G1 X12.100 Y16.674 Z-2.400 F799.980
G1 X12.866 Y17.117 Z-2.400 F799.980
G1 X12.100 Y16.350 Z-2.400 F799.980
G1 X12.100 Y14.880 Z-2.400 F799.980
G1 X15.361 Y18.140 Z-2.400 F799.980
G1 X16.293 Y17.602 Z-2.400 F799.980
G1 X12.100 Y13.409 Z-2.400 F799.980
G1 X12.100 Y13.326 Z-2.400 F799.980
G1 X12.980 Y12.818 Z-2.400 F799.980
G1 X17.226 Y17.064 Z-2.400 F799.980
G1 X17.900 Y16.674 Z-2.400 F799.980
G1 X17.900 Y16.267 Z-2.400 F799.980
G1 X13.912 Y12.279 Z-2.400 F799.980
G1 X14.845 Y11.741 Z-2.400 F799.980
G1 X17.900 Y14.796 Z-2.400 F799.980
G1 X17.900 Y13.326 Z-2.400 F799.980
G1 X17.900 Y13.326 Z-3.000 F100.000
G1 X17.900 Y14.796 Z-3.000 F799.980
G1 X14.845 Y11.741 Z-3.000 F799.980
G1 X13.912 Y12.279 Z-3.000 F799.980
G1 X17.900 Y16.267 Z-3.000 F799.980
G1 X17.900 Y16.674 Z-3.000 F799.980
G1 X17.226 Y17.064 Z-3.000 F799.980
G1 X12.980 Y12.818 Z-3.000 F799.980
G1 X12.100 Y13.326 Z-3.000 F799.980
G1 X12.100 Y13.409 Z-3.000 F799.980
G1 X16.293 Y17.602 Z-3.000 F799.980
G1 X15.361 Y18.140 Z-3.000 F799.980
G1 X12.100 Y14.880 Z-3.000 F799.980
G1 X12.100 Y16.350 Z-3.000 F799.980
G1 X12.866 Y17.117 Z-3.000 F799.980
G1 X12.100 Y16.674 Z-3.000 F799.980
G1 X12.100 Y16.350 Z-3.000 F799.980
G1 X12.100 Y16.350 Z-3.500 F100.000
G1 X12.100 Y16.674 Z-3.500 F799.980
G1 X12.866 Y17.117 Z-3.500 F799.980
G1 X12.100 Y16.350 Z-3.500 F799.980
G1 X12.100 Y14.880 Z-3.500 F799.980
G1 X15.361 Y18.140 Z-3.500 F799.980
G1 X16.293 Y17.602 Z-3.500 F799.980
G1 X12.100 Y13.409 Z-3.500 F799.980
G1 X12.100 Y13.326 Z-3.500 F799.980
G1 X12.980 Y12.818 Z-3.500 F799.980
G1 X17.226 Y17.064 Z-3.500 F799.980
G1 X17.900 Y16.674 Z-3.500 F799.980
G1 X17.900 Y16.267 Z-3.500 F799.980
G1 X13.912 Y12.279 Z-3.500 F799.980
G1 X14.845 Y11.741 Z-3.500 F799.980
G1 X17.900 Y14.796 Z-3.500 F799.980
G1 X17.900 Y13.326 Z-3.500 F799.980
G0 Z5.000
G0 Z5.000
G0 X17.900 Y13.326
G0 Y68.326
G0 Y68.326 Z3.000
G1 X17.900 Y68.326 Z-0.600 F100.000
G1 X17.900 Y69.796 Z-0.600 F799.980
G1 X14.845 Y66.741 Z-0.600 F799.980
G1 X13.912 Y67.279 Z-0.600 F799.980
G1 X17.900 Y71.267 Z-0.600 F799.980
G1 X17.900 Y71.674 Z-0.600 F799.980
G1 X17.226 Y72.064 Z-0.600 F799.980
G1 X12.980 Y67.818 Z-0.600 F799.980
G1 X12.100 Y68.326 Z-0.600 F799.980
G1 X12.100 Y68.409 Z-0.600 F799.980
G1 X16.293 Y72.602 Z-0.600 F799.980
G1 X15.361 Y73.140 Z-0.600 F799.980
G1 X12.100 Y69.880 Z-0.600 F799.980
G1 X12.100 Y71.350 Z-0.600 F799.980
G1 X12.866 Y72.117 Z-0.600 F799.980
G1 X12.100 Y71.674 Z-0.600 F799.980
G1 X12.100 Y71.350 Z-0.600 F799.980
G1 X12.100 Y71.350 Z-1.200 F100.000
G1 X12.100 Y71.674 Z-1.200 F799.980
G1 X12.866 Y72.117 Z-1.200 F799.980
G1 X12.100 Y71.350 Z-1.200 F799.980
G1 X12.100 Y69.880 Z-1.200 F799.980
G1 X15.361 Y73.140 Z-1.200 F799.980
G1 X16.293 Y72.602 Z-1.200 F799.980
G1 X12.100 Y68.409 Z-1.200 F799.980
G1 X12.100 Y68.326 Z-1.200 F799.980
G1 X12.980 Y67.818 Z-1.200 F799.980
G1 X17.226 Y72.064 Z-1.200 F799.980
G1 X17.900 Y71.674 Z-1.200 F799.980
G1 X17.900 Y71.267 Z-1.200 F799.980
G1 X13.912 Y67.279 Z-1.200 F799.980
G1 X14.845 Y66.741 Z-1.200 F799.980
G1 X17.900 Y69.796 Z-1.200 F799.980
G1 X17.900 Y68.326 Z-1.200 F799.980
G1 X17.900 Y68.326 Z-1.800 F100.000
G1 X17.900 Y69.796 Z-1.800 F799.980
G1 X14.845 Y66.741 Z-1.800 F799.980
G1 X13.912 Y67.279 Z-1.800 F799.980
G1 X17.900 Y71.267 Z-1.800 F799.980
G1 X17.900 Y71.674 Z-1.800 F799.980
G1 X17.226 Y72.064 Z-1.800 F799.980
G1 X12.980 Y67.818 Z-1.800 F799.980
G1 X12.100 Y68.326 Z-1.800 F799.980
G1 X12.100 Y68.409 Z-1.800 F799.980
G1 X16.293 Y72.602 Z-1.800 F799.980
G1 X15.361 Y73.140 Z-1.800 F799.980
G1 X12.100 Y69.880 Z-1.800 F799.980
G1 X12.100 Y71.350 Z-1.800 F799.980
G1 X12.866 Y72.117 Z-1.800 F799.980
G1 X12.100 Y71.674 Z-1.800 F799.980
G1 X12.100 Y71.350 Z-1.800 F799.980
G1 X12.100 Y71.350 Z-2.400 F100.000
G1 X12.100 Y71.674 Z-2.400 F799.980
G1 X12.866 Y72.117 Z-2.400 F799.980
G1 X12.100 Y71.350 Z-2.400 F799.980
G1 X12.100 Y69.880 Z-2.400 F799.980
G1 X15.361 Y73.140 Z-2.400 F799.980
G1 X16.293 Y72.602 Z-2.400 F799.980
G1 X12.100 Y68.409 Z-2.400 F799.980
G1 X12.100 Y68.326 Z-2.400 F799.980
G1 X12.980 Y67.818 Z-2.400 F799.980
G1 X17.226 Y72.064 Z-2.400 F799.980
G1 X17.900 Y71.674 Z-2.400 F799.980
G1 X17.900 Y71.267 Z-2.400 F799.980
G1 X13.912 Y67.279 Z-2.400 F799.980
G1 X14.845 Y66.741 Z-2.400 F799.980
G1 X17.900 Y69.796 Z-2.400 F799.980
G1 X17.900 Y68.326 Z-2.400 F799.980
G1 X17.900 Y68.326 Z-3.000 F100.000
G1 X17.900 Y69.796 Z-3.000 F799.980
G1 X14.845 Y66.741 Z-3.000 F799.980
G1 X13.912 Y67.279 Z-3.000 F799.980
G1 X17.900 Y71.267 Z-3.000 F799.980
G1 X17.900 Y71.674 Z-3.000 F799.980
G1 X17.226 Y72.064 Z-3.000 F799.980
G1 X12.980 Y67.818 Z-3.000 F799.980
G1 X12.100 Y68.326 Z-3.000 F799.980
G1 X12.100 Y68.409 Z-3.000 F799.980
G1 X16.293 Y72.602 Z-3.000 F799.980
G1 X15.361 Y73.140 Z-3.000 F799.980
G1 X12.100 Y69.880 Z-3.000 F799.980
G1 X12.100 Y71.350 Z-3.000 F799.980
G1 X12.866 Y72.117 Z-3.000 F799.980
G1 X12.100 Y71.674 Z-3.000 F799.980
G1 X12.100 Y71.350 Z-3.000 F799.980
G1 X12.100 Y71.350 Z-3.500 F100.000
G1 X12.100 Y71.674 Z-3.500 F799.980
G1 X12.866 Y72.117 Z-3.500 F799.980
G1 X12.100 Y71.350 Z-3.500 F799.980
G1 X12.100 Y69.880 Z-3.500 F799.980
G1 X15.361 Y73.140 Z-3.500 F799.980
G1 X16.293 Y72.602 Z-3.500 F799.980
G1 X12.100 Y68.409 Z-3.500 F799.980
G1 X12.100 Y68.326 Z-3.500 F799.980
G1 X12.980 Y67.818 Z-3.500 F799.980
G1 X17.226 Y72.064 Z-3.500 F799.980
G1 X17.900 Y71.674 Z-3.500 F799.980
G1 X17.900 Y71.267 Z-3.500 F799.980
G1 X13.912 Y67.279 Z-3.500 F799.980
G1 X14.845 Y66.741 Z-3.500 F799.980
G1 X17.900 Y69.796 Z-3.500 F799.980
G1 X17.900 Y68.326 Z-3.500 F799.980
G0 Z5.000
G0 Z5.000
G0 X17.900 Y68.326
G0 Y123.326
G0 Y123.326 Z3.000
G1 X17.900 Y123.326 Z-0.600 F100.000
G1 X17.900 Y124.796 Z-0.600 F799.980
G1 X14.845 Y121.741 Z-0.600 F799.980
G1 X13.912 Y122.279 Z-0.600 F799.980
G1 X17.900 Y126.267 Z-0.600 F799.980
G1 X17.900 Y126.674 Z-0.600 F799.980
G1 X17.226 Y127.064 Z-0.600 F799.980
G1 X12.980 Y122.818 Z-0.600 F799.980
G1 X12.100 Y123.326 Z-0.600 F799.980
G1 X12.100 Y123.409 Z-0.600 F799.980
G1 X16.293 Y127.602 Z-0.600 F799.980
G1 X15.361 Y128.140 Z-0.600 F799.980
G1 X12.100 Y124.880 Z-0.600 F799.980
G1 X12.100 Y126.350 Z-0.600 F799.980
G1 X12.866 Y127.117 Z-0.600 F799.980
G1 X12.100 Y126.674 Z-0.600 F799.980
G1 X12.100 Y126.350 Z-0.600 F799.980
G1 X12.100 Y126.350 Z-1.200 F100.000
G1 X12.100 Y126.674 Z-1.200 F799.980
G1 X12.866 Y127.117 Z-1.200 F799.980
G1 X12.100 Y126.350 Z-1.200 F799.980
G1 X12.100 Y124.880 Z-1.200 F799.980
G1 X15.361 Y128.140 Z-1.200 F799.980
G1 X16.293 Y127.602 Z-1.200 F799.980
G1 X12.100 Y123.409 Z-1.200 F799.980
G1 X12.100 Y123.326 Z-1.200 F799.980
G1 X12.980 Y122.818 Z-1.200 F799.980
G1 X17.226 Y127.064 Z-1.200 F799.980
G1 X17.900 Y126.674 Z-1.200 F799.980
G1 X17.900 Y126.267 Z-1.200 F799.980
G1 X13.912 Y122.279 Z-1.200 F799.980
G1 X14.845 Y121.741 Z-1.200 F799.980
G1 X17.900 Y124.796 Z-1.200 F799.980
G1 X17.900 Y123.326 Z-1.200 F799.980
G1 X17.900 Y123.326 Z-1.800 F100.000
G1 X17.900 Y124.796 Z-1.800 F799.980
G1 X14.845 Y121.741 Z-1.800 F799.980
G1 X13.912 Y122.279 Z-1.800 F799.980
G1 X17.900 Y126.267 Z-1.800 F799.980
G1 X17.900 Y126.674 Z-1.800 F799.980
G1 X17.226 Y127.064 Z-1.800 F799.980
G1 X12.980 Y122.818 Z-1.800 F799.980
G1 X12.100 Y123.326 Z-1.800 F799.980
G1 X12.100 Y123.409 Z-1.800 F799.980
G1 X16.293 Y127.602 Z-1.800 F799.980
G1 X15.361 Y128.140 Z-1.800 F799.980
G1 X12.100 Y124.880 Z-1.800 F799.980
G1 X12.100 Y126.350 Z-1.800 F799.980
G1 X12.866 Y127.117 Z-1.800 F799.980
G1 X12.100 Y126.674 Z-1.800 F799.980
G1 X12.100 Y126.350 Z-1.800 F799.980
G1 X12.100 Y126.350 Z-2.400 F100.000
G1 X12.100 Y126.674 Z-2.400 F799.980
G1 X12.866 Y127.117 Z-2.400 F799.980
G1 X12.100 Y126.350 Z-2.400 F799.980
G1 X12.100 Y124.880 Z-2.400 F799.980
G1 X15.361 Y128.140 Z-2.400 F799.980
G1 X16.293 Y127.602 Z-2.400 F799.980
G1 X12.100 Y123.409 Z-2.400 F799.980
G1 X12.100 Y123.326 Z-2.400 F799.980
G1 X12.980 Y122.818 Z-2.400 F799.980
G1 X17.226 Y127.064 Z-2.400 F799.980
G1 X17.900 Y126.674 Z-2.400 F799.980
G1 X17.900 Y126.267 Z-2.400 F799.980
G1 X13.912 Y122.279 Z-2.400 F799.980
G1 X14.845 Y121.741 Z-2.400 F799.980
G1 X17.900 Y124.796 Z-2.400 F799.980
G1 X17.900 Y123.326 Z-2.400 F799.980
G1 X17.900 Y123.326 Z-3.000 F100.000
G1 X17.900 Y124.796 Z-3.000 F799.980
G1 X14.845 Y121.741 Z-3.000 F799.980
G1 X13.912 Y122.279 Z-3.000 F799.980
G1 X17.900 Y126.267 Z-3.000 F799.980
G1 X17.900 Y126.674 Z-3.000 F799.980
G1 X17.226 Y127.064 Z-3.000 F799.980
G1 X12.980 Y122.818 Z-3.000 F799.980
G1 X12.100 Y123.326 Z-3.000 F799.980
G1 X12.100 Y123.409 Z-3.000 F799.980
G1 X16.293 Y127.602 Z-3.000 F799.980
G1 X15.361 Y128.140 Z-3.000 F799.980
G1 X12.100 Y124.880 Z-3.000 F799.980
G1 X12.100 Y126.350 Z-3.000 F799.980
G1 X12.866 Y127.117 Z-3.000 F799.980
G1 X12.100 Y126.674 Z-3.000 F799.980
G1 X12.100 Y126.350 Z-3.000 F799.980
G1 X12.100 Y126.350 Z-3.500 F100.000
G1 X12.100 Y126.674 Z-3.500 F799.980
G1 X12.866 Y127.117 Z-3.500 F799.980
G1 X12.100 Y126.350 Z-3.500 F799.980
G1 X12.100 Y124.880 Z-3.500 F799.980
G1 X15.361 Y128.140 Z-3.500 F799.980
G1 X16.293 Y127.602 Z-3.500 F799.980
G1 X12.100 Y123.409 Z-3.500 F799.980
G1 X12.100 Y123.326 Z-3.500 F799.980
G1 X12.980 Y122.818 Z-3.500 F799.980
G1 X17.226 Y127.064 Z-3.500 F799.980
G1 X17.900 Y126.674 Z-3.500 F799.980
G1 X17.900 Y126.267 Z-3.500 F799.980
G1 X13.912 Y122.279 Z-3.500 F799.980
G1 X14.845 Y121.741 Z-3.500 F799.980
G1 X17.900 Y124.796 Z-3.500 F799.980
G1 X17.900 Y123.326 Z-3.500 F799.980
G0 Z5.000
G0 Z5.000
G0 X17.900 Y123.326
G0 Y178.326
G0 Y178.326 Z3.000
G1 X17.900 Y178.326 Z-0.600 F100.000
G1 X17.900 Y179.796 Z-0.600 F799.980
G1 X14.845 Y176.741 Z-0.600 F799.980
G1 X13.912 Y177.279 Z-0.600 F799.980
G1 X17.900 Y181.267 Z-0.600 F799.980
G1 X17.900 Y181.674 Z-0.600 F799.980
G1 X17.226 Y182.064 Z-0.600 F799.980
G1 X12.980 Y177.818 Z-0.600 F799.980
G1 X12.100 Y178.326 Z-0.600 F799.980
G1 X12.100 Y178.409 Z-0.600 F799.980
G1 X16.293 Y182.602 Z-0.600 F799.980
G1 X15.361 Y183.140 Z-0.600 F799.980
G1 X12.100 Y179.880 Z-0.600 F799.980
G1 X12.100 Y181.350 Z-0.600 F799.980
G1 X12.866 Y182.117 Z-0.600 F799.980
G1 X12.100 Y181.674 Z-0.600 F799.980
G1 X12.100 Y181.350 Z-0.600 F799.980
G1 X12.100 Y181.350 Z-1.200 F100.000
G1 X12.100 Y181.674 Z-1.200 F799.980
G1 X12.866 Y182.117 Z-1.200 F799.980
G1 X12.100 Y181.350 Z-1.200 F799.980
G1 X12.100 Y179.880 Z-1.200 F799.980
G1 X15.361 Y183.140 Z-1.200 F799.980
G1 X16.293 Y182.602 Z-1.200 F799.980
G1 X12.100 Y178.409 Z-1.200 F799.980
G1 X12.100 Y178.326 Z-1.200 F799.980
G1 X12.980 Y177.818 Z-1.200 F799.980
G1 X17.226 Y182.064 Z-1.200 F799.980
G1 X17.900 Y181.674 Z-1.200 F799.980
G1 X17.900 Y181.267 Z-1.200 F799.980
G1 X13.912 Y177.279 Z-1.200 F799.980
G1 X14.845 Y176.741 Z-1.200 F799.980
G1 X17.900 Y179.796 Z-1.200 F799.980
G1 X17.900 Y178.326 Z-1.200 F799.980
G1 X17.900 Y178.326 Z-1.800 F100.000
G1 X17.900 Y179.796 Z-1.800 F799.980
G1 X14.845 Y176.741 Z-1.800 F799.980
G1 X13.912 Y177.279 Z-1.800 F799.980
G1 X17.900 Y181.267 Z-1.800 F799.980
G1 X17.900 Y181.674 Z-1.800 F799.980
G1 X17.226 Y182.064 Z-1.800 F799.980
G1 X12.980 Y177.818 Z-1.800 F799.980
G1 X12.100 Y178.326 Z-1.800 F799.980
G1 X12.100 Y178.409 Z-1.800 F799.980
G1 X16.293 Y182.602 Z-1.800 F799.980
G1 X15.361 Y183.140 Z-1.800 F799.980
G1 X12.100 Y179.880 Z-1.800 F799.980
G1 X12.100 Y181.350 Z-1.800 F799.980
G1 X12.866 Y182.117 Z-1.800 F799.980
G1 X12.100 Y181.674 Z-1.800 F799.980
G1 X12.100 Y181.350 Z-1.800 F799.980
G1 X12.100 Y181.350 Z-2.400 F100.000
G1 X12.100 Y181.674 Z-2.400 F799.980
G1 X12.866 Y182.117 Z-2.400 F799.980
G1 X12.100 Y181.350 Z-2.400 F799.980
G1 X12.100 Y179.880 Z-2.400 F799.980
G1 X15.361 Y183.140 Z-2.400 F799.980
G1 X16.293 Y182.602 Z-2.400 F799.980
G1 X12.100 Y178.409 Z-2.400 F799.980
G1 X12.100 Y178.326 Z-2.400 F799.980
G1 X12.980 Y177.818 Z-2.400 F799.980
G1 X17.226 Y182.064 Z-2.400 F799.980
G1 X17.900 Y181.674 Z-2.400 F799.980
G1 X17.900 Y181.267 Z-2.400 F799.980
G1 X13.912 Y177.279 Z-2.400 F799.980
G1 X14.845 Y176.741 Z-2.400 F799.980
G1 X17.900 Y179.796 Z-2.400 F799.980
G1 X17.900 Y178.326 Z-2.400 F799.980
G1 X17.900 Y178.326 Z-3.000 F100.000
G1 X17.900 Y179.796 Z-3.000 F799.980
G1 X14.845 Y176.741 Z-3.000 F799.980
G1 X13.912 Y177.279 Z-3.000 F799.980
G1 X17.900 Y181.267 Z-3.000 F799.980
G1 X17.900 Y181.674 Z-3.000 F799.980
G1 X17.226 Y182.064 Z-3.000 F799.980
G1 X12.980 Y177.818 Z-3.000 F799.980
G1 X12.100 Y178.326 Z-3.000 F799.980
G1 X12.100 Y178.409 Z-3.000 F799.980
G1 X16.293 Y182.602 Z-3.000 F799.980
G1 X15.361 Y183.140 Z-3.000 F799.980
G1 X12.100 Y179.880 Z-3.000 F799.980
G1 X12.100 Y181.350 Z-3.000 F799.980
G1 X12.866 Y182.117 Z-3.000 F799.980
G1 X12.100 Y181.674 Z-3.000 F799.980
G1 X12.100 Y181.350 Z-3.000 F799.980
G1 X12.100 Y181.350 Z-3.500 F100.000
G1 X12.100 Y181.674 Z-3.500 F799.980
G1 X12.866 Y182.117 Z-3.500 F799.980
G1 X12.100 Y181.350 Z-3.500 F799.980
G1 X12.100 Y179.880 Z-3.500 F799.980
G1 X15.361 Y183.140 Z-3.500 F799.980
G1 X16.293 Y182.602 Z-3.500 F799.980
G1 X12.100 Y178.409 Z-3.500 F799.980
G1 X12.100 Y178.326 Z-3.500 F799.980
G1 X12.980 Y177.818 Z-3.500 F799.980
G1 X17.226 Y182.064 Z-3.500 F799.980
G1 X17.900 Y181.674 Z-3.500 F799.980
G1 X17.900 Y181.267 Z-3.500 F799.980
G1 X13.912 Y177.279 Z-3.500 F799.980
G1 X14.845 Y176.741 Z-3.500 F799.980
G1 X17.900 Y179.796 Z-3.500 F799.980
G1 X17.900 Y178.326 Z-3.500 F799.980
G0 Z5.000
G0 Z5.000
G0 X17.900 Y178.326
G0 Y233.326
G0 Y233.326 Z3.000
G1 X17.900 Y233.326 Z-0.600 F100.000
G1 X17.900 Y234.796 Z-0.600 F799.980
G1 X14.845 Y231.741 Z-0.600 F799.980
G1 X13.912 Y232.279 Z-0.600 F799.980
G1 X17.900 Y236.267 Z-0.600 F799.980
G1 X17.900 Y236.674 Z-0.600 F799.980
G1 X17.226 Y237.064 Z-0.600 F799.980
G1 X12.980 Y232.818 Z-0.600 F799.980
G1 X12.100 Y233.326 Z-0.600 F799.980
G1 X12.100 Y233.409 Z-0.600 F799.980
G1 X16.293 Y237.602 Z-0.600 F799.980
G1 X15.361 Y238.140 Z-0.600 F799.980
G1 X12.100 Y234.880 Z-0.600 F799.980
G1 X12.100 Y236.350 Z-0.600 F799.980
G1 X12.866 Y237.117 Z-0.600 F799.980
G1 X12.100 Y236.674 Z-0.600 F799.980
G1 X12.100 Y236.350 Z-0.600 F799.980
G1 X12.100 Y236.350 Z-1.200 F100.000
G1 X12.100 Y236.674 Z-1.200 F799.980
G1 X12.866 Y237.117 Z-1.200 F799.980
G1 X12.100 Y236.350 Z-1.200 F799.980
G1 X12.100 Y234.880 Z-1.200 F799.980
G1 X15.361 Y238.140 Z-1.200 F799.980
G1 X16.293 Y237.602 Z-1.200 F799.980
G1 X12.100 Y233.409 Z-1.200 F799.980
G1 X12.100 Y233.326 Z-1.200 F799.980
G1 X12.980 Y232.818 Z-1.200 F799.980
G1 X17.226 Y237.064 Z-1.200 F799.980
G1 X17.900 Y236.674 Z-1.200 F799.980
G1 X17.900 Y236.267 Z-1.200 F799.980
G1 X13.912 Y232.279 Z-1.200 F799.980
G1 X14.845 Y231.741 Z-1.200 F799.980
G1 X17.900 Y234.796 Z-1.200 F799.980
G1 X17.900 Y233.326 Z-1.200 F799.980
G1 X17.900 Y233.326 Z-1.800 F100.000
G1 X17.900 Y234.796 Z-1.800 F799.980
G1 X14.845 Y231.741 Z-1.800 F799.980
G1 X13.912 Y232.279 Z-1.800 F799.980
G1 X17.900 Y236.267 Z-1.800 F799.980
G1 X17.900 Y236.674 Z-1.800 F799.980
G1 X17.226 Y237.064 Z-1.800 F799.980
G1 X12.980 Y232.818 Z-1.800 F799.980
G1 X12.100 Y233.326 Z-1.800 F799.980
G1 X12.100 Y233.409 Z-1.800 F799.980
G1 X16.293 Y237.602 Z-1.800 F799.980
G1 X15.361 Y238.140 Z-1.800 F799.980
G1 X12.100 Y234.880 Z-1.800 F799.980
G1 X12.100 Y236.350 Z-1.800 F799.980
G1 X12.866 Y237.117 Z-1.800 F799.980
G1 X12.100 Y236.674 Z-1.800 F799.980
G1 X12.100 Y236.350 Z-1.800 F799.980
G1 X12.100 Y236.350 Z-2.400 F100.000
G1 X12.100 Y236.674 Z-2.400 F799.980
G1 X12.866 Y237.117 Z-2.400 F799.980
G1 X12.100 Y236.350 Z-2.400 F799.980
G1 X12.100 Y234.880 Z-2.400 F799.980
G1 X15.361 Y238.140 Z-2.400 F799.980
G1 X16.293 Y237.602 Z-2.400 F799.980
G1 X12.100 Y233.409 Z-2.400 F799.980
G1 X12.100 Y233.326 Z-2.400 F799.980
G1 X12.980 Y232.818 Z-2.400 F799.980
G1 X17.226 Y237.064 Z-2.400 F799.980
G1 X17.900 Y236.674 Z-2.400 F799.980
G1 X17.900 Y236.267 Z-2.400 F799.980
G1 X13.912 Y232.279 Z-2.400 F799.980
G1 X14.845 Y231.741 Z-2.400 F799.980
G1 X17.900 Y234.796 Z-2.400 F799.980
G1 X17.900 Y233.326 Z-2.400 F799.980
G1 X17.900 Y233.326 Z-3.000 F100.000
G1 X17.900 Y234.796 Z-3.000 F799.980
G1 X14.845 Y231.741 Z-3.000 F799.980
G1 X13.912 Y232.279 Z-3.000 F799.980
G1 X17.900 Y236.267 Z-3.000 F799.980
G1 X17.900 Y236.674 Z-3.000 F799.980
G1 X17.226 Y237.064 Z-3.000 F799.980
G1 X12.980 Y232.818 Z-3.000 F799.980
G1 X12.100 Y233.326 Z-3.000 F799.980
G1 X12.100 Y233.409 Z-3.000 F799.980
G1 X16.293 Y237.602 Z-3.000 F799.980
G1 X15.361 Y238.140 Z-3.000 F799.980
G1 X12.100 Y234.880 Z-3.000 F799.980
G1 X12.100 Y236.350 Z-3.000 F799.980
G1 X12.866 Y237.117 Z-3.000 F799.980
G1 X12.100 Y236.674 Z-3.000 F799.980
G1 X12.100 Y236.350 Z-3.000 F799.980
G1 X12.100 Y236.350 Z-3.500 F100.000
G1 X12.100 Y236.674 Z-3.500 F799.980
G1 X12.866 Y237.117 Z-3.500 F799.980
G1 X12.100 Y236.350 Z-3.500 F799.980
G1 X12.100 Y234.880 Z-3.500 F799.980
G1 X15.361 Y238.140 Z-3.500 F799.980
G1 X16.293 Y237.602 Z-3.500 F799.980
G1 X12.100 Y233.409 Z-3.500 F799.980
G1 X12.100 Y233.326 Z-3.500 F799.980
G1 X12.980 Y232.818 Z-3.500 F799.980
G1 X17.226 Y237.064 Z-3.500 F799.980
G1 X17.900 Y236.674 Z-3.500 F799.980
G1 X17.900 Y236.267 Z-3.500 F799.980
G1 X13.912 Y232.279 Z-3.500 F799.980
G1 X14.845 Y231.741 Z-3.500 F799.980
G1 X17.900 Y234.796 Z-3.500 F799.980
G1 X17.900 Y233.326 Z-3.500 F799.980
G0 Z5.000
G0 Z5.000
G0 X17.900 Y233.326
G0 X66.767 Y236.350
G0 X66.767 Y236.350 Z3.000
G1 X66.767 Y236.350 Z-0.600 F100.000
G1 X66.767 Y236.674 Z-0.600 F799.980
G1 X67.533 Y237.117 Z-0.600 F799.980
G1 X66.767 Y236.350 Z-0.600 F799.980
G1 X66.767 Y234.880 Z-0.600 F799.980
G1 X70.027 Y238.140 Z-0.600 F799.980
G1 X70.960 Y237.602 Z-0.600 F799.980
G1 X66.767 Y233.409 Z-0.600 F799.980
G1 X66.767 Y233.326 Z-0.600 F799.980
G1 X67.646 Y232.818 Z-0.600 F799.980
G1 X71.892 Y237.064 Z-0.600 F799.980
G1 X72.567 Y236.674 Z-0.600 F799.980
G1 X72.567 Y236.267 Z-0.600 F799.980
G1 X68.579 Y232.279 Z-0.600 F799.980
G1 X69.511 Y231.741 Z-0.600 F799.980
G1 X72.567 Y234.796 Z-0.600 F799.980
G1 X72.567 Y233.326 Z-0.600 F799.980
G1 X72.567 Y233.326 Z-1.200 F100.000
G1 X72.567 Y234.796 Z-1.200 F799.980
G1 X69.511 Y231.741 Z-1.200 F799.980
G1 X68.579 Y232.279 Z-1.200 F799.980
G1 X72.567 Y236.267 Z-1.200 F799.980
G1 X72.567 Y236.674 Z-1.200 F799.980
G1 X71.892 Y237.064 Z-1.200 F799.980
G1 X67.646 Y232.818 Z-1.200 F799.980
G1 X66.767 Y233.326 Z-1.200 F799.980
G1 X66.767 Y233.409 Z-1.200 F799.980
G1 X70.960 Y237.602 Z-1.200 F799.980
G1 X70.027 Y238.140 Z-1.200 F799.980
G1 X66.767 Y234.880 Z-1.200 F799.980
G1 X66.767 Y236.350 Z-1.200 F799.980
G1 X67.533 Y237.117 Z-1.200 F799.980
G1 X66.767 Y236.674 Z-1.200 F799.980
G1 X66.767 Y236.350 Z-1.200 F799.980
G1 X66.767 Y236.350 Z-1.800 F100.000
G1 X66.767 Y236.674 Z-1.800 F799.980
G1 X67.533 Y237.117 Z-1.800 F799.980
G1 X66.767 Y236.350 Z-1.800 F799.980
G1 X66.767 Y234.880 Z-1.800 F799.980
G1 X70.027 Y238.140 Z-1.800 F799.980
G1 X70.960 Y237.602 Z-1.800 F799.980
G1 X66.767 Y233.409 Z-1.800 F799.980
G1 X66.767 Y233.326 Z-1.800 F799.980
G1 X67.646 Y232.818 Z-1.800 F799.980
G1 X71.892 Y237.064 Z-1.800 F799.980
G1 X72.567 Y236.674 Z-1.800 F799.980
G1 X72.567 Y236.267 Z-1.800 F799.980
G1 X68.579 Y232.279 Z-1.800 F799.980
G1 X69.511 Y231.741 Z-1.800 F799.980
G1 X72.567 Y234.796 Z-1.800 F799.980
G1 X72.567 Y233.326 Z-1.800 F799.980
G1 X72.567 Y233.326 Z-2.400 F100.000
G1 X72.567 Y234.796 Z-2.400 F799.980
G1 X69.511 Y231.741 Z-2.400 F799.980
G1 X68.579 Y232.279 Z-2.400 F799.980
G1 X72.567 Y236.267 Z-2.400 F799.980
G1 X72.567 Y236.674 Z-2.400 F799.980
G1 X71.892 Y237.064 Z-2.400 F799.980
G1 X67.646 Y232.818 Z-2.400 F799.980
G1 X66.767 Y233.326 Z-2.400 F799.980
G1 X66.767 Y233.409 Z-2.400 F799.980
G1 X70.960 Y237.602 Z-2.400 F799.980
G1 X70.027 Y238.140 Z-2.400 F799.980
G1 X66.767 Y234.880 Z-2.400 F799.980
G1 X66.767 Y236.350 Z-2.400 F799.980
G1 X67.533 Y237.117 Z-2.400 F799.980
G1 X66.767 Y236.674 Z-2.400 F799.980
G1 X66.767 Y236.350 Z-2.400 F799.980
G1 X66.767 Y236.350 Z-3.000 F100.000
G1 X66.767 Y236.674 Z-3.000 F799.980
G1 X67.533 Y237.117 Z-3.000 F799.980
G1 X66.767 Y236.350 Z-3.000 F799.980
G1 X66.767 Y234.880 Z-3.000 F799.980
G1 X70.027 Y238.140 Z-3.000 F799.980
G1 X70.960 Y237.602 Z-3.000 F799.980
G1 X66.767 Y233.409 Z-3.000 F799.980
G1 X66.767 Y233.326 Z-3.000 F799.980
G1 X67.646 Y232.818 Z-3.000 F799.980
G1 X71.892 Y237.064 Z-3.000 F799.980
G1 X72.567 Y236.674 Z-3.000 F799.980
G1 X72.567 Y236.267 Z-3.000 F799.980
G1 X68.579 Y232.279 Z-3.000 F799.980
G1 X69.511 Y231.741 Z-3.000 F799.980
G1 X72.567 Y234.796 Z-3.000 F799.980
G1 X72.567 Y233.326 Z-3.000 F799.980
G1 X72.567 Y233.326 Z-3.500 F100.000
G1 X72.567 Y234.796 Z-3.500 F799.980
G1 X69.511 Y231.741 Z-3.500 F799.980
G1 X68.579 Y232.279 Z-3.500 F799.980
G1 X72.567 Y236.267 Z-3.500 F799.980
G1 X72.567 Y236.674 Z-3.500 F799.980
G1 X71.892 Y237.064 Z-3.500 F799.980
G1 X67.646 Y232.818 Z-3.500 F799.980
G1 X66.767 Y233.326 Z-3.500 F799.980
G1 X66.767 Y233.409 Z-3.500 F799.980
G1 X70.960 Y237.602 Z-3.500 F799.980
G1 X70.027 Y238.140 Z-3.500 F799.980
G1 X66.767 Y234.880 Z-3.500 F799.980
G1 X66.767 Y236.350 Z-3.500 F799.980
G1 X67.533 Y237.117 Z-3.500 F799.980
G1 X66.767 Y236.674 Z-3.500 F799.980
G1 X66.767 Y236.350 Z-3.500 F799.980
G0 Z5.000
G0 Z5.000
G0 X66.767 Y236.350
G0 Y181.350
G0 Y181.350 Z3.000
G1 X66.767 Y181.350 Z-0.600 F100.000
G1 X66.767 Y181.674 Z-0.600 F799.980
G1 X67.533 Y182.117 Z-0.600 F799.980
G1 X66.767 Y181.350 Z-0.600 F799.980
G1 X66.767 Y179.880 Z-0.600 F799.980
G1 X70.027 Y183.140 Z-0.600 F799.980
G1 X70.960 Y182.602 Z-0.600 F799.980
G1 X66.767 Y178.409 Z-0.600 F799.980
G1 X66.767 Y178.326 Z-0.600 F799.980
G1 X67.646 Y177.818 Z-0.600 F799.980
G1 X71.892 Y182.064 Z-0.600 F799.980
G1 X72.567 Y181.674 Z-0.600 F799.980
G1 X72.567 Y181.267 Z-0.600 F799.980
G1 X68.579 Y177.279 Z-0.600 F799.980
G1 X69.511 Y176.741 Z-0.600 F799.980
G1 X72.567 Y179.796 Z-0.600 F799.980
G1 X72.567 Y178.326 Z-0.600 F799.980
G1 X72.567 Y178.326 Z-1.200 F100.000
G1 X72.567 Y179.796 Z-1.200 F799.980
G1 X69.511 Y176.741 Z-1.200 F799.980
G1 X68.579 Y177.279 Z-1.200 F799.980
G1 X72.567 Y181.267 Z-1.200 F799.980
G1 X72.567 Y181.674 Z-1.200 F799.980
G1 X71.892 Y182.064 Z-1.200 F799.980
G1 X67.646 Y177.818 Z-1.200 F799.980
G1 X66.767 Y178.326 Z-1.200 F799.980
G1 X66.767 Y178.409 Z-1.200 F799.980
G1 X70.960 Y182.602 Z-1.200 F799.980
G1 X70.027 Y183.140 Z-1.200 F799.980
G1 X66.767 Y179.880 Z-1.200 F799.980
G1 X66.767 Y181.350 Z-1.200 F799.980
G1 X67.533 Y182.117 Z-1.200 F799.980
G1 X66.767 Y181.674 Z-1.200 F799.980
G1 X66.767 Y181.350 Z-1.200 F799.980
G1 X66.767 Y181.350 Z-1.800 F100.000
G1 X66.767 Y181.674 Z-1.800 F799.980
G1 X67.533 Y182.117 Z-1.800 F799.980
G1 X66.767 Y181.350 Z-1.800 F799.980
G1 X66.767 Y179.880 Z-1.800 F799.980
G1 X70.027 Y183.140 Z-1.800 F799.980
G1 X70.960 Y182.602 Z-1.800 F799.980
G1 X66.767 Y178.409 Z-1.800 F799.980
G1 X66.767 Y178.326 Z-1.800 F799.980
G1 X67.646 Y177.818 Z-1.800 F799.980
G1 X71.892 Y182.064 Z-1.800 F799.980
G1 X72.567 Y181.674 Z-1.800 F799.980
G1 X72.567 Y181.267 Z-1.800 F799.980
G1 X68.579 Y177.279 Z-1.800 F799.980
G1 X69.511 Y176.741 Z-1.800 F799.980
G1 X72.567 Y179.796 Z-1.800 F799.980
G1 X72.567 Y178.326 Z-1.800 F799.980
G1 X72.567 Y178.326 Z-2.400 F100.000
G1 X72.567 Y179.796 Z-2.400 F799.980
G1 X69.511 Y176.741 Z-2.400 F799.980
G1 X68.579 Y177.279 Z-2.400 F799.980
G1 X72.567 Y181.267 Z-2.400 F799.980
G1 X72.567 Y181.674 Z-2.400 F799.980
G1 X71.892 Y182.064 Z-2.400 F799.980
G1 X67.646 Y177.818 Z-2.400 F799.980
G1 X66.767 Y178.326 Z-2.400 F799.980
G1 X66.767 Y178.409 Z-2.400 F799.980
G1 X70.960 Y182.602 Z-2.400 F799.980
G1 X70.027 Y183.140 Z-2.400 F799.980
G1 X66.767 Y179.880 Z-2.400 F799.980
G1 X66.767 Y181.350 Z-2.400 F799.980
G1 X67.533 Y182.117 Z-2.400 F799.980
G1 X66.767 Y181.674 Z-2.400 F799.980
G1 X66.767 Y181.350 Z-2.400 F799.980
G1 X66.767 Y181.350 Z-3.000 F100.000
G1 X66.767 Y181.674 Z-3.000 F799.980
G1 X67.533 Y182.117 Z-3.000 F799.980
G1 X66.767 Y181.350 Z-3.000 F799.980
G1 X66.767 Y179.880 Z-3.000 F799.980
G1 X70.027 Y183.140 Z-3.000 F799.980
G1 X70.960 Y182.602 Z-3.000 F799.980
G1 X66.767 Y178.409 Z-3.000 F799.980
G1 X66.767 Y178.326 Z-3.000 F799.980
G1 X67.646 Y177.818 Z-3.000 F799.980
G1 X71.892 Y182.064 Z-3.000 F799.980
G1 X72.567 Y181.674 Z-3.000 F799.980
G1 X72.567 Y181.267 Z-3.000 F799.980
G1 X68.579 Y177.279 Z-3.000 F799.980
G1 X69.511 Y176.741 Z-3.000 F799.980
G1 X72.567 Y179.796 Z-3.000 F799.980
G1 X72.567 Y178.326 Z-3.000 F799.980
G1 X72.567 Y178.326 Z-3.500 F100.000
G1 X72.567 Y179.796 Z-3.500 F799.980
G1 X69.511 Y176.741 Z-3.500 F799.980
G1 X68.579 Y177.279 Z-3.500 F799.980
G1 X72.567 Y181.267 Z-3.500 F799.980
G1 X72.567 Y181.674 Z-3.500 F799.980
G1 X71.892 Y182.064 Z-3.500 F799.980
G1 X67.646 Y177.818 Z-3.500 F799.980
G1 X66.767 Y178.326 Z-3.500 F799.980
G1 X66.767 Y178.409 Z-3.500 F799.980
G1 X70.960 Y182.602 Z-3.500 F799.980
G1 X70.027 Y183.140 Z-3.500 F799.980
G1 X66.767 Y179.880 Z-3.500 F799.980
G1 X66.767 Y181.350 Z-3.500 F799.980
G1 X67.533 Y182.117 Z-3.500 F799.980
G1 X66.767 Y181.674 Z-3.500 F799.980
G1 X66.767 Y181.350 Z-3.500 F799.980
G0 Z5.000
G0 Z5.000
G0 X66.767 Y181.350
G0 X72.567 Y126.674
G0 X72.567 Y126.674 Z3.000
G1 X72.567 Y126.674 Z-0.600 F100.000
G1 X69.667 Y128.349 Z-0.600 F799.980
G1 X69.511 Y128.259 Z-0.600 F799.980
G1 X72.567 Y125.204 Z-0.600 F799.980
G1 X72.567 Y123.733 Z-0.600 F799.980
G1 X68.579 Y127.721 Z-0.600 F799.980
G1 X67.646 Y127.182 Z-0.600 F799.980
G1 X71.892 Y122.936 Z-0.600 F799.980
G1 X70.960 Y122.398 Z-0.600 F799.980
G1 X66.767 Y126.591 Z-0.600 F799.980
G1 X66.767 Y125.120 Z-0.600 F799.980
G1 X70.027 Y121.860 Z-0.600 F799.980
G1 X69.667 Y121.651 Z-0.600 F799.980
G1 X67.533 Y122.883 Z-0.600 F799.980
G1 X66.767 Y123.650 Z-0.600 F799.980
G1 X66.767 Y123.326 Z-0.600 F799.980
G1 X67.533 Y122.883 Z-0.600 F799.980
G1 X67.533 Y122.883 Z-1.200 F100.000
G1 X66.767 Y123.326 Z-1.200 F799.980
G1 X66.767 Y123.650 Z-1.200 F799.980
G1 X67.533 Y122.883 Z-1.200 F799.980
G1 X69.667 Y121.651 Z-1.200 F799.980
G1 X70.027 Y121.860 Z-1.200 F799.980
G1 X66.767 Y125.120 Z-1.200 F799.980
G1 X66.767 Y126.591 Z-1.200 F799.980
G1 X70.960 Y122.398 Z-1.200 F799.980
G1 X71.892 Y122.936 Z-1.200 F799.980
G1 X67.646 Y127.182 Z-1.200 F799.980
G1 X68.579 Y127.721 Z-1.200 F799.980
G1 X72.567 Y123.733 Z-1.200 F799.980
G1 X72.567 Y125.204 Z-1.200 F799.980
G1 X69.511 Y128.259 Z-1.200 F799.980
G1 X69.667 Y128.349 Z-1.200 F799.980
G1 X72.567 Y126.674 Z-1.200 F799.980
G1 X72.567 Y126.674 Z-1.800 F100.000
G1 X69.667 Y128.349 Z-1.800 F799.980
G1 X69.511 Y128.259 Z-1.800 F799.980
G1 X72.567 Y125.204 Z-1.800 F799.980
G1 X72.567 Y123.733 Z-1.800 F799.980
G1 X68.579 Y127.721 Z-1.800 F799.980
G1 X67.646 Y127.182 Z-1.800 F799.980
G1 X71.892 Y122.936 Z-1.800 F799.980
G1 X70.960 Y122.398 Z-1.800 F799.980
G1 X66.767 Y126.591 Z-1.800 F799.980
G1 X66.767 Y125.120 Z-1.800 F799.980
G1 X70.027 Y121.860 Z-1.800 F799.980
G1 X69.667 Y121.651 Z-1.800 F799.980
G1 X67.533 Y122.883 Z-1.800 F799.980
G1 X66.767 Y123.650 Z-1.800 F799.980
G1 X66.767 Y123.326 Z-1.800 F799.980
G1 X67.533 Y122.883 Z-1.800 F799.980
G1 X67.533 Y122.883 Z-2.400 F100.000
G1 X66.767 Y123.326 Z-2.400 F799.980
G1 X66.767 Y123.650 Z-2.400 F799.980
G1 X67.533 Y122.883 Z-2.400 F799.980
G1 X69.667 Y121.651 Z-2.400 F799.980
G1 X70.027 Y121.860 Z-2.400 F799.980
G1 X66.767 Y125.120 Z-2.400 F799.980
G1 X66.767 Y126.591 Z-2.400 F799.980
G1 X70.960 Y122.398 Z-2.400 F799.980
G1 X71.892 Y122.936 Z-2.400 F799.980
G1 X67.646 Y127.182 Z-2.400 F799.980
G1 X68.579 Y127.721 Z-2.400 F799.980
G1 X72.567 Y123.733 Z-2.400 F799.980
G1 X72.567 Y125.204 Z-2.400 F799.980
G1 X69.511 Y128.259 Z-2.400 F799.980
G1 X69.667 Y128.349 Z-2.400 F799.980
G1 X72.567 Y126.674 Z-2.400 F799.980
G1 X72.567 Y126.674 Z-3.000 F100.000
G1 X69.667 Y128.349 Z-3.000 F799.980
G1 X69.511 Y128.259 Z-3.000 F799.980
G1 X72.567 Y125.204 Z-3.000 F799.980
G1 X72.567 Y123.733 Z-3.000 F799.980
G1 X68.579 Y127.721 Z-3.000 F799.980
G1 X67.646 Y127.182 Z-3.000 F799.980
G1 X71.892 Y122.936 Z-3.000 F799.980
G1 X70.960 Y122.398 Z-3.000 F799.980
G1 X66.767 Y126.591 Z-3.000 F799.980
G1 X66.767 Y125.120 Z-3.000 F799.980
G1 X70.027 Y121.860 Z-3.000 F799.980
G1 X69.667 Y121.651 Z-3.000 F799.980
G1 X67.533 Y122.883 Z-3.000 F799.980
G1 X66.767 Y123.650 Z-3.000 F799.980
G1 X66.767 Y123.326 Z-3.000 F799.980
G1 X67.533 Y122.883 Z-3.000 F799.980
G1 X67.533 Y122.883 Z-3.500 F100.000
G1 X66.767 Y123.326 Z-3.500 F799.980
G1 X66.767 Y123.650 Z-3.500 F799.980
G1 X67.533 Y122.883 Z-3.500 F799.980
G1 X69.667 Y121.651 Z-3.500 F799.980
G1 X70.027 Y121.860 Z-3.500 F799.980
G1 X66.767 Y125.120 Z-3.500 F799.980
G1 X66.767 Y126.591 Z-3.500 F799.980
G1 X70.960 Y122.398 Z-3.500 F799.980
G1 X71.892 Y122.936 Z-3.500 F799.980
G1 X67.646 Y127.182 Z-3.500 F799.980
G1 X68.579 Y127.721 Z-3.500 F799.980
G1 X72.567 Y123.733 Z-3.500 F799.980
G1 X72.567 Y125.204 Z-3.500 F799.980
G1 X69.511 Y128.259 Z-3.500 F799.980
G1 X69.667 Y128.349 Z-3.500 F799.980
G1 X72.567 Y126.674 Z-3.500 F799.980
G0 Z5.000
G0 Z5.000
G0 X72.567 Y126.674
G0 X66.767 Y71.350
G0 X66.767 Y71.350 Z3.000
G1 X66.767 Y71.350 Z-0.600 F100.000
G1 X66.767 Y71.674 Z-0.600 F799.980
G1 X67.533 Y72.117 Z-0.600 F799.980
G1 X66.767 Y71.350 Z-0.600 F799.980
G1 X66.767 Y69.880 Z-0.600 F799.980
G1 X70.027 Y73.140 Z-0.600 F799.980
G1 X70.960 Y72.602 Z-0.600 F799.980
G1 X66.767 Y68.409 Z-0.600 F799.980
G1 X66.767 Y68.326 Z-0.600 F799.980
G1 X67.646 Y67.818 Z-0.600 F799.980
G1 X71.892 Y72.064 Z-0.600 F799.980
G1 X72.567 Y71.674 Z-0.600 F799.980
G1 X72.567 Y71.267 Z-0.600 F799.980
G1 X68.579 Y67.279 Z-0.600 F799.980
G1 X69.511 Y66.741 Z-0.600 F799.980
G1 X72.567 Y69.796 Z-0.600 F799.980
G1 X72.567 Y68.326 Z-0.600 F799.980
G1 X72.567 Y68.326 Z-1.200 F100.000
G1 X72.567 Y69.796 Z-1.200 F799.980
G1 X69.511 Y66.741 Z-1.200 F799.980
G1 X68.579 Y67.279 Z-1.200 F799.980
G1 X72.567 Y71.267 Z-1.200 F799.980
G1 X72.567 Y71.674 Z-1.200 F799.980
G1 X71.892 Y72.064 Z-1.200 F799.980
G1 X67.646 Y67.818 Z-1.200 F799.980
G1 X66.767 Y68.326 Z-1.200 F799.980
G1 X66.767 Y68.409 Z-1.200 F799.980
G1 X70.960 Y72.602 Z-1.200 F799.980
G1 X70.027 Y73.140 Z-1.200 F799.980
G1 X66.767 Y69.880 Z-1.200 F799.980
G1 X66.767 Y71.350 Z-1.200 F799.980
G1 X67.533 Y72.117 Z-1.200 F799.980
G1 X66.767 Y71.674 Z-1.200 F799.980
G1 X66.767 Y71.350 Z-1.200 F799.980
G1 X66.767 Y71.350 Z-1.800 F100.000
G1 X66.767 Y71.674 Z-1.800 F799.980
G1 X67.533 Y72.117 Z-1.800 F799.980
G1 X66.767 Y71.350 Z-1.800 F799.980
G1 X66.767 Y69.880 Z-1.800 F799.980
G1 X70.027 Y73.140 Z-1.800 F799.980
G1 X70.960 Y72.602 Z-1.800 F799.980
G1 X66.767 Y68.409 Z-1.800 F799.980
G1 X66.767 Y68.326 Z-1.800 F799.980
G1 X67.646 Y67.818 Z-1.800 F799.980
G1 X71.892 Y72.064 Z-1.800 F799.980
G1 X72.567 Y71.674 Z-1.800 F799.980
G1 X72.567 Y71.267 Z-1.800 F799.980
G1 X68.579 Y67.279 Z-1.800 F799.980
G1 X69.511 Y66.741 Z-1.800 F799.980
G1 X72.567 Y69.796 Z-1.800 F799.980
G1 X72.567 Y68.326 Z-1.800 F799.980
G1 X72.567 Y68.326 Z-2.400 F100.000
G1 X72.567 Y69.796 Z-2.400 F799.980
G1 X69.511 Y66.741 Z-2.400 F799.980
G1 X68.579 Y67.279 Z-2.400 F799.980
G1 X72.567 Y71.267 Z-2.400 F799.980
G1 X72.567 Y71.674 Z-2.400 F799.980
G1 X71.892 Y72.064 Z-2.400 F799.980
G1 X67.646 Y67.818 Z-2.400 F799.980
G1 X66.767 Y68.326 Z-2.400 F799.980
G1 X66.767 Y68.409 Z-2.400 F799.980
G1 X70.960 Y72.602 Z-2.400 F799.980
G1 X70.027 Y73.140 Z-2.400 F799.980
G1 X66.767 Y69.880 Z-2.400 F799.980
G1 X66.767 Y71.350 Z-2.400 F799.980
G1 X67.533 Y72.117 Z-2.400 F799.980
G1 X66.767 Y71.674 Z-2.400 F799.980
G1 X66.767 Y71.350 Z-2.400 F799.980
G1 X66.767 Y71.350 Z-3.000 F100.000
G1 X66.767 Y71.674 Z-3.000 F799.980
G1 X67.533 Y72.117 Z-3.000 F799.980
G1 X66.767 Y71.350 Z-3.000 F799.980
G1 X66.767 Y69.880 Z-3.000 F799.980
G1 X70.027 Y73.140 Z-3.000 F799.980
G1 X70.960 Y72.602 Z-3.000 F799.980
G1 X66.767 Y68.409 Z-3.000 F799.980
G1 X66.767 Y68.326 Z-3.000 F799.980
G1 X67.646 Y67.818 Z-3.000 F799.980
G1 X71.892 Y72.064 Z-3.000 F799.980
G1 X72.567 Y71.674 Z-3.000 F799.980
G1 X72.567 Y71.267 Z-3.000 F799.980
G1 X68.579 Y67.279 Z-3.000 F799.980
G1 X69.511 Y66.741 Z-3.000 F799.980
G1 X72.567 Y69.796 Z-3.000 F799.980
G1 X72.567 Y68.326 Z-3.000 F799.980
G1 X72.567 Y68.326 Z-3.500 F100.000
G1 X72.567 Y69.796 Z-3.500 F799.980
G1 X69.511 Y66.741 Z-3.500 F799.980
G1 X68.579 Y67.279 Z-3.500 F799.980
G1 X72.567 Y71.267 Z-3.500 F799.980
G1 X72.567 Y71.674 Z-3.500 F799.980
G1 X71.892 Y72.064 Z-3.500 F799.980
G1 X67.646 Y67.818 Z-3.500 F799.980
G1 X66.767 Y68.326 Z-3.500 F799.980
G1 X66.767 Y68.409 Z-3.500 F799.980
G1 X70.960 Y72.602 Z-3.500 F799.980
G1 X70.027 Y73.140 Z-3.500 F799.980
G1 X66.767 Y69.880 Z-3.500 F799.980
G1 X66.767 Y71.350 Z-3.500 F799.980
G1 X67.533 Y72.117 Z-3.500 F799.980
G1 X66.767 Y71.674 Z-3.500 F799.980
G1 X66.767 Y71.350 Z-3.500 F799.980
G0 Z5.000
G0 Z5.000
G0 X66.767 Y71.350
G0 X72.567 Y16.674
G0 X72.567 Y16.674 Z3.000
G1 X72.567 Y16.674 Z-0.600 F100.000
G1 X69.667 Y18.349 Z-0.600 F799.980
G1 X69.511 Y18.259 Z-0.600 F799.980
G1 X72.567 Y15.204 Z-0.600 F799.980
G1 X72.567 Y13.733 Z-0.600 F799.980
G1 X68.579 Y17.721 Z-0.600 F799.980
G1 X67.646 Y17.182 Z-0.600 F799.980
G1 X71.892 Y12.936 Z-0.600 F799.980
G1 X70.960 Y12.398 Z-0.600 F799.980
G1 X66.767 Y16.591 Z-0.600 F799.980
G1 X66.767 Y15.120 Z-0.600 F799.980
G1 X70.027 Y11.860 Z-0.600 F799.980
G1 X69.667 Y11.651 Z-0.600 F799.980
G1 X67.533 Y12.883 Z-0.600 F799.980
G1 X66.767 Y13.650 Z-0.600 F799.980
G1 X66.767 Y13.326 Z-0.600 F799.980
G1 X67.533 Y12.883 Z-0.600 F799.980
G1 X67.533 Y12.883 Z-1.200 F100.000
G1 X66.767 Y13.326 Z-1.200 F799.980
G1 X66.767 Y13.650 Z-1.200 F799.980
G1 X67.533 Y12.883 Z-1.200 F799.980
G1 X69.667 Y11.651 Z-1.200 F799.980
G1 X70.027 Y11.860 Z-1.200 F799.980
G1 X66.767 Y15.120 Z-1.200 F799.980
G1 X66.767 Y16.591 Z-1.200 F799.980
G1 X70.960 Y12.398 Z-1.200 F799.980
G1 X71.892 Y12.936 Z-1.200 F799.980
G1 X67.646 Y17.182 Z-1.200 F799.980
G1 X68.579 Y17.721 Z-1.200 F799.980
G1 X72.567 Y13.733 Z-1.200 F799.980
G1 X72.567 Y15.204 Z-1.200 F799.980
G1 X69.511 Y18.259 Z-1.200 F799.980
G1 X69.667 Y18.349 Z-1.200 F799.980
G1 X72.567 Y16.674 Z-1.200 F799.980
G1 X72.567 Y16.674 Z-1.800 F100.000
G1 X69.667 Y18.349 Z-1.800 F799.980
G1 X69.511 Y18.259 Z-1.800 F799.980
G1 X72.567 Y15.204 Z-1.800 F799.980
G1 X72.567 Y13.733 Z-1.800 F799.980
G1 X68.579 Y17.721 Z-1.800 F799.980
G1 X67.646 Y17.182 Z-1.800 F799.980
G1 X71.892 Y12.936 Z-1.800 F799.980
G1 X70.960 Y12.398 Z-1.800 F799.980
G1 X66.767 Y16.591 Z-1.800 F799.980
G1 X66.767 Y15.120 Z-1.800 F799.980
G1 X70.027 Y11.860 Z-1.800 F799.980
G1 X69.667 Y11.651 Z-1.800 F799.980
G1 X67.533 Y12.883 Z-1.800 F799.980
G1 X66.767 Y13.650 Z-1.800 F799.980
G1 X66.767 Y13.326 Z-1.800 F799.980
G1 X67.533 Y12.883 Z-1.800 F799.980
G1 X67.533 Y12.883 Z-2.400 F100.000
G1 X66.767 Y13.326 Z-2.400 F799.980
G1 X66.767 Y13.650 Z-2.400 F799.980
G1 X67.533 Y12.883 Z-2.400 F799.980
G1 X69.667 Y11.651 Z-2.400 F799.980
G1 X70.027 Y11.860 Z-2.400 F799.980
G1 X66.767 Y15.120 Z-2.400 F799.980
G1 X66.767 Y16.591 Z-2.400 F799.980
G1 X70.960 Y12.398 Z-2.400 F799.980
G1 X71.892 Y12.936 Z-2.400 F799.980
G1 X67.646 Y17.182 Z-2.400 F799.980
G1 X68.579 Y17.721 Z-2.400 F799.980
G1 X72.567 Y13.733 Z-2.400 F799.980
G1 X72.567 Y15.204 Z-2.400 F799.980
G1 X69.511 Y18.259 Z-2.400 F799.980
G1 X69.667 Y18.349 Z-2.400 F799.980
G1 X72.567 Y16.674 Z-2.400 F799.980
G1 X72.567 Y16.674 Z-3.000 F100.000
G1 X69.667 Y18.349 Z-3.000 F799.980
G1 X69.511 Y18.259 Z-3.000 F799.980
G1 X72.567 Y15.204 Z-3.000 F799.980
G1 X72.567 Y13.733 Z-3.000 F799.980
G1 X68.579 Y17.721 Z-3.000 F799.980
G1 X67.646 Y17.182 Z-3.000 F799.980
G1 X71.892 Y12.936 Z-3.000 F799.980
G1 X70.960 Y12.398 Z-3.000 F799.980
G1 X66.767 Y16.591 Z-3.000 F799.980
G1 X66.767 Y15.120 Z-3.000 F799.980
G1 X70.027 Y11.860 Z-3.000 F799.980
G1 X69.667 Y11.651 Z-3.000 F799.980
G1 X67.533 Y12.883 Z-3.000 F799.980
G1 X66.767 Y13.650 Z-3.000 F799.980
G1 X66.767 Y13.326 Z-3.000 F799.980
G1 X67.533 Y12.883 Z-3.000 F799.980
G1 X67.533 Y12.883 Z-3.500 F100.000
G1 X66.767 Y13.326 Z-3.500 F799.980
G1 X66.767 Y13.650 Z-3.500 F799.980
G1 X67.533 Y12.883 Z-3.500 F799.980
G1 X69.667 Y11.651 Z-3.500 F799.980
G1 X70.027 Y11.860 Z-3.500 F799.980
G1 X66.767 Y15.120 Z-3.500 F799.980
G1 X66.767 Y16.591 Z-3.500 F799.980
G1 X70.960 Y12.398 Z-3.500 F799.980
G1 X71.892 Y12.936 Z-3.500 F799.980
G1 X67.646 Y17.182 Z-3.500 F799.980
G1 X68.579 Y17.721 Z-3.500 F799.980
G1 X72.567 Y13.733 Z-3.500 F799.980
G1 X72.567 Y15.204 Z-3.500 F799.980
G1 X69.511 Y18.259 Z-3.500 F799.980
G1 X69.667 Y18.349 Z-3.500 F799.980
G1 X72.567 Y16.674 Z-3.500 F799.980
G0 Z5.000
G0 Z5.000
G0 X72.567 Y16.674
G0 X121.433 Y16.350
G0 X121.433 Y16.350 Z3.000
G1 X121.433 Y16.350 Z-0.600 F100.000
G1 X121.433 Y16.674 Z-0.600 F799.980
G1 X122.200 Y17.117 Z-0.600 F799.980
G1 X121.433 Y16.350 Z-0.600 F799.980
G1 X121.433 Y14.880 Z-0.600 F799.980
G1 X124.694 Y18.140 Z-0.600 F799.980
G1 X125.627 Y17.602 Z-0.600 F799.980
G1 X121.433 Y13.409 Z-0.600 F799.980
G1 X121.433 Y13.326 Z-0.600 F799.980
G1 X122.313 Y12.818 Z-0.600 F799.980
G1 X126.559 Y17.064 Z-0.600 F799.980
G1 X127.233 Y16.674 Z-0.600 F799.980
G1 X127.233 Y16.267 Z-0.600 F799.980
G1 X123.246 Y12.279 Z-0.600 F799.980
G1 X124.178 Y11.741 Z-0.600 F799.980
G1 X127.233 Y14.796 Z-0.600 F799.980
G1 X127.233 Y13.326 Z-0.600 F799.980
G1 X127.233 Y13.326 Z-1.200 F100.000
G1 X127.233 Y14.796 Z-1.200 F799.980
G1 X124.178 Y11.741 Z-1.200 F799.980
G1 X123.246 Y12.279 Z-1.200 F799.980
G1 X127.233 Y16.267 Z-1.200 F799.980
G1 X127.233 Y16.674 Z-1.200 F799.980
G1 X126.559 Y17.064 Z-1.200 F799.980
G1 X122.313 Y12.818 Z-1.200 F799.980
G1 X121.433 Y13.326 Z-1.200 F799.980
G1 X121.433 Y13.409 Z-1.200 F799.980
G1 X125.627 Y17.602 Z-1.200 F799.980
G1 X124.694 Y18.140 Z-1.200 F799.980
G1 X121.433 Y14.880 Z-1.200 F799.980
G1 X121.433 Y16.350 Z-1.200 F799.980
G1 X122.200 Y17.117 Z-1.200 F799.980
G1 X121.433 Y16.674 Z-1.200 F799.980
G1 X121.433 Y16.350 Z-1.200 F799.980
G1 X121.433 Y16.350 Z-1.800 F100.000
G1 X121.433 Y16.674 Z-1.800 F799.980
G1 X122.200 Y17.117 Z-1.800 F799.980
G1 X121.433 Y16.350 Z-1.800 F799.980
G1 X121.433 Y14.880 Z-1.800 F799.980
G1 X124.694 Y18.140 Z-1.800 F799.980
G1 X125.627 Y17.602 Z-1.800 F799.980
G1 X121.433 Y13.409 Z-1.800 F799.980
G1 X121.433 Y13.326 Z-1.800 F799.980
G1 X122.313 Y12.818 Z-1.800 F799.980
G1 X126.559 Y17.064 Z-1.800 F799.980
G1 X127.233 Y16.674 Z-1.800 F799.980
G1 X127.233 Y16.267 Z-1.800 F799.980
G1 X123.246 Y12.279 Z-1.800 F799.980
G1 X124.178 Y11.741 Z-1.800 F799.980
G1 X127.233 Y14.796 Z-1.800 F799.980
G1 X127.233 Y13.326 Z-1.800 F799.980
G1 X127.233 Y13.326 Z-2.400 F100.000
G1 X127.233 Y14.796 Z-2.400 F799.980
G1 X124.178 Y11.741 Z-2.400 F799.980
G1 X123.246 Y12.279 Z-2.400 F799.980
G1 X127.233 Y16.267 Z-2.400 F799.980
G1 X127.233 Y16.674 Z-2.400 F799.980
G1 X126.559 Y17.064 Z-2.400 F799.980
G1 X122.313 Y12.818 Z-2.400 F799.980
G1 X121.433 Y13.326 Z-2.400 F799.980
G1 X121.433 Y13.409 Z-2.400 F799.980
G1 X125.627 Y17.602 Z-2.400 F799.980
G1 X124.694 Y18.140 Z-2.400 F799.980
G1 X121.433 Y14.880 Z-2.400 F799.980
G1 X121.433 Y16.350 Z-2.400 F799.980
G1 X122.200 Y17.117 Z-2.400 F799.980
G1 X121.433 Y16.674 Z-2.400 F799.980
G1 X121.433 Y16.350 Z-2.400 F799.980
G1 X121.433 Y16.350 Z-3.000 F100.000
G1 X121.433 Y16.674 Z-3.000 F799.980
G1 X122.200 Y17.117 Z-3.000 F799.980
G1 X121.433 Y16.350 Z-3.000 F799.980
G1 X121.433 Y14.880 Z-3.000 F799.980
G1 X124.694 Y18.140 Z-3.000 F799.980
G1 X125.627 Y17.602 Z-3.000 F799.980
G1 X121.433 Y13.409 Z-3.000 F799.980
G1 X121.433 Y13.326 Z-3.000 F799.980
G1 X122.313 Y12.818 Z-3.000 F799.980
G1 X126.559 Y17.064 Z-3.000 F799.980
G1 X127.233 Y16.674 Z-3.000 F799.980
G1 X127.233 Y16.267 Z-3.000 F799.980
G1 X123.246 Y12.279 Z-3.000 F799.980
G1 X124.178 Y11.741 Z-3.000 F799.980
G1 X127.233 Y14.796 Z-3.000 F799.980
G1 X127.233 Y13.326 Z-3.000 F799.980
G1 X127.233 Y13.326 Z-3.500 F100.000
G1 X127.233 Y14.796 Z-3.500 F799.980
G1 X124.178 Y11.741 Z-3.500 F799.980
G1 X123.246 Y12.279 Z-3.500 F799.980
G1 X127.233 Y16.267 Z-3.500 F799.980
G1 X127.233 Y16.674 Z-3.500 F799.980
G1 X126.559 Y17.064 Z-3.500 F799.980
G1 X122.313 Y12.818 Z-3.500 F799.980
G1 X121.433 Y13.326 Z-3.500 F799.980
G1 X121.433 Y13.409 Z-3.500 F799.980
G1 X125.627 Y17.602 Z-3.500 F799.980
G1 X124.694 Y18.140 Z-3.500 F799.980
G1 X121.433 Y14.880 Z-3.500 F799.980
G1 X121.433 Y16.350 Z-3.500 F799.980
G1 X122.200 Y17.117 Z-3.500 F799.980
G1 X121.433 Y16.674 Z-3.500 F799.980
G1 X121.433 Y16.350 Z-3.500 F799.980
G0 Z5.000
G0 Z5.000
G0 X121.433 Y16.350
G0 X127.233 Y68.326
G0 X127.233 Y68.326 Z3.000
G1 X127.233 Y68.326 Z-0.600 F100.000
G1 X127.233 Y69.796 Z-0.600 F799.980
G1 X124.178 Y66.741 Z-0.600 F799.980
G1 X123.246 Y67.279 Z-0.600 F799.980
G1 X127.233 Y71.267 Z-0.600 F799.980
G1 X127.233 Y71.674 Z-0.600 F799.980
G1 X126.559 Y72.064 Z-0.600 F799.980
G1 X122.313 Y67.818 Z-0.600 F799.980
G1 X121.433 Y68.326 Z-0.600 F799.980
G1 X121.433 Y68.409 Z-0.600 F799.980
G1 X125.627 Y72.602 Z-0.600 F799.980
G1 X124.694 Y73.140 Z-0.600 F799.980
G1 X121.433 Y69.880 Z-0.600 F799.980
G1 X121.433 Y71.350 Z-0.600 F799.980
G1 X122.200 Y72.117 Z-0.600 F799.980
G1 X121.433 Y71.674 Z-0.600 F799.980
G1 X121.433 Y71.350 Z-0.600 F799.980
G1 X121.433 Y71.350 Z-1.200 F100.000
G1 X121.433 Y71.674 Z-1.200 F799.980
G1 X122.200 Y72.117 Z-1.200 F799.980
G1 X121.433 Y71.350 Z-1.200 F799.980
G1 X121.433 Y69.880 Z-1.200 F799.980
G1 X124.694 Y73.140 Z-1.200 F799.980
G1 X125.627 Y72.602 Z-1.200 F799.980
G1 X121.433 Y68.409 Z-1.200 F799.980
G1 X121.433 Y68.326 Z-1.200 F799.980
G1 X122.313 Y67.818 Z-1.200 F799.980
G1 X126.559 Y72.064 Z-1.200 F799.980
G1 X127.233 Y71.674 Z-1.200 F799.980
G1 X127.233 Y71.267 Z-1.200 F799.980
G1 X123.246 Y67.279 Z-1.200 F799.980
G1 X124.178 Y66.741 Z-1.200 F799.980
G1 X127.233 Y69.796 Z-1.200 F799.980
G1 X127.233 Y68.326 Z-1.200 F799.980
G1 X127.233 Y68.326 Z-1.800 F100.000
G1 X127.233 Y69.796 Z-1.800 F799.980
G1 X124.178 Y66.741 Z-1.800 F799.980
G1 X123.246 Y67.279 Z-1.800 F799.980
G1 X127.233 Y71.267 Z-1.800 F799.980
G1 X127.233 Y71.674 Z-1.800 F799.980
G1 X126.559 Y72.064 Z-1.800 F799.980
G1 X122.313 Y67.818 Z-1.800 F799.980
G1 X121.433 Y68.326 Z-1.800 F799.980
G1 X121.433 Y68.409 Z-1.800 F799.980
G1 X125.627 Y72.602 Z-1.800 F799.980
G1 X124.694 Y73.140 Z-1.800 F799.980
G1 X121.433 Y69.880 Z-1.800 F799.980
G1 X121.433 Y71.350 Z-1.800 F799.980
G1 X122.200 Y72.117 Z-1.800 F799.980
G1 X121.433 Y71.674 Z-1.800 F799.980
G1 X121.433 Y71.350 Z-1.800 F799.980
G1 X121.433 Y71.350 Z-2.400 F100.000
G1 X121.433 Y71.674 Z-2.400 F799.980
G1 X122.200 Y72.117 Z-2.400 F799.980
G1 X121.433 Y71.350 Z-2.400 F799.980
G1 X121.433 Y69.880 Z-2.400 F799.980
G1 X124.694 Y73.140 Z-2.400 F799.980
G1 X125.627 Y72.602 Z-2.400 F799.980
G1 X121.433 Y68.409 Z-2.400 F799.980
G1 X121.433 Y68.326 Z-2.400 F799.980
G1 X122.313 Y67.818 Z-2.400 F799.980
G1 X126.559 Y72.064 Z-2.400 F799.980
G1 X127.233 Y71.674 Z-2.400 F799.980
G1 X127.233 Y71.267 Z-2.400 F799.980
G1 X123.246 Y67.279 Z-2.400 F799.980
G1 X124.178 Y66.741 Z-2.400 F799.980
G1 X127.233 Y69.796 Z-2.400 F799.980
G1 X127.233 Y68.326 Z-2.400 F799.980
G1 X127.233 Y68.326 Z-3.000 F100.000
G1 X127.233 Y69.796 Z-3.000 F799.980
G1 X124.178 Y66.741 Z-3.000 F799.980
G1 X123.246 Y67.279 Z-3.000 F799.980
G1 X127.233 Y71.267 Z-3.000 F799.980
G1 X127.233 Y71.674 Z-3.000 F799.980
G1 X126.559 Y72.064 Z-3.000 F799.980
G1 X122.313 Y67.818 Z-3.000 F799.980
G1 X121.433 Y68.326 Z-3.000 F799.980
G1 X121.433 Y68.409 Z-3.000 F799.980
G1 X125.627 Y72.602 Z-3.000 F799.980
G1 X124.694 Y73.140 Z-3.000 F799.980
G1 X121.433 Y69.880 Z-3.000 F799.980
G1 X121.433 Y71.350 Z-3.000 F799.980
G1 X122.200 Y72.117 Z-3.000 F799.980
G1 X121.433 Y71.674 Z-3.000 F799.980
G1 X121.433 Y71.350 Z-3.000 F799.980
G1 X121.433 Y71.350 Z-3.500 F100.000
G1 X121.433 Y71.674 Z-3.500 F799.980
G1 X122.200 Y72.117 Z-3.500 F799.980
G1 X121.433 Y71.350 Z-3.500 F799.980
G1 X121.433 Y69.880 Z-3.500 F799.980
G1 X124.694 Y73.140 Z-3.500 F799.980
G1 X125.627 Y72.602 Z-3.500 F799.980
G1 X121.433 Y68.409 Z-3.500 F799.980
G1 X121.433 Y68.326 Z-3.500 F799.980
G1 X122.313 Y67.818 Z-3.500 F799.980
G1 X126.559 Y72.064 Z-3.500 F799.980
G1 X127.233 Y71.674 Z-3.500 F799.980
G1 X127.233 Y71.267 Z-3.500 F799.980
G1 X123.246 Y67.279 Z-3.500 F799.980
G1 X124.178 Y66.741 Z-3.500 F799.980
G1 X127.233 Y69.796 Z-3.500 F799.980
G1 X127.233 Y68.326 Z-3.500 F799.980
G0 Z5.000
G0 Z5.000
G0 X127.233 Y68.326
G0 X122.200 Y122.883
G0 X122.200 Y122.883 Z3.000
G1 X122.200 Y122.883 Z-0.600 F100.000
G1 X121.433 Y123.326 Z-0.600 F799.980
G1 X121.433 Y123.650 Z-0.600 F799.980
G1 X122.200 Y122.883 Z-0.600 F799.980
G1 X124.333 Y121.651 Z-0.600 F799.980
G1 X124.694 Y121.860 Z-0.600 F799.980
G1 X121.433 Y125.120 Z-0.600 F799.980
G1 X121.433 Y126.591 Z-0.600 F799.980
G1 X125.627 Y122.398 Z-0.600 F799.980
G1 X126.559 Y122.936 Z-0.600 F799.980
G1 X122.313 Y127.182 Z-0.600 F799.980
G1 X123.246 Y127.721 Z-0.600 F799.980
G1 X127.233 Y123.733 Z-0.600 F799.980
G1 X127.233 Y125.204 Z-0.600 F799.980
G1 X124.178 Y128.259 Z-0.600 F799.980
G1 X124.333 Y128.349 Z-0.600 F799.980
G1 X127.233 Y126.674 Z-0.600 F799.980
G1 X127.233 Y126.674 Z-1.200 F100.000
G1 X124.333 Y128.349 Z-1.200 F799.980
G1 X124.178 Y128.259 Z-1.200 F799.980
G1 X127.233 Y125.204 Z-1.200 F799.980
G1 X127.233 Y123.733 Z-1.200 F799.980
G1 X123.246 Y127.721 Z-1.200 F799.980
G1 X122.313 Y127.182 Z-1.200 F799.980
G1 X126.559 Y122.936 Z-1.200 F799.980
G1 X125.627 Y122.398 Z-1.200 F799.980
G1 X121.433 Y126.591 Z-1.200 F799.980
G1 X121.433 Y125.120 Z-1.200 F799.980
G1 X124.694 Y121.860 Z-1.200 F799.980
G1 X124.333 Y121.651 Z-1.200 F799.980
G1 X122.200 Y122.883 Z-1.200 F799.980
G1 X121.433 Y123.650 Z-1.200 F799.980
G1 X121.433 Y123.326 Z-1.200 F799.980
G1 X122.200 Y122.883 Z-1.200 F799.980
G1 X122.200 Y122.883 Z-1.800 F100.000
G1 X121.433 Y123.326 Z-1.800 F799.980
G1 X121.433 Y123.650 Z-1.800 F799.980
G1 X122.200 Y122.883 Z-1.800 F799.980
G1 X124.333 Y121.651 Z-1.800 F799.980
G1 X124.694 Y121.860 Z-1.800 F799.980
G1 X121.433 Y125.120 Z-1.800 F799.980
G1 X121.433 Y126.591 Z-1.800 F799.980
G1 X125.627 Y122.398 Z-1.800 F799.980
G1 X126.559 Y122.936 Z-1.800 F799.980
G1 X122.313 Y127.182 Z-1.800 F799.980
G1 X123.246 Y127.721 Z-1.800 F799.980
G1 X127.233 Y123.733 Z-1.800 F799.980
G1 X127.233 Y125.204 Z-1.800 F799.980
G1 X124.178 Y128.259 Z-1.800 F799.980
G1 X124.333 Y128.349 Z-1.800 F799.980
G1 X127.233 Y126.674 Z-1.800 F799.980
G1 X127.233 Y126.674 Z-2.400 F100.000
G1 X124.333 Y128.349 Z-2.400 F799.980
G1 X124.178 Y128.259 Z-2.400 F799.980
G1 X127.233 Y125.204 Z-2.400 F799.980
G1 X127.233 Y123.733 Z-2.400 F799.980
G1 X123.246 Y127.721 Z-2.400 F799.980
G1 X122.313 Y127.182 Z-2.400 F799.980
G1 X126.559 Y122.936 Z-2.400 F799.980
G1 X125.627 Y122.398 Z-2.400 F799.980
G1 X121.433 Y126.591 Z-2.400 F799.980
G1 X121.433 Y125.120 Z-2.400 F799.980
G1 X124.694 Y121.860 Z-2.400 F799.980
G1 X124.333 Y121.651 Z-2.400 F799.980
G1 X122.200 Y122.883 Z-2.400 F799.980
G1 X121.433 Y123.650 Z-2.400 F799.980
G1 X121.433 Y123.326 Z-2.400 F799.980
G1 X122.200 Y122.883 Z-2.400 F799.980
G1 X122.200 Y122.883 Z-3.000 F100.000
G1 X121.433 Y123.326 Z-3.000 F799.980
G1 X121.433 Y123.650 Z-3.000 F799.980
G1 X122.200 Y122.883 Z-3.000 F799.980
G1 X124.333 Y121.651 Z-3.000 F799.980
G1 X124.694 Y121.860 Z-3.000 F799.980
G1 X121.433 Y125.120 Z-3.000 F799.980
G1 X121.433 Y126.591 Z-3.000 F799.980
G1 X125.627 Y122.398 Z-3.000 F799.980
G1 X126.559 Y122.936 Z-3.000 F799.980
G1 X122.313 Y127.182 Z-3.000 F799.980
G1 X123.246 Y127.721 Z-3.000 F799.980
G1 X127.233 Y123.733 Z-3.000 F799.980
G1 X127.233 Y125.204 Z-3.000 F799.980
G1 X124.178 Y128.259 Z-3.000 F799.980
G1 X124.333 Y128.349 Z-3.000 F799.980
G1 X127.233 Y126.674 Z-3.000 F799.980
G1 X127.233 Y126.674 Z-3.500 F100.000
G1 X124.333 Y128.349 Z-3.500 F799.980
G1 X124.178 Y128.259 Z-3.500 F799.980
G1 X127.233 Y125.204 Z-3.500 F799.980
G1 X127.233 Y123.733 Z-3.500 F799.980
G1 X123.246 Y127.721 Z-3.500 F799.980
G1 X122.313 Y127.182 Z-3.500 F799.980
G1 X126.559 Y122.936 Z-3.500 F799.980
G1 X125.627 Y122.398 Z-3.500 F799.980
G1 X121.433 Y126.591 Z-3.500 F799.980
G1 X121.433 Y125.120 Z-3.500 F799.980
G1 X124.694 Y121.860 Z-3.500 F799.980
G1 X124.333 Y121.651 Z-3.500 F799.980
G1 X122.200 Y122.883 Z-3.500 F799.980
G1 X121.433 Y123.650 Z-3.500 F799.980
G1 X121.433 Y123.326 Z-3.500 F799.980
G1 X122.200 Y122.883 Z-3.500 F799.980
G0 Z5.000
G0 Z5.000
G0 X122.200 Y122.883
G0 X127.233 Y178.326
G0 X127.233 Y178.326 Z3.000
G1 X127.233 Y178.326 Z-0.600 F100.000
G1 X127.233 Y179.796 Z-0.600 F799.980
G1 X124.178 Y176.741 Z-0.600 F799.980
G1 X123.246 Y177.279 Z-0.600 F799.980
G1 X127.233 Y181.267 Z-0.600 F799.980
G1 X127.233 Y181.674 Z-0.600 F799.980
G1 X126.559 Y182.064 Z-0.600 F799.980
G1 X122.313 Y177.818 Z-0.600 F799.980
G1 X121.433 Y178.326 Z-0.600 F799.980
G1 X121.433 Y178.409 Z-0.600 F799.980
G1 X125.627 Y182.602 Z-0.600 F799.980
G1 X124.694 Y183.140 Z-0.600 F799.980
G1 X121.433 Y179.880 Z-0.600 F799.980
G1 X121.433 Y181.350 Z-0.600 F799.980
G1 X122.200 Y182.117 Z-0.600 F799.980
G1 X121.433 Y181.674 Z-0.600 F799.980
G1 X121.433 Y181.350 Z-0.600 F799.980
G1 X121.433 Y181.350 Z-1.200 F100.000
G1 X121.433 Y181.674 Z-1.200 F799.980
G1 X122.200 Y182.117 Z-1.200 F799.980
G1 X121.433 Y181.350 Z-1.200 F799.980
G1 X121.433 Y179.880 Z-1.200 F799.980
G1 X124.694 Y183.140 Z-1.200 F799.980
G1 X125.627 Y182.602 Z-1.200 F799.980
G1 X121.433 Y178.409 Z-1.200 F799.980
G1 X121.433 Y178.326 Z-1.200 F799.980
G1 X122.313 Y177.818 Z-1.200 F799.980
G1 X126.559 Y182.064 Z-1.200 F799.980
G1 X127.233 Y181.674 Z-1.200 F799.980
G1 X127.233 Y181.267 Z-1.200 F799.980
G1 X123.246 Y177.279 Z-1.200 F799.980
G1 X124.178 Y176.741 Z-1.200 F799.980
G1 X127.233 Y179.796 Z-1.200 F799.980
G1 X127.233 Y178.326 Z-1.200 F799.980
G1 X127.233 Y178.326 Z-1.800 F100.000
G1 X127.233 Y179.796 Z-1.800 F799.980
G1 X124.178 Y176.741 Z-1.800 F799.980
G1 X123.246 Y177.279 Z-1.800 F799.980
G1 X127.233 Y181.267 Z-1.800 F799.980
G1 X127.233 Y181.674 Z-1.800 F799.980
G1 X126.559 Y182.064 Z-1.800 F799.980
G1 X122.313 Y177.818 Z-1.800 F799.980
G1 X121.433 Y178.326 Z-1.800 F799.980
G1 X121.433 Y178.409 Z-1.800 F799.980
G1 X125.627 Y182.602 Z-1.800 F799.980
G1 X124.694 Y183.140 Z-1.800 F799.980
G1 X121.433 Y179.880 Z-1.800 F799.980
G1 X121.433 Y181.350 Z-1.800 F799.980
G1 X122.200 Y182.117 Z-1.800 F799.980
G1 X121.433 Y181.674 Z-1.800 F799.980
G1 X121.433 Y181.350 Z-1.800 F799.980
G1 X121.433 Y181.350 Z-2.400 F100.000
G1 X121.433 Y181.674 Z-2.400 F799.980
G1 X122.200 Y182.117 Z-2.400 F799.980
G1 X121.433 Y181.350 Z-2.400 F799.980
G1 X121.433 Y179.880 Z-2.400 F799.980
G1 X124.694 Y183.140 Z-2.400 F799.980
G1 X125.627 Y182.602 Z-2.400 F799.980
G1 X121.433 Y178.409 Z-2.400 F799.980
G1 X121.433 Y178.326 Z-2.400 F799.980
G1 X122.313 Y177.818 Z-2.400 F799.980
G1 X126.559 Y182.064 Z-2.400 F799.980
G1 X127.233 Y181.674 Z-2.400 F799.980
G1 X127.233 Y181.267 Z-2.400 F799.980
G1 X123.246 Y177.279 Z-2.400 F799.980
G1 X124.178 Y176.741 Z-2.400 F799.980
G1 X127.233 Y179.796 Z-2.400 F799.980
G1 X127.233 Y178.326 Z-2.400 F799.980
G1 X127.233 Y178.326 Z-3.000 F100.000
G1 X127.233 Y179.796 Z-3.000 F799.980
G1 X124.178 Y176.741 Z-3.000 F799.980
G1 X123.246 Y177.279 Z-3.000 F799.980
G1 X127.233 Y181.267 Z-3.000 F799.980
G1 X127.233 Y181.674 Z-3.000 F799.980
G1 X126.559 Y182.064 Z-3.000 F799.980
G1 X122.313 Y177.818 Z-3.000 F799.980
G1 X121.433 Y178.326 Z-3.000 F799.980
G1 X121.433 Y178.409 Z-3.000 F799.980
G1 X125.627 Y182.602 Z-3.000 F799.980
G1 X124.694 Y183.140 Z-3.000 F799.980
G1 X121.433 Y179.880 Z-3.000 F799.980
G1 X121.433 Y181.350 Z-3.000 F799.980
G1 X122.200 Y182.117 Z-3.000 F799.980
G1 X121.433 Y181.674 Z-3.000 F799.980
G1 X121.433 Y181.350 Z-3.000 F799.980
G1 X121.433 Y181.350 Z-3.500 F100.000
G1 X121.433 Y181.674 Z-3.500 F799.980
G1 X122.200 Y182.117 Z-3.500 F799.980
G1 X121.433 Y181.350 Z-3.500 F799.980
G1 X121.433 Y179.880 Z-3.500 F799.980
G1 X124.694 Y183.140 Z-3.500 F799.980
G1 X125.627 Y182.602 Z-3.500 F799.980
G1 X121.433 Y178.409 Z-3.500 F799.980
G1 X121.433 Y178.326 Z-3.500 F799.980
G1 X122.313 Y177.818 Z-3.500 F799.980
G1 X126.559 Y182.064 Z-3.500 F799.980
G1 X127.233 Y181.674 Z-3.500 F799.980
G1 X127.233 Y181.267 Z-3.500 F799.980
G1 X123.246 Y177.279 Z-3.500 F799.980
G1 X124.178 Y176.741 Z-3.500 F799.980
G1 X127.233 Y179.796 Z-3.500 F799.980
G1 X127.233 Y178.326 Z-3.500 F799.980
G0 Z5.000
G0 Z5.000
G0 X127.233 Y178.326
G0 Y233.326
G0 Y233.326 Z3.000
G1 X127.233 Y233.326 Z-0.600 F100.000
G1 X127.233 Y234.796 Z-0.600 F799.980
G1 X124.178 Y231.741 Z-0.600 F799.980
G1 X123.246 Y232.279 Z-0.600 F799.980
G1 X127.233 Y236.267 Z-0.600 F799.980
G1 X127.233 Y236.674 Z-0.600 F799.980
G1 X126.559 Y237.064 Z-0.600 F799.980
G1 X122.313 Y232.818 Z-0.600 F799.980
G1 X121.433 Y233.326 Z-0.600 F799.980
G1 X121.433 Y233.409 Z-0.600 F799.980
G1 X125.627 Y237.602 Z-0.600 F799.980
G1 X124.694 Y238.140 Z-0.600 F799.980
G1 X121.433 Y234.880 Z-0.600 F799.980
G1 X121.433 Y236.350 Z-0.600 F799.980
G1 X122.200 Y237.117 Z-0.600 F799.980
G1 X121.433 Y236.674 Z-0.600 F799.980
G1 X121.433 Y236.350 Z-0.600 F799.980
G1 X121.433 Y236.350 Z-1.200 F100.000
G1 X121.433 Y236.674 Z-1.200 F799.980
G1 X122.200 Y237.117 Z-1.200 F799.980
G1 X121.433 Y236.350 Z-1.200 F799.980
G1 X121.433 Y234.880 Z-1.200 F799.980
G1 X124.694 Y238.140 Z-1.200 F799.980
G1 X125.627 Y237.602 Z-1.200 F799.980
G1 X121.433 Y233.409 Z-1.200 F799.980
G1 X121.433 Y233.326 Z-1.200 F799.980
G1 X122.313 Y232.818 Z-1.200 F799.980
G1 X126.559 Y237.064 Z-1.200 F799.980
G1 X127.233 Y236.674 Z-1.200 F799.980
G1 X127.233 Y236.267 Z-1.200 F799.980
G1 X123.246 Y232.279 Z-1.200 F799.980
G1 X124.178 Y231.741 Z-1.200 F799.980
G1 X127.233 Y234.796 Z-1.200 F799.980
G1 X127.233 Y233.326 Z-1.200 F799.980
G1 X127.233 Y233.326 Z-1.800 F100.000
G1 X127.233 Y234.796 Z-1.800 F799.980
G1 X124.178 Y231.741 Z-1.800 F799.980
G1 X123.246 Y232.279 Z-1.800 F799.980
G1 X127.233 Y236.267 Z-1.800 F799.980
G1 X127.233 Y236.674 Z-1.800 F799.980
G1 X126.559 Y237.064 Z-1.800 F799.980
G1 X122.313 Y232.818 Z-1.800 F799.980
G1 X121.433 Y233.326 Z-1.800 F799.980
G1 X121.433 Y233.409 Z-1.800 F799.980
G1 X125.627 Y237.602 Z-1.800 F799.980
G1 X124.694 Y238.140 Z-1.800 F799.980
G1 X121.433 Y234.880 Z-1.800 F799.980
G1 X121.433 Y236.350 Z-1.800 F799.980
G1 X122.200 Y237.117 Z-1.800 F799.980
G1 X121.433 Y236.674 Z-1.800 F799.980
G1 X121.433 Y236.350 Z-1.800 F799.980
G1 X121.433 Y236.350 Z-2.400 F100.000
G1 X121.433 Y236.674 Z-2.400 F799.980
G1 X122.200 Y237.117 Z-2.400 F799.980
G1 X121.433 Y236.350 Z-2.400 F799.980
G1 X121.433 Y234.880 Z-2.400 F799.980
G1 X124.694 Y238.140 Z-2.400 F799.980
G1 X125.627 Y237.602 Z-2.400 F799.980
G1 X121.433 Y233.409 Z-2.400 F799.980
G1 X121.433 Y233.326 Z-2.400 F799.980
G1 X122.313 Y232.818 Z-2.400 F799.980
G1 X126.559 Y237.064 Z-2.400 F799.980
G1 X127.233 Y236.674 Z-2.400 F799.980
G1 X127.233 Y236.267 Z-2.400 F799.980
G1 X123.246 Y232.279 Z-2.400 F799.980
G1 X124.178 Y231.741 Z-2.400 F799.980
G1 X127.233 Y234.796 Z-2.400 F799.980
G1 X127.233 Y233.326 Z-2.400 F799.980
G1 X127.233 Y233.326 Z-3.000 F100.000
G1 X127.233 Y234.796 Z-3.000 F799.980
G1 X124.178 Y231.741 Z-3.000 F799.980
G1 X123.246 Y232.279 Z-3.000 F799.980
G1 X127.233 Y236.267 Z-3.000 F799.980
G1 X127.233 Y236.674 Z-3.000 F799.980
G1 X126.559 Y237.064 Z-3.000 F799.980
G1 X122.313 Y232.818 Z-3.000 F799.980
G1 X121.433 Y233.326 Z-3.000 F799.980
G1 X121.433 Y233.409 Z-3.000 F799.980
G1 X125.627 Y237.602 Z-3.000 F799.980
G1 X124.694 Y238.140 Z-3.000 F799.980
G1 X121.433 Y234.880 Z-3.000 F799.980
G1 X121.433 Y236.350 Z-3.000 F799.980
G1 X122.200 Y237.117 Z-3.000 F799.980
G1 X121.433 Y236.674 Z-3.000 F799.980
G1 X121.433 Y236.350 Z-3.000 F799.980
G1 X121.433 Y236.350 Z-3.500 F100.000
G1 X121.433 Y236.674 Z-3.500 F799.980
G1 X122.200 Y237.117 Z-3.500 F799.980
G1 X121.433 Y236.350 Z-3.500 F799.980
G1 X121.433 Y234.880 Z-3.500 F799.980
G1 X124.694 Y238.140 Z-3.500 F799.980
G1 X125.627 Y237.602 Z-3.500 F799.980
G1 X121.433 Y233.409 Z-3.500 F799.980
G1 X121.433 Y233.326 Z-3.500 F799.980
G1 X122.313 Y232.818 Z-3.500 F799.980
G1 X126.559 Y237.064 Z-3.500 F799.980
G1 X127.233 Y236.674 Z-3.500 F799.980
G1 X127.233 Y236.267 Z-3.500 F799.980
G1 X123.246 Y232.279 Z-3.500 F799.980
G1 X124.178 Y231.741 Z-3.500 F799.980
G1 X127.233 Y234.796 Z-3.500 F799.980
G1 X127.233 Y233.326 Z-3.500 F799.980
G0 Z5.000
G0 Z5.000
G0 X127.233 Y233.326
G0 X176.100 Y236.350
G0 X176.100 Y236.350 Z3.000
G1 X176.100 Y236.350 Z-0.600 F100.000
G1 X176.100 Y236.674 Z-0.600 F799.980
G1 X176.866 Y237.117 Z-0.600 F799.980
G1 X176.100 Y236.350 Z-0.600 F799.980
G1 X176.100 Y234.880 Z-0.600 F799.980
G1 X179.361 Y238.140 Z-0.600 F799.980
G1 X180.293 Y237.602 Z-0.600 F799.980
G1 X176.100 Y233.409 Z-0.600 F799.980
G1 X176.100 Y233.326 Z-0.600 F799.980
G1 X176.980 Y232.818 Z-0.600 F799.980
G1 X181.226 Y237.064 Z-0.600 F799.980
G1 X181.900 Y236.674 Z-0.600 F799.980
G1 X181.900 Y236.267 Z-0.600 F799.980
G1 X177.912 Y232.279 Z-0.600 F799.980
G1 X178.845 Y231.741 Z-0.600 F799.980
G1 X181.900 Y234.796 Z-0.600 F799.980
G1 X181.900 Y233.326 Z-0.600 F799.980
G1 X181.900 Y233.326 Z-1.200 F100.000
G1 X181.900 Y234.796 Z-1.200 F799.980
G1 X178.845 Y231.741 Z-1.200 F799.980
G1 X177.912 Y232.279 Z-1.200 F799.980
G1 X181.900 Y236.267 Z-1.200 F799.980
G1 X181.900 Y236.674 Z-1.200 F799.980
G1 X181.226 Y237.064 Z-1.200 F799.980
G1 X176.980 Y232.818 Z-1.200 F799.980
G1 X176.100 Y233.326 Z-1.200 F799.980
G1 X176.100 Y233.409 Z-1.200 F799.980
G1 X180.293 Y237.602 Z-1.200 F799.980
G1 X179.361 Y238.140 Z-1.200 F799.980
G1 X176.100 Y234.880 Z-1.200 F799.980
G1 X176.100 Y236.350 Z-1.200 F799.980
G1 X176.866 Y237.117 Z-1.200 F799.980
G1 X176.100 Y236.674 Z-1.200 F799.980
G1 X176.100 Y236.350 Z-1.200 F799.980
G1 X176.100 Y236.350 Z-1.800 F100.000
G1 X176.100 Y236.674 Z-1.800 F799.980
G1 X176.866 Y237.117 Z-1.800 F799.980
G1 X176.100 Y236.350 Z-1.800 F799.980
G1 X176.100 Y234.880 Z-1.800 F799.980
G1 X179.361 Y238.140 Z-1.800 F799.980
G1 X180.293 Y237.602 Z-1.800 F799.980
G1 X176.100 Y233.409 Z-1.800 F799.980
G1 X176.100 Y233.326 Z-1.800 F799.980
G1 X176.980 Y232.818 Z-1.800 F799.980
G1 X181.226 Y237.064 Z-1.800 F799.980
G1 X181.900 Y236.674 Z-1.800 F799.980
G1 X181.900 Y236.267 Z-1.800 F799.980
G1 X177.912 Y232.279 Z-1.800 F799.980
G1 X178.845 Y231.741 Z-1.800 F799.980
G1 X181.900 Y234.796 Z-1.800 F799.980
G1 X181.900 Y233.326 Z-1.800 F799.980
G1 X181.900 Y233.326 Z-2.400 F100.000
G1 X181.900 Y234.796 Z-2.400 F799.980
G1 X178.845 Y231.741 Z-2.400 F799.980
G1 X177.912 Y232.279 Z-2.400 F799.980
G1 X181.900 Y236.267 Z-2.400 F799.980
G1 X181.900 Y236.674 Z-2.400 F799.980
G1 X181.226 Y237.064 Z-2.400 F799.980
G1 X176.980 Y232.818 Z-2.400 F799.980
G1 X176.100 Y233.326 Z-2.400 F799.980
G1 X176.100 Y233.409 Z-2.400 F799.980
G1 X180.293 Y237.602 Z-2.400 F799.980
G1 X179.361 Y238.140 Z-2.400 F799.980
G1 X176.100 Y234.880 Z-2.400 F799.980
G1 X176.100 Y236.350 Z-2.400 F799.980
G1 X176.866 Y237.117 Z-2.400 F799.980
G1 X176.100 Y236.674 Z-2.400 F799.980
G1 X176.100 Y236.350 Z-2.400 F799.980
G1 X176.100 Y236.350 Z-3.000 F100.000
G1 X176.100 Y236.674 Z-3.000 F799.980
G1 X176.866 Y237.117 Z-3.000 F799.980
G1 X176.100 Y236.350 Z-3.000 F799.980
G1 X176.100 Y234.880 Z-3.000 F799.980
G1 X179.361 Y238.140 Z-3.000 F799.980
G1 X180.293 Y237.602 Z-3.000 F799.980
G1 X176.100 Y233.409 Z-3.000 F799.980
G1 X176.100 Y233.326 Z-3.000 F799.980
G1 X176.980 Y232.818 Z-3.000 F799.980
G1 X181.226 Y237.064 Z-3.000 F799.980
G1 X181.900 Y236.674 Z-3.000 F799.980
G1 X181.900 Y236.267 Z-3.000 F799.980
G1 X177.912 Y232.279 Z-3.000 F799.980
G1 X178.845 Y231.741 Z-3.000 F799.980
G1 X181.900 Y234.796 Z-3.000 F799.980
G1 X181.900 Y233.326 Z-3.000 F799.980
G1 X181.900 Y233.326 Z-3.500 F100.000
G1 X181.900 Y234.796 Z-3.500 F799.980
G1 X178.845 Y231.741 Z-3.500 F799.980
G1 X177.912 Y232.279 Z-3.500 F799.980
G1 X181.900 Y236.267 Z-3.500 F799.980
G1 X181.900 Y236.674 Z-3.500 F799.980
G1 X181.226 Y237.064 Z-3.500 F799.980
G1 X176.980 Y232.818 Z-3.500 F799.980
G1 X176.100 Y233.326 Z-3.500 F799.980
G1 X176.100 Y233.409 Z-3.500 F799.980
G1 X180.293 Y237.602 Z-3.500 F799.980
G1 X179.361 Y238.140 Z-3.500 F799.980
G1 X176.100 Y234.880 Z-3.500 F799.980
G1 X176.100 Y236.350 Z-3.500 F799.980
G1 X176.866 Y237.117 Z-3.500 F799.980
G1 X176.100 Y236.674 Z-3.500 F799.980
G1 X176.100 Y236.350 Z-3.500 F799.980
G0 Z5.000
G0 Z5.000
G0 X176.100 Y236.350
G0 Y181.350
G0 Y181.350 Z3.000
G1 X176.100 Y181.350 Z-0.600 F100.000
G1 X176.100 Y181.674 Z-0.600 F799.980
G1 X176.866 Y182.117 Z-0.600 F799.980
G1 X176.100 Y181.350 Z-0.600 F799.980
G1 X176.100 Y179.880 Z-0.600 F799.980
G1 X179.361 Y183.140 Z-0.600 F799.980
G1 X180.293 Y182.602 Z-0.600 F799.980
G1 X176.100 Y178.409 Z-0.600 F799.980
G1 X176.100 Y178.326 Z-0.600 F799.980
G1 X176.980 Y177.818 Z-0.600 F799.980
G1 X181.226 Y182.064 Z-0.600 F799.980
G1 X181.900 Y181.674 Z-0.600 F799.980
G1 X181.900 Y181.267 Z-0.600 F799.980
G1 X177.912 Y177.279 Z-0.600 F799.980
G1 X178.845 Y176.741 Z-0.600 F799.980
G1 X181.900 Y179.796 Z-0.600 F799.980
G1 X181.900 Y178.326 Z-0.600 F799.980
G1 X181.900 Y178.326 Z-1.200 F100.000
G1 X181.900 Y179.796 Z-1.200 F799.980
G1 X178.845 Y176.741 Z-1.200 F799.980
G1 X177.912 Y177.279 Z-1.200 F799.980
G1 X181.900 Y181.267 Z-1.200 F799.980
G1 X181.900 Y181.674 Z-1.200 F799.980
G1 X181.226 Y182.064 Z-1.200 F799.980
G1 X176.980 Y177.818 Z-1.200 F799.980
G1 X176.100 Y178.326 Z-1.200 F799.980
G1 X176.100 Y178.409 Z-1.200 F799.980
G1 X180.293 Y182.602 Z-1.200 F799.980
G1 X179.361 Y183.140 Z-1.200 F799.980
G1 X176.100 Y179.880 Z-1.200 F799.980
G1 X176.100 Y181.350 Z-1.200 F799.980
G1 X176.866 Y182.117 Z-1.200 F799.980
G1 X176.100 Y181.674 Z-1.200 F799.980
G1 X176.100 Y181.350 Z-1.200 F799.980
G1 X176.100 Y181.350 Z-1.800 F100.000
G1 X176.100 Y181.674 Z-1.800 F799.980
G1 X176.866 Y182.117 Z-1.800 F799.980
G1 X176.100 Y181.350 Z-1.800 F799.980
G1 X176.100 Y179.880 Z-1.800 F799.980
G1 X179.361 Y183.140 Z-1.800 F799.980
G1 X180.293 Y182.602 Z-1.800 F799.980
G1 X176.100 Y178.409 Z-1.800 F799.980
G1 X176.100 Y178.326 Z-1.800 F799.980
G1 X176.980 Y177.818 Z-1.800 F799.980
G1 X181.226 Y182.064 Z-1.800 F799.980
G1 X181.900 Y181.674 Z-1.800 F799.980
G1 X181.900 Y181.267 Z-1.800 F799.980
G1 X177.912 Y177.279 Z-1.800 F799.980
G1 X178.845 Y176.741 Z-1.800 F799.980
G1 X181.900 Y179.796 Z-1.800 F799.980
G1 X181.900 Y178.326 Z-1.800 F799.980
G1 X181.900 Y178.326 Z-2.400 F100.000
G1 X181.900 Y179.796 Z-2.400 F799.980
G1 X178.845 Y176.741 Z-2.400 F799.980
G1 X177.912 Y177.279 Z-2.400 F799.980
G1 X181.900 Y181.267 Z-2.400 F799.980
G1 X181.900 Y181.674 Z-2.400 F799.980
G1 X181.226 Y182.064 Z-2.400 F799.980
G1 X176.980 Y177.818 Z-2.400 F799.980
G1 X176.100 Y178.326 Z-2.400 F799.980
G1 X176.100 Y178.409 Z-2.400 F799.980
G1 X180.293 Y182.602 Z-2.400 F799.980
G1 X179.361 Y183.140 Z-2.400 F799.980
G1 X176.100 Y179.880 Z-2.400 F799.980
G1 X176.100 Y181.350 Z-2.400 F799.980
G1 X176.866 Y182.117 Z-2.400 F799.980
G1 X176.100 Y181.674 Z-2.400 F799.980
G1 X176.100 Y181.350 Z-2.400 F799.980
G1 X176.100 Y181.350 Z-3.000 F100.000
G1 X176.100 Y181.674 Z-3.000 F799.980
G1 X176.866 Y182.117 Z-3.000 F799.980
G1 X176.100 Y181.350 Z-3.000 F799.980
G1 X176.100 Y179.880 Z-3.000 F799.980
G1 X179.361 Y183.140 Z-3.000 F799.980
G1 X180.293 Y182.602 Z-3.000 F799.980
G1 X176.100 Y178.409 Z-3.000 F799.980
G1 X176.100 Y178.326 Z-3.000 F799.980
G1 X176.980 Y177.818 Z-3.000 F799.980
G1 X181.226 Y182.064 Z-3.000 F799.980
G1 X181.900 Y181.674 Z-3.000 F799.980
G1 X181.900 Y181.267 Z-3.000 F799.980
G1 X177.912 Y177.279 Z-3.000 F799.980
G1 X178.845 Y176.741 Z-3.000 F799.980
G1 X181.900 Y179.796 Z-3.000 F799.980
G1 X181.900 Y178.326 Z-3.000 F799.980
G1 X181.900 Y178.326 Z-3.500 F100.000
G1 X181.900 Y179.796 Z-3.500 F799.980
G1 X178.845 Y176.741 Z-3.500 F799.980
G1 X177.912 Y177.279 Z-3.500 F799.980
G1 X181.900 Y181.267 Z-3.500 F799.980
G1 X181.900 Y181.674 Z-3.500 F799.980
G1 X181.226 Y182.064 Z-3.500 F799.980
G1 X176.980 Y177.818 Z-3.500 F799.980
G1 X176.100 Y178.326 Z-3.500 F799.980
G1 X176.100 Y178.409 Z-3.500 F799.980
G1 X180.293 Y182.602 Z-3.500 F799.980
G1 X179.361 Y183.140 Z-3.500 F799.980
G1 X176.100 Y179.880 Z-3.500 F799.980
G1 X176.100 Y181.350 Z-3.500 F799.980
G1 X176.866 Y182.117 Z-3.500 F799.980
G1 X176.100 Y181.674 Z-3.500 F799.980
G1 X176.100 Y181.350 Z-3.500 F799.980
G0 Z5.000
G0 Z5.000
G0 X176.100 Y181.350
G0 Y126.350
G0 Y126.350 Z3.000
G1 X176.100 Y126.350 Z-0.600 F100.000
G1 X176.100 Y126.674 Z-0.600 F799.980
G1 X176.866 Y127.117 Z-0.600 F799.980
G1 X176.100 Y126.350 Z-0.600 F799.980
G1 X176.100 Y124.880 Z-0.600 F799.980
G1 X179.361 Y128.140 Z-0.600 F799.980
G1 X180.293 Y127.602 Z-0.600 F799.980
G1 X176.100 Y123.409 Z-0.600 F799.980
G1 X176.100 Y123.326 Z-0.600 F799.980
G1 X176.980 Y122.818 Z-0.600 F799.980
G1 X181.226 Y127.064 Z-0.600 F799.980
G1 X181.900 Y126.674 Z-0.600 F799.980
G1 X181.900 Y126.267 Z-0.600 F799.980
G1 X177.912 Y122.279 Z-0.600 F799.980
G1 X178.845 Y121.741 Z-0.600 F799.980
G1 X181.900 Y124.796 Z-0.600 F799.980
G1 X181.900 Y123.326 Z-0.600 F799.980
G1 X181.900 Y123.326 Z-1.200 F100.000
G1 X181.900 Y124.796 Z-1.200 F799.980
G1 X178.845 Y121.741 Z-1.200 F799.980
G1 X177.912 Y122.279 Z-1.200 F799.980
G1 X181.900 Y126.267 Z-1.200 F799.980
G1 X181.900 Y126.674 Z-1.200 F799.980
G1 X181.226 Y127.064 Z-1.200 F799.980
G1 X176.980 Y122.818 Z-1.200 F799.980
G1 X176.100 Y123.326 Z-1.200 F799.980
G1 X176.100 Y123.409 Z-1.200 F799.980
G1 X180.293 Y127.602 Z-1.200 F799.980
G1 X179.361 Y128.140 Z-1.200 F799.980
G1 X176.100 Y124.880 Z-1.200 F799.980
G1 X176.100 Y126.350 Z-1.200 F799.980
G1 X176.866 Y127.117 Z-1.200 F799.980
G1 X176.100 Y126.674 Z-1.200 F799.980
G1 X176.100 Y126.350 Z-1.200 F799.980
G1 X176.100 Y126.350 Z-1.800 F100.000
G1 X176.100 Y126.674 Z-1.800 F799.980
G1 X176.866 Y127.117 Z-1.800 F799.980
G1 X176.100 Y126.350 Z-1.800 F799.980
G1 X176.100 Y124.880 Z-1.800 F799.980
G1 X179.361 Y128.140 Z-1.800 F799.980
G1 X180.293 Y127.602 Z-1.800 F799.980
G1 X176.100 Y123.409 Z-1.800 F799.980
G1 X176.100 Y123.326 Z-1.800 F799.980
G1 X176.980 Y122.818 Z-1.800 F799.980
G1 X181.226 Y127.064 Z-1.800 F799.980
G1 X181.900 Y126.674 Z-1.800 F799.980
G1 X181.900 Y126.267 Z-1.800 F799.980
G1 X177.912 Y122.279 Z-1.800 F799.980
G1 X178.845 Y121.741 Z-1.800 F799.980
G1 X181.900 Y124.796 Z-1.800 F799.980
G1 X181.900 Y123.326 Z-1.800 F799.980
G1 X181.900 Y123.326 Z-2.400 F100.000
G1 X181.900 Y124.796 Z-2.400 F799.980
G1 X178.845 Y121.741 Z-2.400 F799.980
G1 X177.912 Y122.279 Z-2.400 F799.980
G1 X181.900 Y126.267 Z-2.400 F799.980
G1 X181.900 Y126.674 Z-2.400 F799.980
G1 X181.226 Y127.064 Z-2.400 F799.980
G1 X176.980 Y122.818 Z-2.400 F799.980
G1 X176.100 Y123.326 Z-2.400 F799.980
G1 X176.100 Y123.409 Z-2.400 F799.980
G1 X180.293 Y127.602 Z-2.400 F799.980
G1 X179.361 Y128.140 Z-2.400 F799.980
G1 X176.100 Y124.880 Z-2.400 F799.980
G1 X176.100 Y126.350 Z-2.400 F799.980
G1 X176.866 Y127.117 Z-2.400 F799.980
G1 X176.100 Y126.674 Z-2.400 F799.980
G1 X176.100 Y126.350 Z-2.400 F799.980
G1 X176.100 Y126.350 Z-3.000 F100.000
G1 X176.100 Y126.674 Z-3.000 F799.980
G1 X176.866 Y127.117 Z-3.000 F799.980
G1 X176.100 Y126.350 Z-3.000 F799.980
G1 X176.100 Y124.880 Z-3.000 F799.980
G1 X179.361 Y128.140 Z-3.000 F799.980
G1 X180.293 Y127.602 Z-3.000 F799.980
G1 X176.100 Y123.409 Z-3.000 F799.980
G1 X176.100 Y123.326 Z-3.000 F799.980
G1 X176.980 Y122.818 Z-3.000 F799.980
G1 X181.226 Y127.064 Z-3.000 F799.980
G1 X181.900 Y126.674 Z-3.000 F799.980
G1 X181.900 Y126.267 Z-3.000 F799.980
G1 X177.912 Y122.279 Z-3.000 F799.980
G1 X178.845 Y121.741 Z-3.000 F799.980
G1 X181.900 Y124.796 Z-3.000 F799.980
G1 X181.900 Y123.326 Z-3.000 F799.980
G1 X181.900 Y123.326 Z-3.500 F100.000
G1 X181.900 Y124.796 Z-3.500 F799.980
G1 X178.845 Y121.741 Z-3.500 F799.980
G1 X177.912 Y122.279 Z-3.500 F799.980
G1 X181.900 Y126.267 Z-3.500 F799.980
G1 X181.900 Y126.674 Z-3.500 F799.980
G1 X181.226 Y127.064 Z-3.500 F799.980
G1 X176.980 Y122.818 Z-3.500 F799.980
G1 X176.100 Y123.326 Z-3.500 F799.980
G1 X176.100 Y123.409 Z-3.500 F799.980
G1 X180.293 Y127.602 Z-3.500 F799.980
G1 X179.361 Y128.140 Z-3.500 F799.980
G1 X176.100 Y124.880 Z-3.500 F799.980
G1 X176.100 Y126.350 Z-3.500 F799.980
G1 X176.866 Y127.117 Z-3.500 F799.980
G1 X176.100 Y126.674 Z-3.500 F799.980
G1 X176.100 Y126.350 Z-3.500 F799.980
G0 Z5.000
G0 Z5.000
G0 X176.100 Y126.350
G0 Y71.350
G0 Y71.350 Z3.000
G1 X176.100 Y71.350 Z-0.600 F100.000
G1 X176.100 Y71.674 Z-0.600 F799.980
G1 X176.866 Y72.117 Z-0.600 F799.980
G1 X176.100 Y71.350 Z-0.600 F799.980
G1 X176.100 Y69.880 Z-0.600 F799.980
G1 X179.361 Y73.140 Z-0.600 F799.980
G1 X180.293 Y72.602 Z-0.600 F799.980
G1 X176.100 Y68.409 Z-0.600 F799.980
G1 X176.100 Y68.326 Z-0.600 F799.980
G1 X176.980 Y67.818 Z-0.600 F799.980
G1 X181.226 Y72.064 Z-0.600 F799.980
G1 X181.900 Y71.674 Z-0.600 F799.980
G1 X181.900 Y71.267 Z-0.600 F799.980
G1 X177.912 Y67.279 Z-0.600 F799.980
G1 X178.845 Y66.741 Z-0.600 F799.980
G1 X181.900 Y69.796 Z-0.600 F799.980
G1 X181.900 Y68.326 Z-0.600 F799.980
G1 X181.900 Y68.326 Z-1.200 F100.000
G1 X181.900 Y69.796 Z-1.200 F799.980
G1 X178.845 Y66.741 Z-1.200 F799.980
G1 X177.912 Y67.279 Z-1.200 F799.980
G1 X181.900 Y71.267 Z-1.200 F799.980
G1 X181.900 Y71.674 Z-1.200 F799.980
G1 X181.226 Y72.064 Z-1.200 F799.980
G1 X176.980 Y67.818 Z-1.200 F799.980
G1 X176.100 Y68.326 Z-1.200 F799.980
G1 X176.100 Y68.409 Z-1.200 F799.980
G1 X180.293 Y72.602 Z-1.200 F799.980
G1 X179.361 Y73.140 Z-1.200 F799.980
G1 X176.100 Y69.880 Z-1.200 F799.980
G1 X176.100 Y71.350 Z-1.200 F799.980
G1 X176.866 Y72.117 Z-1.200 F799.980
G1 X176.100 Y71.674 Z-1.200 F799.980
G1 X176.100 Y71.350 Z-1.200 F799.980
G1 X176.100 Y71.350 Z-1.800 F100.000
G1 X176.100 Y71.674 Z-1.800 F799.980
G1 X176.866 Y72.117 Z-1.800 F799.980
G1 X176.100 Y71.350 Z-1.800 F799.980
G1 X176.100 Y69.880 Z-1.800 F799.980
G1 X179.361 Y73.140 Z-1.800 F799.980
G1 X180.293 Y72.602 Z-1.800 F799.980
G1 X176.100 Y68.409 Z-1.800 F799.980
G1 X176.100 Y68.326 Z-1.800 F799.980
G1 X176.980 Y67.818 Z-1.800 F799.980
G1 X181.226 Y72.064 Z-1.800 F799.980
G1 X181.900 Y71.674 Z-1.800 F799.980
G1 X181.900 Y71.267 Z-1.800 F799.980
G1 X177.912 Y67.279 Z-1.800 F799.980
G1 X178.845 Y66.741 Z-1.800 F799.980
G1 X181.900 Y69.796 Z-1.800 F799.980
G1 X181.900 Y68.326 Z-1.800 F799.980
G1 X181.900 Y68.326 Z-2.400 F100.000
G1 X181.900 Y69.796 Z-2.400 F799.980
G1 X178.845 Y66.741 Z-2.400 F799.980
G1 X177.912 Y67.279 Z-2.400 F799.980
G1 X181.900 Y71.267 Z-2.400 F799.980
G1 X181.900 Y71.674 Z-2.400 F799.980
G1 X181.226 Y72.064 Z-2.400 F799.980
G1 X176.980 Y67.818 Z-2.400 F799.980
G1 X176.100 Y68.326 Z-2.400 F799.980
G1 X176.100 Y68.409 Z-2.400 F799.980
G1 X180.293 Y72.602 Z-2.400 F799.980
G1 X179.361 Y73.140 Z-2.400 F799.980
G1 X176.100 Y69.880 Z-2.400 F799.980
G1 X176.100 Y71.350 Z-2.400 F799.980
G1 X176.866 Y72.117 Z-2.400 F799.980
G1 X176.100 Y71.674 Z-2.400 F799.980
G1 X176.100 Y71.350 Z-2.400 F799.980
G1 X176.100 Y71.350 Z-3.000 F100.000
G1 X176.100 Y71.674 Z-3.000 F799.980
G1 X176.866 Y72.117 Z-3.000 F799.980
G1 X176.100 Y71.350 Z-3.000 F799.980
G1 X176.100 Y69.880 Z-3.000 F799.980
G1 X179.361 Y73.140 Z-3.000 F799.980
G1 X180.293 Y72.602 Z-3.000 F799.980
G1 X176.100 Y68.409 Z-3.000 F799.980
G1 X176.100 Y68.326 Z-3.000 F799.980
G1 X176.980 Y67.818 Z-3.000 F799.980
G1 X181.226 Y72.064 Z-3.000 F799.980
G1 X181.900 Y71.674 Z-3.000 F799.980
G1 X181.900 Y71.267 Z-3.000 F799.980
G1 X177.912 Y67.279 Z-3.000 F799.980
G1 X178.845 Y66.741 Z-3.000 F799.980
G1 X181.900 Y69.796 Z-3.000 F799.980
G1 X181.900 Y68.326 Z-3.000 F799.980
G1 X181.900 Y68.326 Z-3.500 F100.000
G1 X181.900 Y69.796 Z-3.500 F799.980
G1 X178.845 Y66.741 Z-3.500 F799.980
G1 X177.912 Y67.279 Z-3.500 F799.980
G1 X181.900 Y71.267 Z-3.500 F799.980
G1 X181.900 Y71.674 Z-3.500 F799.980
G1 X181.226 Y72.064 Z-3.500 F799.980
G1 X176.980 Y67.818 Z-3.500 F799.980
G1 X176.100 Y68.326 Z-3.500 F799.980
G1 X176.100 Y68.409 Z-3.500 F799.980
G1 X180.293 Y72.602 Z-3.500 F799.980
G1 X179.361 Y73.140 Z-3.500 F799.980
G1 X176.100 Y69.880 Z-3.500 F799.980
G1 X176.100 Y71.350 Z-3.500 F799.980
G1 X176.866 Y72.117 Z-3.500 F799.980
G1 X176.100 Y71.674 Z-3.500 F799.980
G1 X176.100 Y71.350 Z-3.500 F799.980
G0 Z5.000
G0 Z5.000
G0 X176.100 Y71.350
G0 X181.900 Y16.674
G0 X181.900 Y16.674 Z3.000
G1 X181.900 Y16.674 Z-0.600 F100.000
G1 X179.000 Y18.349 Z-0.600 F799.980
G1 X178.845 Y18.259 Z-0.600 F799.980
G1 X181.900 Y15.204 Z-0.600 F799.980
G1 X181.900 Y13.733 Z-0.600 F799.980
G1 X177.912 Y17.721 Z-0.600 F799.980
G1 X176.980 Y17.182 Z-0.600 F799.980
G1 X181.226 Y12.936 Z-0.600 F799.980
G1 X180.293 Y12.398 Z-0.600 F799.980
G1 X176.100 Y16.591 Z-0.600 F799.980
G1 X176.100 Y15.120 Z-0.600 F799.980
G1 X179.361 Y11.860 Z-0.600 F799.980
G1 X179.000 Y11.651 Z-0.600 F799.980
G1 X176.866 Y12.883 Z-0.600 F799.980
G1 X176.100 Y13.650 Z-0.600 F799.980
G1 X176.100 Y13.326 Z-0.600 F799.980
G1 X176.866 Y12.883 Z-0.600 F799.980
G1 X176.866 Y12.883 Z-1.200 F100.000
G1 X176.100 Y13.326 Z-1.200 F799.980
G1 X176.100 Y13.650 Z-1.200 F799.980
G1 X176.866 Y12.883 Z-1.200 F799.980
G1 X179.000 Y11.651 Z-1.200 F799.980
G1 X179.361 Y11.860 Z-1.200 F799.980
G1 X176.100 Y15.120 Z-1.200 F799.980
G1 X176.100 Y16.591 Z-1.200 F799.980
G1 X180.293 Y12.398 Z-1.200 F799.980
G1 X181.226 Y12.936 Z-1.200 F799.980
G1 X176.980 Y17.182 Z-1.200 F799.980
G1 X177.912 Y17.721 Z-1.200 F799.980
G1 X181.900 Y13.733 Z-1.200 F799.980
G1 X181.900 Y15.204 Z-1.200 F799.980
G1 X178.845 Y18.259 Z-1.200 F799.980
G1 X179.000 Y18.349 Z-1.200 F799.980
G1 X181.900 Y16.674 Z-1.200 F799.980
G1 X181.900 Y16.674 Z-1.800 F100.000
G1 X179.000 Y18.349 Z-1.800 F799.980
G1 X178.845 Y18.259 Z-1.800 F799.980
G1 X181.900 Y15.204 Z-1.800 F799.980
G1 X181.900 Y13.733 Z-1.800 F799.980
G1 X177.912 Y17.721 Z-1.800 F799.980
G1 X176.980 Y17.182 Z-1.800 F799.980
G1 X181.226 Y12.936 Z-1.800 F799.980
G1 X180.293 Y12.398 Z-1.800 F799.980
G1 X176.100 Y16.591 Z-1.800 F799.980
G1 X176.100 Y15.120 Z-1.800 F799.980
G1 X179.361 Y11.860 Z-1.800 F799.980
G1 X179.000 Y11.651 Z-1.800 F799.980
G1 X176.866 Y12.883 Z-1.800 F799.980
G1 X176.100 Y13.650 Z-1.800 F799.980
G1 X176.100 Y13.326 Z-1.800 F799.980
G1 X176.866 Y12.883 Z-1.800 F799.980
G1 X176.866 Y12.883 Z-2.400 F100.000
G1 X176.100 Y13.326 Z-2.400 F799.980
G1 X176.100 Y13.650 Z-2.400 F799.980
G1 X176.866 Y12.883 Z-2.400 F799.980
G1 X179.000 Y11.651 Z-2.400 F799.980
G1 X179.361 Y11.860 Z-2.400 F799.980
G1 X176.100 Y15.120 Z-2.400 F799.980
G1 X176.100 Y16.591 Z-2.400 F799.980
G1 X180.293 Y12.398 Z-2.400 F799.980
G1 X181.226 Y12.936 Z-2.400 F799.980
G1 X176.980 Y17.182 Z-2.400 F799.980
G1 X177.912 Y17.721 Z-2.400 F799.980
G1 X181.900 Y13.733 Z-2.400 F799.980
G1 X181.900 Y15.204 Z-2.400 F799.980
G1 X178.845 Y18.259 Z-2.400 F799.980
G1 X179.000 Y18.349 Z-2.400 F799.980
G1 X181.900 Y16.674 Z-2.400 F799.980
G1 X181.900 Y16.674 Z-3.000 F100.000
G1 X179.000 Y18.349 Z-3.000 F799.980
G1 X178.845 Y18.259 Z-3.000 F799.980
G1 X181.900 Y15.204 Z-3.000 F799.980
G1 X181.900 Y13.733 Z-3.000 F799.980
G1 X177.912 Y17.721 Z-3.000 F799.980
G1 X176.980 Y17.182 Z-3.000 F799.980
G1 X181.226 Y12.936 Z-3.000 F799.980
G1 X180.293 Y12.398 Z-3.000 F799.980
G1 X176.100 Y16.591 Z-3.000 F799.980
G1 X176.100 Y15.120 Z-3.000 F799.980
G1 X179.361 Y11.860 Z-3.000 F799.980
G1 X179.000 Y11.651 Z-3.000 F799.980
G1 X176.866 Y12.883 Z-3.000 F799.980
G1 X176.100 Y13.650 Z-3.000 F799.980
G1 X176.100 Y13.326 Z-3.000 F799.980
G1 X176.866 Y12.883 Z-3.000 F799.980
G1 X176.866 Y12.883 Z-3.500 F100.000
G1 X176.100 Y13.326 Z-3.500 F799.980
G1 X176.100 Y13.650 Z-3.500 F799.980
G1 X176.866 Y12.883 Z-3.500 F799.980
G1 X179.000 Y11.651 Z-3.500 F799.980
G1 X179.361 Y11.860 Z-3.500 F799.980
G1 X176.100 Y15.120 Z-3.500 F799.980
G1 X176.100 Y16.591 Z-3.500 F799.980
G1 X180.293 Y12.398 Z-3.500 F799.980
G1 X181.226 Y12.936 Z-3.500 F799.980
G1 X176.980 Y17.182 Z-3.500 F799.980
G1 X177.912 Y17.721 Z-3.500 F799.980
G1 X181.900 Y13.733 Z-3.500 F799.980
G1 X181.900 Y15.204 Z-3.500 F799.980
G1 X178.845 Y18.259 Z-3.500 F799.980
G1 X179.000 Y18.349 Z-3.500 F799.980
G1 X181.900 Y16.674 Z-3.500 F799.980
G0 Z5.000
G0 Z5.000
(Finish operation: Pocket_Shape)
(Begin operation: Helix)
(Path: Helix)
(Helix)
(helix cut operation)
G0 Z5.000
G0 Z5.000
G0 X15.000 Y15.000 Z5.000
G0 X15.000 Y15.000 Z-2.600
G0 X15.650 Y15.000
G1 Z-2.600 F100.000
G2 X14.350 Y15.000 Z-2.875 I-0.650 J0.000 F799.980
G2 X15.650 Y15.000 Z-3.150 I0.650 J0.000 F799.980
G2 X14.350 Y15.000 Z-3.425 I-0.650 J0.000 F799.980
G2 X15.650 Y15.000 Z-3.700 I0.650 J0.000 F799.980
G2 X14.350 Y15.000 Z-3.975 I-0.650 J0.000 F799.980
G2 X15.650 Y15.000 Z-4.250 I0.650 J0.000 F799.980
G2 X14.350 Y15.000 Z-4.525 I-0.650 J0.000 F799.980
G2 X15.650 Y15.000 Z-4.800 I0.650 J0.000 F799.980
G2 X14.350 Y15.000 Z-5.075 I-0.650 J0.000 F799.980
G2 X15.650 Y15.000 Z-5.350 I0.650 J0.000 F799.980
G2 X14.350 Y15.000 Z-5.625 I-0.650 J0.000 F799.980
G2 X15.650 Y15.000 Z-5.900 I0.650 J0.000 F799.980
G2 X14.350 Y15.000 Z-6.175 I-0.650 J0.000 F799.980
G2 X15.650 Y15.000 Z-6.450 I0.650 J0.000 F799.980
G2 X14.350 Y15.000 Z-6.725 I-0.650 J0.000 F799.980
G2 X15.650 Y15.000 Z-7.000 I0.650 J0.000 F799.980
G2 X14.350 Y15.000 Z-7.000 I-0.650 J0.000 F799.980
G2 X15.650 Y15.000 Z-7.000 I0.650 J0.000 F799.980
G0 X15.000 Y15.000 Z-7.000
G0 Z-2.600
G0 X16.600 Y15.000
G1 Z-2.600 F100.000
G2 X13.400 Y15.000 Z-2.875 I-1.600 J0.000 F799.980
G2 X16.600 Y15.000 Z-3.150 I1.600 J0.000 F799.980
G2 X13.400 Y15.000 Z-3.425 I-1.600 J0.000 F799.980
G2 X16.600 Y15.000 Z-3.700 I1.600 J0.000 F799.980
G2 X13.400 Y15.000 Z-3.975 I-1.600 J0.000 F799.980
G2 X16.600 Y15.000 Z-4.250 I1.600 J0.000 F799.980
G2 X13.400 Y15.000 Z-4.525 I-1.600 J0.000 F799.980
G2 X16.600 Y15.000 Z-4.800 I1.600 J0.000 F799.980
G2 X13.400 Y15.000 Z-5.075 I-1.600 J0.000 F799.980
G2 X16.600 Y15.000 Z-5.350 I1.600 J0.000 F799.980
G2 X13.400 Y15.000 Z-5.625 I-1.600 J0.000 F799.980
G2 X16.600 Y15.000 Z-5.900 I1.600 J0.000 F799.980
G2 X13.400 Y15.000 Z-6.175 I-1.600 J0.000 F799.980
G2 X16.600 Y15.000 Z-6.450 I1.600 J0.000 F799.980
G2 X13.400 Y15.000 Z-6.725 I-1.600 J0.000 F799.980
G2 X16.600 Y15.000 Z-7.000 I1.600 J0.000 F799.980
G2 X13.400 Y15.000 Z-7.000 I-1.600 J0.000 F799.980
G2 X16.600 Y15.000 Z-7.000 I1.600 J0.000 F799.980
G0 X15.000 Y15.000 Z-7.000
G0 Z-2.600
G0 Z5.000
G0 X15.000 Y70.000 Z5.000
G0 X15.000 Y70.000 Z-2.600
G0 X15.650 Y70.000
G1 Z-2.600 F100.000
G2 X14.350 Y70.000 Z-2.875 I-0.650 J0.000 F799.980
G2 X15.650 Y70.000 Z-3.150 I0.650 J0.000 F799.980
G2 X14.350 Y70.000 Z-3.425 I-0.650 J0.000 F799.980
G2 X15.650 Y70.000 Z-3.700 I0.650 J0.000 F799.980
G2 X14.350 Y70.000 Z-3.975 I-0.650 J0.000 F799.980
G2 X15.650 Y70.000 Z-4.250 I0.650 J0.000 F799.980
G2 X14.350 Y70.000 Z-4.525 I-0.650 J0.000 F799.980
G2 X15.650 Y70.000 Z-4.800 I0.650 J0.000 F799.980
G2 X14.350 Y70.000 Z-5.075 I-0.650 J0.000 F799.980
G2 X15.650 Y70.000 Z-5.350 I0.650 J0.000 F799.980
G2 X14.350 Y70.000 Z-5.625 I-0.650 J0.000 F799.980
G2 X15.650 Y70.000 Z-5.900 I0.650 J0.000 F799.980
G2 X14.350 Y70.000 Z-6.175 I-0.650 J0.000 F799.980
G2 X15.650 Y70.000 Z-6.450 I0.650 J0.000 F799.980
G2 X14.350 Y70.000 Z-6.725 I-0.650 J0.000 F799.980
G2 X15.650 Y70.000 Z-7.000 I0.650 J0.000 F799.980
G2 X14.350 Y70.000 Z-7.000 I-0.650 J0.000 F799.980
G2 X15.650 Y70.000 Z-7.000 I0.650 J0.000 F799.980
G0 X15.000 Y70.000 Z-7.000
G0 Z-2.600
G0 X16.600 Y70.000
G1 Z-2.600 F100.000
G2 X13.400 Y70.000 Z-2.875 I-1.600 J0.000 F799.980
G2 X16.600 Y70.000 Z-3.150 I1.600 J0.000 F799.980
G2 X13.400 Y70.000 Z-3.425 I-1.600 J0.000 F799.980
G2 X16.600 Y70.000 Z-3.700 I1.600 J0.000 F799.980
G2 X13.400 Y70.000 Z-3.975 I-1.600 J0.000 F799.980
G2 X16.600 Y70.000 Z-4.250 I1.600 J0.000 F799.980
G2 X13.400 Y70.000 Z-4.525 I-1.600 J0.000 F799.980
G2 X16.600 Y70.000 Z-4.800 I1.600 J0.000 F799.980
G2 X13.400 Y70.000 Z-5.075 I-1.600 J0.000 F799.980
G2 X16.600 Y70.000 Z-5.350 I1.600 J0.000 F799.980
G2 X13.400 Y70.000 Z-5.625 I-1.600 J0.000 F799.980
G2 X16.600 Y70.000 Z-5.900 I1.600 J0.000 F799.980
G2 X13.400 Y70.000 Z-6.175 I-1.600 J0.000 F799.980
G2 X16.600 Y70.000 Z-6.450 I1.600 J0.000 F799.980
G2 X13.400 Y70.000 Z-6.725 I-1.600 J0.000 F799.980
G2 X16.600 Y70.000 Z-7.000 I1.600 J0.000 F799.980
G2 X13.400 Y70.000 Z-7.000 I-1.600 J0.000 F799.980
G2 X16.600 Y70.000 Z-7.000 I1.600 J0.000 F799.980
G0 X15.000 Y70.000 Z-7.000
G0 Z-2.600
G0 Z5.000
G0 X15.000 Y125.000 Z5.000
G0 X15.000 Y125.000 Z-2.600
G0 X15.650 Y125.000
G1 Z-2.600 F100.000
G2 X14.350 Y125.000 Z-2.875 I-0.650 J0.000 F799.980
G2 X15.650 Y125.000 Z-3.150 I0.650 J0.000 F799.980
G2 X14.350 Y125.000 Z-3.425 I-0.650 J0.000 F799.980
G2 X15.650 Y125.000 Z-3.700 I0.650 J0.000 F799.980
G2 X14.350 Y125.000 Z-3.975 I-0.650 J0.000 F799.980
G2 X15.650 Y125.000 Z-4.250 I0.650 J0.000 F799.980
G2 X14.350 Y125.000 Z-4.525 I-0.650 J0.000 F799.980
G2 X15.650 Y125.000 Z-4.800 I0.650 J0.000 F799.980
G2 X14.350 Y125.000 Z-5.075 I-0.650 J0.000 F799.980
G2 X15.650 Y125.000 Z-5.350 I0.650 J0.000 F799.980
G2 X14.350 Y125.000 Z-5.625 I-0.650 J0.000 F799.980
G2 X15.650 Y125.000 Z-5.900 I0.650 J0.000 F799.980
G2 X14.350 Y125.000 Z-6.175 I-0.650 J0.000 F799.980
G2 X15.650 Y125.000 Z-6.450 I0.650 J0.000 F799.980
G2 X14.350 Y125.000 Z-6.725 I-0.650 J0.000 F799.980
G2 X15.650 Y125.000 Z-7.000 I0.650 J0.000 F799.980
G2 X14.350 Y125.000 Z-7.000 I-0.650 J0.000 F799.980
G2 X15.650 Y125.000 Z-7.000 I0.650 J0.000 F799.980
G0 X15.000 Y125.000 Z-7.000
G0 Z-2.600
G0 X16.600 Y125.000
G1 Z-2.600 F100.000
G2 X13.400 Y125.000 Z-2.875 I-1.600 J0.000 F799.980
G2 X16.600 Y125.000 Z-3.150 I1.600 J0.000 F799.980
G2 X13.400 Y125.000 Z-3.425 I-1.600 J0.000 F799.980
G2 X16.600 Y125.000 Z-3.700 I1.600 J0.000 F799.980
G2 X13.400 Y125.000 Z-3.975 I-1.600 J0.000 F799.980
G2 X16.600 Y125.000 Z-4.250 I1.600 J0.000 F799.980
G2 X13.400 Y125.000 Z-4.525 I-1.600 J0.000 F799.980
G2 X16.600 Y125.000 Z-4.800 I1.600 J0.000 F799.980
G2 X13.400 Y125.000 Z-5.075 I-1.600 J0.000 F799.980
G2 X16.600 Y125.000 Z-5.350 I1.600 J0.000 F799.980
G2 X13.400 Y125.000 Z-5.625 I-1.600 J0.000 F799.980
G2 X16.600 Y125.000 Z-5.900 I1.600 J0.000 F799.980
G2 X13.400 Y125.000 Z-6.175 I-1.600 J0.000 F799.980
G2 X16.600 Y125.000 Z-6.450 I1.600 J0.000 F799.980
G2 X13.400 Y125.000 Z-6.725 I-1.600 J0.000 F799.980
G2 X16.600 Y125.000 Z-7.000 I1.600 J0.000 F799.980
G2 X13.400 Y125.000 Z-7.000 I-1.600 J0.000 F799.980
G2 X16.600 Y125.000 Z-7.000 I1.600 J0.000 F799.980
G0 X15.000 Y125.000 Z-7.000
G0 Z-2.600
G0 Z5.000
G0 X15.000 Y180.000 Z5.000
G0 X15.000 Y180.000 Z-2.600
G0 X15.650 Y180.000
G1 Z-2.600 F100.000
G2 X14.350 Y180.000 Z-2.875 I-0.650 J0.000 F799.980
G2 X15.650 Y180.000 Z-3.150 I0.650 J0.000 F799.980
G2 X14.350 Y180.000 Z-3.425 I-0.650 J0.000 F799.980
G2 X15.650 Y180.000 Z-3.700 I0.650 J0.000 F799.980
G2 X14.350 Y180.000 Z-3.975 I-0.650 J0.000 F799.980
G2 X15.650 Y180.000 Z-4.250 I0.650 J0.000 F799.980
G2 X14.350 Y180.000 Z-4.525 I-0.650 J0.000 F799.980
G2 X15.650 Y180.000 Z-4.800 I0.650 J0.000 F799.980
G2 X14.350 Y180.000 Z-5.075 I-0.650 J0.000 F799.980
G2 X15.650 Y180.000 Z-5.350 I0.650 J0.000 F799.980
G2 X14.350 Y180.000 Z-5.625 I-0.650 J0.000 F799.980
G2 X15.650 Y180.000 Z-5.900 I0.650 J0.000 F799.980
G2 X14.350 Y180.000 Z-6.175 I-0.650 J0.000 F799.980
G2 X15.650 Y180.000 Z-6.450 I0.650 J0.000 F799.980
G2 X14.350 Y180.000 Z-6.725 I-0.650 J0.000 F799.980
G2 X15.650 Y180.000 Z-7.000 I0.650 J0.000 F799.980
G2 X14.350 Y180.000 Z-7.000 I-0.650 J0.000 F799.980
G2 X15.650 Y180.000 Z-7.000 I0.650 J0.000 F799.980
G0 X15.000 Y180.000 Z-7.000
G0 Z-2.600
G0 X16.600 Y180.000
G1 Z-2.600 F100.000
G2 X13.400 Y180.000 Z-2.875 I-1.600 J0.000 F799.980
G2 X16.600 Y180.000 Z-3.150 I1.600 J0.000 F799.980
G2 X13.400 Y180.000 Z-3.425 I-1.600 J0.000 F799.980
G2 X16.600 Y180.000 Z-3.700 I1.600 J0.000 F799.980
G2 X13.400 Y180.000 Z-3.975 I-1.600 J0.000 F799.980
G2 X16.600 Y180.000 Z-4.250 I1.600 J0.000 F799.980
G2 X13.400 Y180.000 Z-4.525 I-1.600 J0.000 F799.980
G2 X16.600 Y180.000 Z-4.800 I1.600 J0.000 F799.980
G2 X13.400 Y180.000 Z-5.075 I-1.600 J0.000 F799.980
G2 X16.600 Y180.000 Z-5.350 I1.600 J0.000 F799.980
G2 X13.400 Y180.000 Z-5.625 I-1.600 J0.000 F799.980
G2 X16.600 Y180.000 Z-5.900 I1.600 J0.000 F799.980
G2 X13.400 Y180.000 Z-6.175 I-1.600 J0.000 F799.980
G2 X16.600 Y180.000 Z-6.450 I1.600 J0.000 F799.980
G2 X13.400 Y180.000 Z-6.725 I-1.600 J0.000 F799.980
G2 X16.600 Y180.000 Z-7.000 I1.600 J0.000 F799.980
G2 X13.400 Y180.000 Z-7.000 I-1.600 J0.000 F799.980
G2 X16.600 Y180.000 Z-7.000 I1.600 J0.000 F799.980
G0 X15.000 Y180.000 Z-7.000
G0 Z-2.600
G0 Z5.000
G0 X15.000 Y235.000 Z5.000
G0 X15.000 Y235.000 Z-2.600
G0 X15.650 Y235.000
G1 Z-2.600 F100.000
G2 X14.350 Y235.000 Z-2.875 I-0.650 J0.000 F799.980
G2 X15.650 Y235.000 Z-3.150 I0.650 J0.000 F799.980
G2 X14.350 Y235.000 Z-3.425 I-0.650 J0.000 F799.980
G2 X15.650 Y235.000 Z-3.700 I0.650 J0.000 F799.980
G2 X14.350 Y235.000 Z-3.975 I-0.650 J0.000 F799.980
G2 X15.650 Y235.000 Z-4.250 I0.650 J0.000 F799.980
G2 X14.350 Y235.000 Z-4.525 I-0.650 J0.000 F799.980
G2 X15.650 Y235.000 Z-4.800 I0.650 J0.000 F799.980
G2 X14.350 Y235.000 Z-5.075 I-0.650 J0.000 F799.980
G2 X15.650 Y235.000 Z-5.350 I0.650 J0.000 F799.980
G2 X14.350 Y235.000 Z-5.625 I-0.650 J0.000 F799.980
G2 X15.650 Y235.000 Z-5.900 I0.650 J0.000 F799.980
G2 X14.350 Y235.000 Z-6.175 I-0.650 J0.000 F799.980
G2 X15.650 Y235.000 Z-6.450 I0.650 J0.000 F799.980
G2 X14.350 Y235.000 Z-6.725 I-0.650 J0.000 F799.980
G2 X15.650 Y235.000 Z-7.000 I0.650 J0.000 F799.980
G2 X14.350 Y235.000 Z-7.000 I-0.650 J0.000 F799.980
G2 X15.650 Y235.000 Z-7.000 I0.650 J0.000 F799.980
G0 X15.000 Y235.000 Z-7.000
G0 Z-2.600
G0 X16.600 Y235.000
G1 Z-2.600 F100.000
G2 X13.400 Y235.000 Z-2.875 I-1.600 J0.000 F799.980
G2 X16.600 Y235.000 Z-3.150 I1.600 J0.000 F799.980
G2 X13.400 Y235.000 Z-3.425 I-1.600 J0.000 F799.980
G2 X16.600 Y235.000 Z-3.700 I1.600 J0.000 F799.980
G2 X13.400 Y235.000 Z-3.975 I-1.600 J0.000 F799.980
G2 X16.600 Y235.000 Z-4.250 I1.600 J0.000 F799.980
G2 X13.400 Y235.000 Z-4.525 I-1.600 J0.000 F799.980
G2 X16.600 Y235.000 Z-4.800 I1.600 J0.000 F799.980
G2 X13.400 Y235.000 Z-5.075 I-1.600 J0.000 F799.980
G2 X16.600 Y235.000 Z-5.350 I1.600 J0.000 F799.980
G2 X13.400 Y235.000 Z-5.625 I-1.600 J0.000 F799.980
G2 X16.600 Y235.000 Z-5.900 I1.600 J0.000 F799.980
G2 X13.400 Y235.000 Z-6.175 I-1.600 J0.000 F799.980
G2 X16.600 Y235.000 Z-6.450 I1.600 J0.000 F799.980
G2 X13.400 Y235.000 Z-6.725 I-1.600 J0.000 F799.980
G2 X16.600 Y235.000 Z-7.000 I1.600 J0.000 F799.980
G2 X13.400 Y235.000 Z-7.000 I-1.600 J0.000 F799.980
G2 X16.600 Y235.000 Z-7.000 I1.600 J0.000 F799.980
G0 X15.000 Y235.000 Z-7.000
G0 Z-2.600
G0 Z5.000
G0 X69.667 Y235.000 Z5.000
G0 X69.667 Y235.000 Z-2.600
G0 X70.317 Y235.000
G1 Z-2.600 F100.000
G2 X69.017 Y235.000 Z-2.875 I-0.650 J0.000 F799.980
G2 X70.317 Y235.000 Z-3.150 I0.650 J0.000 F799.980
G2 X69.017 Y235.000 Z-3.425 I-0.650 J0.000 F799.980
G2 X70.317 Y235.000 Z-3.700 I0.650 J0.000 F799.980
G2 X69.017 Y235.000 Z-3.975 I-0.650 J0.000 F799.980
G2 X70.317 Y235.000 Z-4.250 I0.650 J0.000 F799.980
G2 X69.017 Y235.000 Z-4.525 I-0.650 J0.000 F799.980
G2 X70.317 Y235.000 Z-4.800 I0.650 J0.000 F799.980
G2 X69.017 Y235.000 Z-5.075 I-0.650 J0.000 F799.980
G2 X70.317 Y235.000 Z-5.350 I0.650 J0.000 F799.980
G2 X69.017 Y235.000 Z-5.625 I-0.650 J0.000 F799.980
G2 X70.317 Y235.000 Z-5.900 I0.650 J0.000 F799.980
G2 X69.017 Y235.000 Z-6.175 I-0.650 J0.000 F799.980
G2 X70.317 Y235.000 Z-6.450 I0.650 J0.000 F799.980
G2 X69.017 Y235.000 Z-6.725 I-0.650 J0.000 F799.980
G2 X70.317 Y235.000 Z-7.000 I0.650 J0.000 F799.980
G2 X69.017 Y235.000 Z-7.000 I-0.650 J0.000 F799.980
G2 X70.317 Y235.000 Z-7.000 I0.650 J0.000 F799.980
G0 X69.667 Y235.000 Z-7.000
G0 Z-2.600
G0 X71.267 Y235.000
G1 Z-2.600 F100.000
G2 X68.067 Y235.000 Z-2.875 I-1.600 J0.000 F799.980
G2 X71.267 Y235.000 Z-3.150 I1.600 J0.000 F799.980
G2 X68.067 Y235.000 Z-3.425 I-1.600 J0.000 F799.980
G2 X71.267 Y235.000 Z-3.700 I1.600 J0.000 F799.980
G2 X68.067 Y235.000 Z-3.975 I-1.600 J0.000 F799.980
G2 X71.267 Y235.000 Z-4.250 I1.600 J0.000 F799.980
G2 X68.067 Y235.000 Z-4.525 I-1.600 J0.000 F799.980
G2 X71.267 Y235.000 Z-4.800 I1.600 J0.000 F799.980
G2 X68.067 Y235.000 Z-5.075 I-1.600 J0.000 F799.980
G2 X71.267 Y235.000 Z-5.350 I1.600 J0.000 F799.980
G2 X68.067 Y235.000 Z-5.625 I-1.600 J0.000 F799.980
G2 X71.267 Y235.000 Z-5.900 I1.600 J0.000 F799.980
G2 X68.067 Y235.000 Z-6.175 I-1.600 J0.000 F799.980
G2 X71.267 Y235.000 Z-6.450 I1.600 J0.000 F799.980
G2 X68.067 Y235.000 Z-6.725 I-1.600 J0.000 F799.980
G2 X71.267 Y235.000 Z-7.000 I1.600 J0.000 F799.980
G2 X68.067 Y235.000 Z-7.000 I-1.600 J0.000 F799.980
G2 X71.267 Y235.000 Z-7.000 I1.600 J0.000 F799.980
G0 X69.667 Y235.000 Z-7.000
G0 Z-2.600
G0 Z5.000
G0 X69.667 Y180.000 Z5.000
G0 X69.667 Y180.000 Z-2.600
G0 X70.317 Y180.000
G1 Z-2.600 F100.000
G2 X69.017 Y180.000 Z-2.875 I-0.650 J0.000 F799.980
G2 X70.317 Y180.000 Z-3.150 I0.650 J0.000 F799.980
G2 X69.017 Y180.000 Z-3.425 I-0.650 J0.000 F799.980
G2 X70.317 Y180.000 Z-3.700 I0.650 J0.000 F799.980
G2 X69.017 Y180.000 Z-3.975 I-0.650 J0.000 F799.980
G2 X70.317 Y180.000 Z-4.250 I0.650 J0.000 F799.980
G2 X69.017 Y180.000 Z-4.525 I-0.650 J0.000 F799.980
G2 X70.317 Y180.000 Z-4.800 I0.650 J0.000 F799.980
G2 X69.017 Y180.000 Z-5.075 I-0.650 J0.000 F799.980
G2 X70.317 Y180.000 Z-5.350 I0.650 J0.000 F799.980
G2 X69.017 Y180.000 Z-5.625 I-0.650 J0.000 F799.980
G2 X70.317 Y180.000 Z-5.900 I0.650 J0.000 F799.980
G2 X69.017 Y180.000 Z-6.175 I-0.650 J0.000 F799.980
G2 X70.317 Y180.000 Z-6.450 I0.650 J0.000 F799.980
G2 X69.017 Y180.000 Z-6.725 I-0.650 J0.000 F799.980
G2 X70.317 Y180.000 Z-7.000 I0.650 J0.000 F799.980
G2 X69.017 Y180.000 Z-7.000 I-0.650 J0.000 F799.980
G2 X70.317 Y180.000 Z-7.000 I0.650 J0.000 F799.980
G0 X69.667 Y180.000 Z-7.000
G0 Z-2.600
G0 X71.267 Y180.000
G1 Z-2.600 F100.000
G2 X68.067 Y180.000 Z-2.875 I-1.600 J0.000 F799.980
G2 X71.267 Y180.000 Z-3.150 I1.600 J0.000 F799.980
G2 X68.067 Y180.000 Z-3.425 I-1.600 J0.000 F799.980
G2 X71.267 Y180.000 Z-3.700 I1.600 J0.000 F799.980
G2 X68.067 Y180.000 Z-3.975 I-1.600 J0.000 F799.980
G2 X71.267 Y180.000 Z-4.250 I1.600 J0.000 F799.980
G2 X68.067 Y180.000 Z-4.525 I-1.600 J0.000 F799.980
G2 X71.267 Y180.000 Z-4.800 I1.600 J0.000 F799.980
G2 X68.067 Y180.000 Z-5.075 I-1.600 J0.000 F799.980
G2 X71.267 Y180.000 Z-5.350 I1.600 J0.000 F799.980
G2 X68.067 Y180.000 Z-5.625 I-1.600 J0.000 F799.980
G2 X71.267 Y180.000 Z-5.900 I1.600 J0.000 F799.980
G2 X68.067 Y180.000 Z-6.175 I-1.600 J0.000 F799.980
G2 X71.267 Y180.000 Z-6.450 I1.600 J0.000 F799.980
G2 X68.067 Y180.000 Z-6.725 I-1.600 J0.000 F799.980
G2 X71.267 Y180.000 Z-7.000 I1.600 J0.000 F799.980
G2 X68.067 Y180.000 Z-7.000 I-1.600 J0.000 F799.980
G2 X71.267 Y180.000 Z-7.000 I1.600 J0.000 F799.980
G0 X69.667 Y180.000 Z-7.000
G0 Z-2.600
G0 Z5.000
G0 X69.667 Y125.000 Z5.000
G0 X69.667 Y125.000 Z-2.600
G0 X70.317 Y125.000
G1 Z-2.600 F100.000
G2 X69.017 Y125.000 Z-2.875 I-0.650 J0.000 F799.980
G2 X70.317 Y125.000 Z-3.150 I0.650 J0.000 F799.980
G2 X69.017 Y125.000 Z-3.425 I-0.650 J0.000 F799.980
G2 X70.317 Y125.000 Z-3.700 I0.650 J0.000 F799.980
G2 X69.017 Y125.000 Z-3.975 I-0.650 J0.000 F799.980
G2 X70.317 Y125.000 Z-4.250 I0.650 J0.000 F799.980
G2 X69.017 Y125.000 Z-4.525 I-0.650 J0.000 F799.980
G2 X70.317 Y125.000 Z-4.800 I0.650 J0.000 F799.980
G2 X69.017 Y125.000 Z-5.075 I-0.650 J0.000 F799.980
G2 X70.317 Y125.000 Z-5.350 I0.650 J0.000 F799.980
G2 X69.017 Y125.000 Z-5.625 I-0.650 J0.000 F799.980
G2 X70.317 Y125.000 Z-5.900 I0.650 J0.000 F799.980
G2 X69.017 Y125.000 Z-6.175 I-0.650 J0.000 F799.980
G2 X70.317 Y125.000 Z-6.450 I0.650 J0.000 F799.980
G2 X69.017 Y125.000 Z-6.725 I-0.650 J0.000 F799.980
G2 X70.317 Y125.000 Z-7.000 I0.650 J0.000 F799.980
G2 X69.017 Y125.000 Z-7.000 I-0.650 J0.000 F799.980
G2 X70.317 Y125.000 Z-7.000 I0.650 J0.000 F799.980
G0 X69.667 Y125.000 Z-7.000
G0 Z-2.600
G0 X71.267 Y125.000
G1 Z-2.600 F100.000
G2 X68.067 Y125.000 Z-2.875 I-1.600 J0.000 F799.980
G2 X71.267 Y125.000 Z-3.150 I1.600 J0.000 F799.980
G2 X68.067 Y125.000 Z-3.425 I-1.600 J0.000 F799.980
G2 X71.267 Y125.000 Z-3.700 I1.600 J0.000 F799.980
G2 X68.067 Y125.000 Z-3.975 I-1.600 J0.000 F799.980
G2 X71.267 Y125.000 Z-4.250 I1.600 J0.000 F799.980
G2 X68.067 Y125.000 Z-4.525 I-1.600 J0.000 F799.980
G2 X71.267 Y125.000 Z-4.800 I1.600 J0.000 F799.980
G2 X68.067 Y125.000 Z-5.075 I-1.600 J0.000 F799.980
G2 X71.267 Y125.000 Z-5.350 I1.600 J0.000 F799.980
G2 X68.067 Y125.000 Z-5.625 I-1.600 J0.000 F799.980
G2 X71.267 Y125.000 Z-5.900 I1.600 J0.000 F799.980
G2 X68.067 Y125.000 Z-6.175 I-1.600 J0.000 F799.980
G2 X71.267 Y125.000 Z-6.450 I1.600 J0.000 F799.980
G2 X68.067 Y125.000 Z-6.725 I-1.600 J0.000 F799.980
G2 X71.267 Y125.000 Z-7.000 I1.600 J0.000 F799.980
G2 X68.067 Y125.000 Z-7.000 I-1.600 J0.000 F799.980
G2 X71.267 Y125.000 Z-7.000 I1.600 J0.000 F799.980
G0 X69.667 Y125.000 Z-7.000
G0 Z-2.600
G0 Z5.000
G0 X69.667 Y70.000 Z5.000
G0 X69.667 Y70.000 Z-2.600
G0 X70.317 Y70.000
G1 Z-2.600 F100.000
G2 X69.017 Y70.000 Z-2.875 I-0.650 J0.000 F799.980
G2 X70.317 Y70.000 Z-3.150 I0.650 J0.000 F799.980
G2 X69.017 Y70.000 Z-3.425 I-0.650 J0.000 F799.980
G2 X70.317 Y70.000 Z-3.700 I0.650 J0.000 F799.980
G2 X69.017 Y70.000 Z-3.975 I-0.650 J0.000 F799.980
G2 X70.317 Y70.000 Z-4.250 I0.650 J0.000 F799.980
G2 X69.017 Y70.000 Z-4.525 I-0.650 J0.000 F799.980
G2 X70.317 Y70.000 Z-4.800 I0.650 J0.000 F799.980
G2 X69.017 Y70.000 Z-5.075 I-0.650 J0.000 F799.980
G2 X70.317 Y70.000 Z-5.350 I0.650 J0.000 F799.980
G2 X69.017 Y70.000 Z-5.625 I-0.650 J0.000 F799.980
G2 X70.317 Y70.000 Z-5.900 I0.650 J0.000 F799.980
G2 X69.017 Y70.000 Z-6.175 I-0.650 J0.000 F799.980
G2 X70.317 Y70.000 Z-6.450 I0.650 J0.000 F799.980
G2 X69.017 Y70.000 Z-6.725 I-0.650 J0.000 F799.980
G2 X70.317 Y70.000 Z-7.000 I0.650 J0.000 F799.980
G2 X69.017 Y70.000 Z-7.000 I-0.650 J0.000 F799.980
G2 X70.317 Y70.000 Z-7.000 I0.650 J0.000 F799.980
G0 X69.667 Y70.000 Z-7.000
G0 Z-2.600
G0 X71.267 Y70.000
G1 Z-2.600 F100.000
G2 X68.067 Y70.000 Z-2.875 I-1.600 J0.000 F799.980
G2 X71.267 Y70.000 Z-3.150 I1.600 J0.000 F799.980
G2 X68.067 Y70.000 Z-3.425 I-1.600 J0.000 F799.980
G2 X71.267 Y70.000 Z-3.700 I1.600 J0.000 F799.980
G2 X68.067 Y70.000 Z-3.975 I-1.600 J0.000 F799.980
G2 X71.267 Y70.000 Z-4.250 I1.600 J0.000 F799.980
G2 X68.067 Y70.000 Z-4.525 I-1.600 J0.000 F799.980
G2 X71.267 Y70.000 Z-4.800 I1.600 J0.000 F799.980
G2 X68.067 Y70.000 Z-5.075 I-1.600 J0.000 F799.980
G2 X71.267 Y70.000 Z-5.350 I1.600 J0.000 F799.980
G2 X68.067 Y70.000 Z-5.625 I-1.600 J0.000 F799.980
G2 X71.267 Y70.000 Z-5.900 I1.600 J0.000 F799.980
G2 X68.067 Y70.000 Z-6.175 I-1.600 J0.000 F799.980
G2 X71.267 Y70.000 Z-6.450 I1.600 J0.000 F799.980
G2 X68.067 Y70.000 Z-6.725 I-1.600 J0.000 F799.980
G2 X71.267 Y70.000 Z-7.000 I1.600 J0.000 F799.980
G2 X68.067 Y70.000 Z-7.000 I-1.600 J0.000 F799.980
G2 X71.267 Y70.000 Z-7.000 I1.600 J0.000 F799.980
G0 X69.667 Y70.000 Z-7.000
G0 Z-2.600
G0 Z5.000
G0 X69.667 Y15.000 Z5.000
G0 X69.667 Y15.000 Z-2.600
G0 X70.317 Y15.000
G1 Z-2.600 F100.000
G2 X69.017 Y15.000 Z-2.875 I-0.650 J0.000 F799.980
G2 X70.317 Y15.000 Z-3.150 I0.650 J0.000 F799.980
G2 X69.017 Y15.000 Z-3.425 I-0.650 J0.000 F799.980
G2 X70.317 Y15.000 Z-3.700 I0.650 J0.000 F799.980
G2 X69.017 Y15.000 Z-3.975 I-0.650 J0.000 F799.980
G2 X70.317 Y15.000 Z-4.250 I0.650 J0.000 F799.980
G2 X69.017 Y15.000 Z-4.525 I-0.650 J0.000 F799.980
G2 X70.317 Y15.000 Z-4.800 I0.650 J0.000 F799.980
G2 X69.017 Y15.000 Z-5.075 I-0.650 J0.000 F799.980
G2 X70.317 Y15.000 Z-5.350 I0.650 J0.000 F799.980
G2 X69.017 Y15.000 Z-5.625 I-0.650 J0.000 F799.980
G2 X70.317 Y15.000 Z-5.900 I0.650 J0.000 F799.980
G2 X69.017 Y15.000 Z-6.175 I-0.650 J0.000 F799.980
G2 X70.317 Y15.000 Z-6.450 I0.650 J0.000 F799.980
G2 X69.017 Y15.000 Z-6.725 I-0.650 J0.000 F799.980
G2 X70.317 Y15.000 Z-7.000 I0.650 J0.000 F799.980
G2 X69.017 Y15.000 Z-7.000 I-0.650 J0.000 F799.980
G2 X70.317 Y15.000 Z-7.000 I0.650 J0.000 F799.980
G0 X69.667 Y15.000 Z-7.000
G0 Z-2.600
G0 X71.267 Y15.000
G1 Z-2.600 F100.000
G2 X68.067 Y15.000 Z-2.875 I-1.600 J0.000 F799.980
G2 X71.267 Y15.000 Z-3.150 I1.600 J0.000 F799.980
G2 X68.067 Y15.000 Z-3.425 I-1.600 J0.000 F799.980
G2 X71.267 Y15.000 Z-3.700 I1.600 J0.000 F799.980
G2 X68.067 Y15.000 Z-3.975 I-1.600 J0.000 F799.980
G2 X71.267 Y15.000 Z-4.250 I1.600 J0.000 F799.980
G2 X68.067 Y15.000 Z-4.525 I-1.600 J0.000 F799.980
G2 X71.267 Y15.000 Z-4.800 I1.600 J0.000 F799.980
G2 X68.067 Y15.000 Z-5.075 I-1.600 J0.000 F799.980
G2 X71.267 Y15.000 Z-5.350 I1.600 J0.000 F799.980
G2 X68.067 Y15.000 Z-5.625 I-1.600 J0.000 F799.980
G2 X71.267 Y15.000 Z-5.900 I1.600 J0.000 F799.980
G2 X68.067 Y15.000 Z-6.175 I-1.600 J0.000 F799.980
G2 X71.267 Y15.000 Z-6.450 I1.600 J0.000 F799.980
G2 X68.067 Y15.000 Z-6.725 I-1.600 J0.000 F799.980
G2 X71.267 Y15.000 Z-7.000 I1.600 J0.000 F799.980
G2 X68.067 Y15.000 Z-7.000 I-1.600 J0.000 F799.980
G2 X71.267 Y15.000 Z-7.000 I1.600 J0.000 F799.980
G0 X69.667 Y15.000 Z-7.000
G0 Z-2.600
G0 Z5.000
G0 X124.333 Y15.000 Z5.000
G0 X124.333 Y15.000 Z-2.600
G0 X124.983 Y15.000
G1 Z-2.600 F100.000
G2 X123.683 Y15.000 Z-2.875 I-0.650 J0.000 F799.980
G2 X124.983 Y15.000 Z-3.150 I0.650 J0.000 F799.980
G2 X123.683 Y15.000 Z-3.425 I-0.650 J0.000 F799.980
G2 X124.983 Y15.000 Z-3.700 I0.650 J0.000 F799.980
G2 X123.683 Y15.000 Z-3.975 I-0.650 J0.000 F799.980
G2 X124.983 Y15.000 Z-4.250 I0.650 J0.000 F799.980
G2 X123.683 Y15.000 Z-4.525 I-0.650 J0.000 F799.980
G2 X124.983 Y15.000 Z-4.800 I0.650 J0.000 F799.980
G2 X123.683 Y15.000 Z-5.075 I-0.650 J0.000 F799.980
G2 X124.983 Y15.000 Z-5.350 I0.650 J0.000 F799.980
G2 X123.683 Y15.000 Z-5.625 I-0.650 J0.000 F799.980
G2 X124.983 Y15.000 Z-5.900 I0.650 J0.000 F799.980
G2 X123.683 Y15.000 Z-6.175 I-0.650 J0.000 F799.980
G2 X124.983 Y15.000 Z-6.450 I0.650 J0.000 F799.980
G2 X123.683 Y15.000 Z-6.725 I-0.650 J0.000 F799.980
G2 X124.983 Y15.000 Z-7.000 I0.650 J0.000 F799.980
G2 X123.683 Y15.000 Z-7.000 I-0.650 J0.000 F799.980
G2 X124.983 Y15.000 Z-7.000 I0.650 J0.000 F799.980
G0 X124.333 Y15.000 Z-7.000
G0 Z-2.600
G0 X125.933 Y15.000
G1 Z-2.600 F100.000
G2 X122.733 Y15.000 Z-2.875 I-1.600 J0.000 F799.980
G2 X125.933 Y15.000 Z-3.150 I1.600 J0.000 F799.980
G2 X122.733 Y15.000 Z-3.425 I-1.600 J0.000 F799.980
G2 X125.933 Y15.000 Z-3.700 I1.600 J0.000 F799.980
G2 X122.733 Y15.000 Z-3.975 I-1.600 J0.000 F799.980
G2 X125.933 Y15.000 Z-4.250 I1.600 J0.000 F799.980
G2 X122.733 Y15.000 Z-4.525 I-1.600 J0.000 F799.980
G2 X125.933 Y15.000 Z-4.800 I1.600 J0.000 F799.980
G2 X122.733 Y15.000 Z-5.075 I-1.600 J0.000 F799.980
